P3
320 213
255
0 0 0
0 0 0
0 0 0
0 0 0
0 0 0
0 0 0
0 0 0
0 0 0
0 0 0
0 0 0
0 0 0
0 0 0
0 0 0
0 0 0
0 0 0
0 0 0
0 0 0
0 0 0
0 0 0
0 0 0
0 0 0
0 0 0
0 0 0
0 0 0
0 0 0
0 0 0
0 0 0
0 0 0
0 0 0
0 0 0
0 0 0
0 0 0
0 0 0
0 0 0
0 0 0
0 0 0
0 0 0
0 0 0
0 0 0
0 0 0
0 0 0
0 0 0
0 0 0
0 0 0
0 0 0
0 0 0
0 0 0
0 0 0
0 0 0
0 0 0
0 0 0
0 0 0
0 0 0
0 0 0
0 0 0
0 0 0
0 0 0
0 0 0
0 0 0
0 0 0
0 0 0
0 0 0
0 0 0
0 0 0
0 0 0
0 0 0
0 0 0
0 0 0
0 0 0
0 0 0
0 0 0
0 0 0
0 0 0
0 0 0
0 0 0
0 0 0
0 0 0
0 0 0
0 0 0
0 0 0
0 0 0
0 0 0
0 0 0
0 0 0
0 0 0
0 0 0
0 0 0
0 0 0
0 0 0
0 0 0
0 0 0
0 0 0
0 0 0
0 0 0
0 0 0
0 0 0
0 0 0
0 0 0
0 0 0
0 0 0
0 0 0
0 0 0
0 0 0
0 0 0
0 0 0
0 0 0
0 0 0
0 0 0
0 0 0
0 0 0
0 0 0
0 0 0
0 0 0
0 0 0
0 0 0
0 0 0
0 0 0
0 0 0
0 0 0
0 0 0
0 0 0
0 0 0
0 0 0
0 0 0
0 0 0
0 0 0
0 0 0
0 0 0
0 0 0
0 0 0
0 0 0
0 0 0
0 0 0
0 0 0
0 0 0
0 0 0
0 0 0
0 0 0
0 0 0
0 0 0
0 0 0
0 0 0
0 0 0
0 0 0
0 0 0
0 0 0
0 0 0
0 0 0
0 0 0
0 0 0
0 0 0
0 0 0
0 0 0
0 0 0
0 0 0
0 0 0
0 0 0
0 0 0
0 0 0
0 0 0
0 0 0
0 0 0
0 0 0
0 0 0
0 0 0
0 0 0
0 0 0
0 0 0
0 0 0
0 0 0
0 0 0
0 0 0
0 0 0
0 0 0
0 0 0
0 0 0
0 0 0
0 0 0
0 0 0
0 0 0
0 0 0
0 0 0
0 0 0
0 0 0
0 0 0
0 0 0
0 0 0
0 0 0
0 0 0
0 0 0
0 0 0
0 0 0
0 0 0
0 0 0
0 0 0
0 0 0
0 0 0
0 0 0
0 0 0
0 0 0
0 0 0
0 0 0
0 0 0
0 0 0
0 0 0
0 0 0
0 0 0
0 0 0
0 0 0
0 0 0
0 0 0
0 0 0
0 0 0
0 0 0
0 0 0
0 0 0
0 0 0
0 0 0
0 0 0
0 0 0
0 0 0
0 0 0
0 0 0
0 0 0
0 0 0
0 0 0
0 0 0
0 0 0
0 0 0
0 0 0
0 0 0
0 0 0
0 0 0
0 0 0
0 0 0
0 0 0
0 0 0
0 0 0
0 0 0
0 0 0
0 0 0
0 0 0
0 0 0
0 0 0
0 0 0
0 0 0
0 0 0
0 0 0
0 0 0
0 0 0
0 0 0
0 0 0
0 0 0
0 0 0
0 0 0
0 0 0
0 0 0
0 0 0
0 0 0
0 0 0
0 0 0
0 0 0
0 0 0
0 0 0
0 0 0
0 0 0
0 0 0
0 0 0
0 0 0
0 0 0
0 0 0
0 0 0
0 0 0
0 0 0
0 0 0
0 0 0
0 0 0
0 0 0
0 0 0
0 0 0
0 0 0
0 0 0
0 0 0
0 0 0
0 0 0
0 0 0
0 0 0
0 0 0
0 0 0
0 0 0
0 0 0
0 0 0
0 0 0
0 0 0
0 0 0
0 0 0
0 0 0
0 0 0
0 0 0
0 0 0
0 0 0
0 0 0
0 0 0
0 0 0
0 0 0
0 0 0
0 0 0
0 0 0
0 0 0
0 0 0
0 0 0
0 0 0
0 0 0
0 0 0
0 0 0
0 0 0
0 0 0
0 0 0
0 0 0
0 0 0
0 0 0
0 0 0
0 0 0
0 0 0
0 0 0
0 0 0
0 0 0
0 0 0
0 0 0
0 0 0
0 0 0
0 0 0
0 0 0
0 0 0
0 0 0
0 0 0
0 0 0
0 0 0
0 0 0
0 0 0
0 0 0
0 0 0
0 0 0
0 0 0
0 0 0
0 0 0
0 0 0
0 0 0
0 0 0
0 0 0
0 0 0
0 0 0
0 0 0
0 0 0
0 0 0
0 0 0
0 0 0
0 0 0
0 0 0
0 0 0
0 0 0
0 0 0
0 0 0
0 0 0
0 0 0
0 0 0
0 0 0
0 0 0
0 0 0
0 0 0
0 0 0
0 0 0
0 0 0
0 0 0
0 0 0
0 0 0
0 0 0
0 0 0
0 0 0
0 0 0
0 0 0
0 0 0
0 0 0
0 0 0
0 0 0
0 0 0
0 0 0
0 0 0
0 0 0
0 0 0
0 0 0
0 0 0
0 0 0
0 0 0
0 0 0
0 0 0
0 0 0
0 0 0
0 0 0
0 0 0
0 0 0
0 0 0
0 0 0
0 0 0
0 0 0
0 0 0
0 0 0
0 0 0
0 0 0
0 0 0
0 0 0
0 0 0
0 0 0
0 0 0
0 0 0
0 0 0
0 0 0
0 0 0
0 0 0
0 0 0
0 0 0
0 0 0
0 0 0
0 0 0
0 0 0
0 0 0
0 0 0
0 0 0
0 0 0
0 0 0
0 0 0
0 0 0
0 0 0
0 0 0
0 0 0
0 0 0
0 0 0
0 0 0
0 0 0
0 0 0
0 0 0
0 0 0
0 0 0
0 0 0
0 0 0
0 0 0
0 0 0
0 0 0
0 0 0
0 0 0
0 0 0
0 0 0
0 0 0
0 0 0
0 0 0
0 0 0
0 0 0
0 0 0
0 0 0
0 0 0
0 0 0
0 0 0
0 0 0
0 0 0
0 0 0
0 0 0
0 0 0
0 0 0
0 0 0
0 0 0
0 0 0
0 0 0
0 0 0
0 0 0
0 0 0
0 0 0
0 0 0
0 0 0
0 0 0
0 0 0
0 0 0
0 0 0
0 0 0
0 0 0
0 0 0
0 0 0
0 0 0
0 0 0
0 0 0
0 0 0
0 0 0
0 0 0
0 0 0
0 0 0
0 0 0
0 0 0
0 0 0
0 0 0
0 0 0
0 0 0
0 0 0
0 0 0
0 0 0
0 0 0
0 0 0
0 0 0
0 0 0
0 0 0
0 0 0
0 0 0
0 0 0
0 0 0
0 0 0
0 0 0
0 0 0
0 0 0
0 0 0
0 0 0
0 0 0
0 0 0
0 0 0
0 0 0
0 0 0
0 0 0
0 0 0
0 0 0
0 0 0
0 0 0
0 0 0
0 0 0
0 0 0
0 0 0
0 0 0
0 0 0
0 0 0
0 0 0
0 0 0
0 0 0
0 0 0
0 0 0
0 0 0
0 0 0
0 0 0
0 0 0
0 0 0
0 0 0
0 0 0
0 0 0
0 0 0
0 0 0
0 0 0
0 0 0
0 0 0
0 0 0
0 0 0
0 0 0
0 0 0
0 0 0
0 0 0
0 0 0
0 0 0
0 0 0
0 0 0
0 0 0
0 0 0
0 0 0
0 0 0
0 0 0
0 0 0
0 0 0
0 0 0
0 0 0
0 0 0
0 0 0
0 0 0
0 0 0
0 0 0
0 0 0
0 0 0
0 0 0
0 0 0
0 0 0
0 0 0
0 0 0
0 0 0
0 0 0
0 0 0
0 0 0
0 0 0
0 0 0
0 0 0
0 0 0
0 0 0
0 0 0
0 0 0
0 0 0
0 0 0
0 0 0
0 0 0
0 0 0
0 0 0
0 0 0
0 0 0
0 0 0
0 0 0
0 0 0
0 0 0
0 0 0
0 0 0
0 0 0
0 0 0
0 0 0
0 0 0
0 0 0
0 0 0
0 0 0
0 0 0
0 0 0
0 0 0
0 0 0
0 0 0
0 0 0
0 0 0
0 0 0
0 0 0
0 0 0
0 0 0
0 0 0
0 0 0
0 0 0
0 0 0
0 0 0
0 0 0
0 0 0
0 0 0
0 0 0
0 0 0
0 0 0
0 0 0
0 0 0
0 0 0
0 0 0
0 0 0
0 0 0
0 0 0
0 0 0
0 0 0
0 0 0
0 0 0
0 0 0
0 0 0
0 0 0
0 0 0
0 0 0
0 0 0
0 0 0
0 0 0
0 0 0
0 0 0
0 0 0
0 0 0
0 0 0
0 0 0
0 0 0
0 0 0
0 0 0
0 0 0
0 0 0
0 0 0
0 0 0
0 0 0
0 0 0
0 0 0
0 0 0
0 0 0
0 0 0
0 0 0
0 0 0
0 0 0
0 0 0
0 0 0
0 0 0
0 0 0
0 0 0
0 0 0
0 0 0
0 0 0
0 0 0
0 0 0
0 0 0
0 0 0
0 0 0
0 0 0
0 0 0
0 0 0
0 0 0
0 0 0
0 0 0
0 0 0
0 0 0
0 0 0
0 0 0
0 0 0
0 0 0
0 0 0
0 0 0
0 0 0
0 0 0
0 0 0
0 0 0
0 0 0
0 0 0
0 0 0
0 0 0
0 0 0
0 0 0
0 0 0
0 0 0
0 0 0
0 0 0
0 0 0
0 0 0
0 0 0
0 0 0
0 0 0
0 0 0
0 0 0
0 0 0
0 0 0
0 0 0
0 0 0
0 0 0
0 0 0
0 0 0
0 0 0
0 0 0
0 0 0
0 0 0
0 0 0
0 0 0
0 0 0
0 0 0
0 0 0
0 0 0
0 0 0
0 0 0
0 0 0
0 0 0
0 0 0
0 0 0
0 0 0
0 0 0
0 0 0
0 0 0
0 0 0
0 0 0
0 0 0
0 0 0
0 0 0
0 0 0
0 0 0
0 0 0
0 0 0
0 0 0
0 0 0
0 0 0
0 0 0
0 0 0
0 0 0
0 0 0
0 0 0
0 0 0
0 0 0
0 0 0
0 0 0
0 0 0
0 0 0
0 0 0
0 0 0
0 0 0
0 0 0
0 0 0
0 0 0
0 0 0
0 0 0
0 0 0
0 0 0
0 0 0
0 0 0
0 0 0
0 0 0
0 0 0
0 0 0
0 0 0
0 0 0
0 0 0
0 0 0
0 0 0
0 0 0
0 0 0
0 0 0
0 0 0
0 0 0
0 0 0
0 0 0
0 0 0
0 0 0
0 0 0
0 0 0
0 0 0
0 0 0
0 0 0
0 0 0
0 0 0
0 0 0
0 0 0
0 0 0
0 0 0
0 0 0
0 0 0
0 0 0
0 0 0
0 0 0
0 0 0
0 0 0
0 0 0
0 0 0
0 0 0
0 0 0
0 0 0
0 0 0
0 0 0
0 0 0
0 0 0
0 0 0
0 0 0
0 0 0
0 0 0
0 0 0
0 0 0
0 0 0
0 0 0
0 0 0
0 0 0
0 0 0
0 0 0
0 0 0
0 0 0
0 0 0
0 0 0
0 0 0
0 0 0
0 0 0
0 0 0
0 0 0
0 0 0
0 0 0
0 0 0
0 0 0
0 0 0
0 0 0
0 0 0
0 0 0
0 0 0
0 0 0
0 0 0
0 0 0
0 0 0
0 0 0
0 0 0
0 0 0
0 0 0
0 0 0
0 0 0
0 0 0
0 0 0
0 0 0
0 0 0
0 0 0
0 0 0
0 0 0
0 0 0
0 0 0
0 0 0
0 0 0
0 0 0
0 0 0
0 0 0
0 0 0
0 0 0
0 0 0
0 0 0
0 0 0
0 0 0
0 0 0
0 0 0
0 0 0
0 0 0
0 0 0
0 0 0
0 0 0
0 0 0
0 0 0
0 0 0
0 0 0
0 0 0
0 0 0
0 0 0
0 0 0
0 0 0
0 0 0
0 0 0
0 0 0
0 0 0
0 0 0
0 0 0
0 0 0
0 0 0
0 0 0
0 0 0
0 0 0
0 0 0
0 0 0
0 0 0
0 0 0
0 0 0
0 0 0
0 0 0
0 0 0
0 0 0
0 0 0
0 0 0
0 0 0
0 0 0
0 0 0
0 0 0
0 0 0
0 0 0
0 0 0
0 0 0
0 0 0
0 0 0
0 0 0
0 0 0
0 0 0
0 0 0
0 0 0
0 0 0
0 0 0
0 0 0
0 0 0
0 0 0
0 0 0
0 0 0
0 0 0
0 0 0
0 0 0
0 0 0
0 0 0
0 0 0
0 0 0
0 0 0
0 0 0
0 0 0
0 0 0
0 0 0
0 0 0
0 0 0
0 0 0
0 0 0
0 0 0
0 0 0
0 0 0
0 0 0
0 0 0
0 0 0
0 0 0
0 0 0
0 0 0
0 0 0
0 0 0
0 0 0
0 0 0
0 0 0
0 0 0
0 0 0
0 0 0
0 0 0
0 0 0
0 0 0
0 0 0
0 0 0
0 0 0
0 0 0
0 0 0
0 0 0
0 0 0
0 0 0
0 0 0
0 0 0
0 0 0
0 0 0
0 0 0
0 0 0
0 0 0
0 0 0
0 0 0
0 0 0
0 0 0
0 0 0
0 0 0
0 0 0
0 0 0
0 0 0
0 0 0
0 0 0
0 0 0
0 0 0
0 0 0
0 0 0
0 0 0
0 0 0
0 0 0
0 0 0
0 0 0
0 0 0
0 0 0
0 0 0
0 0 0
0 0 0
0 0 0
0 0 0
0 0 0
0 0 0
0 0 0
0 0 0
0 0 0
0 0 0
0 0 0
0 0 0
0 0 0
0 0 0
0 0 0
0 0 0
0 0 0
0 0 0
0 0 0
0 0 0
0 0 0
0 0 0
0 0 0
0 0 0
0 0 0
0 0 0
0 0 0
0 0 0
0 0 0
0 0 0
0 0 0
0 0 0
0 0 0
0 0 0
0 0 0
0 0 0
0 0 0
0 0 0
0 0 0
0 0 0
0 0 0
0 0 0
0 0 0
0 0 0
0 0 0
0 0 0
0 0 0
0 0 0
0 0 0
0 0 0
0 0 0
0 0 0
0 0 0
0 0 0
0 0 0
0 0 0
0 0 0
0 0 0
0 0 0
0 0 0
0 0 0
0 0 0
0 0 0
0 0 0
0 0 0
0 0 0
0 0 0
0 0 0
0 0 0
0 0 0
0 0 0
0 0 0
0 0 0
0 0 0
0 0 0
0 0 0
0 0 0
0 0 0
0 0 0
0 0 0
0 0 0
0 0 0
0 0 0
0 0 0
0 0 0
0 0 0
0 0 0
0 0 0
0 0 0
0 0 0
0 0 0
0 0 0
0 0 0
0 0 0
0 0 0
0 0 0
0 0 0
0 0 0
0 0 0
0 0 0
0 0 0
0 0 0
0 0 0
0 0 0
0 0 0
0 0 0
0 0 0
0 0 0
0 0 0
0 0 0
0 0 0
0 0 0
0 0 0
0 0 0
0 0 0
0 0 0
0 0 0
0 0 0
0 0 0
0 0 0
0 0 0
0 0 0
0 0 0
0 0 0
0 0 0
0 0 0
0 0 0
0 0 0
0 0 0
0 0 0
0 0 0
0 0 0
0 0 0
0 0 0
0 0 0
0 0 0
0 0 0
0 0 0
0 0 0
0 0 0
0 0 0
0 0 0
0 0 0
0 0 0
0 0 0
0 0 0
0 0 0
0 0 0
0 0 0
0 0 0
0 0 0
0 0 0
0 0 0
0 0 0
0 0 0
0 0 0
0 0 0
0 0 0
0 0 0
0 0 0
0 0 0
0 0 0
0 0 0
0 0 0
0 0 0
0 0 0
0 0 0
0 0 0
0 0 0
0 0 0
0 0 0
0 0 0
0 0 0
0 0 0
0 0 0
0 0 0
0 0 0
0 0 0
0 0 0
0 0 0
0 0 0
0 0 0
0 0 0
0 0 0
0 0 0
0 0 0
0 0 0
0 0 0
0 0 0
0 0 0
0 0 0
0 0 0
0 0 0
0 0 0
0 0 0
0 0 0
0 0 0
0 0 0
0 0 0
0 0 0
0 0 0
0 0 0
0 0 0
0 0 0
0 0 0
0 0 0
0 0 0
0 0 0
0 0 0
0 0 0
0 0 0
0 0 0
0 0 0
0 0 0
0 0 0
0 0 0
0 0 0
0 0 0
0 0 0
0 0 0
0 0 0
0 0 0
0 0 0
0 0 0
0 0 0
0 0 0
0 0 0
0 0 0
0 0 0
0 0 0
0 0 0
0 0 0
0 0 0
0 0 0
0 0 0
0 0 0
0 0 0
0 0 0
0 0 0
0 0 0
0 0 0
0 0 0
0 0 0
0 0 0
0 0 0
0 0 0
0 0 0
0 0 0
0 0 0
0 0 0
0 0 0
0 0 0
0 0 0
0 0 0
0 0 0
0 0 0
0 0 0
0 0 0
0 0 0
0 0 0
0 0 0
0 0 0
0 0 0
0 0 0
0 0 0
0 0 0
0 0 0
0 0 0
0 0 0
0 0 0
0 0 0
0 0 0
0 0 0
0 0 0
0 0 0
0 0 0
0 0 0
0 0 0
0 0 0
0 0 0
0 0 0
0 0 0
0 0 0
0 0 0
0 0 0
0 0 0
0 0 0
0 0 0
0 0 0
0 0 0
0 0 0
0 0 0
0 0 0
0 0 0
0 0 0
0 0 0
0 0 0
0 0 0
0 0 0
0 0 0
0 0 0
0 0 0
0 0 0
0 0 0
0 0 0
0 0 0
0 0 0
0 0 0
0 0 0
0 0 0
0 0 0
0 0 0
0 0 0
0 0 0
0 0 0
0 0 0
0 0 0
0 0 0
0 0 0
0 0 0
0 0 0
0 0 0
0 0 0
0 0 0
0 0 0
0 0 0
0 0 0
0 0 0
0 0 0
0 0 0
0 0 0
0 0 0
0 0 0
0 0 0
0 0 0
0 0 0
0 0 0
0 0 0
0 0 0
0 0 0
0 0 0
0 0 0
0 0 0
0 0 0
0 0 0
0 0 0
0 0 0
0 0 0
0 0 0
0 0 0
0 0 0
0 0 0
0 0 0
0 0 0
0 0 0
0 0 0
0 0 0
0 0 0
0 0 0
0 0 0
0 0 0
0 0 0
0 0 0
0 0 0
0 0 0
0 0 0
0 0 0
0 0 0
0 0 0
0 0 0
0 0 0
0 0 0
0 0 0
0 0 0
0 0 0
0 0 0
0 0 0
0 0 0
0 0 0
0 0 0
0 0 0
0 0 0
0 0 0
0 0 0
0 0 0
0 0 0
0 0 0
0 0 0
0 0 0
0 0 0
0 0 0
0 0 0
0 0 0
0 0 0
0 0 0
0 0 0
0 0 0
0 0 0
0 0 0
0 0 0
0 0 0
0 0 0
0 0 0
0 0 0
0 0 0
0 0 0
0 0 0
0 0 0
0 0 0
0 0 0
0 0 0
0 0 0
0 0 0
0 0 0
0 0 0
0 0 0
0 0 0
0 0 0
0 0 0
0 0 0
0 0 0
0 0 0
0 0 0
0 0 0
0 0 0
0 0 0
0 0 0
0 0 0
0 0 0
0 0 0
0 0 0
0 0 0
0 0 0
0 0 0
0 0 0
0 0 0
0 0 0
0 0 0
0 0 0
0 0 0
0 0 0
0 0 0
0 0 0
0 0 0
0 0 0
0 0 0
0 0 0
0 0 0
0 0 0
0 0 0
0 0 0
0 0 0
0 0 0
0 0 0
0 0 0
0 0 0
0 0 0
0 0 0
0 0 0
0 0 0
0 0 0
0 0 0
0 0 0
0 0 0
0 0 0
0 0 0
0 0 0
0 0 0
0 0 0
0 0 0
0 0 0
0 0 0
0 0 0
0 0 0
0 0 0
0 0 0
0 0 0
0 0 0
0 0 0
0 0 0
0 0 0
0 0 0
0 0 0
0 0 0
0 0 0
0 0 0
0 0 0
0 0 0
0 0 0
0 0 0
0 0 0
0 0 0
0 0 0
0 0 0
0 0 0
0 0 0
0 0 0
0 0 0
0 0 0
0 0 0
0 0 0
0 0 0
0 0 0
0 0 0
0 0 0
0 0 0
0 0 0
0 0 0
0 0 0
0 0 0
0 0 0
0 0 0
0 0 0
0 0 0
0 0 0
0 0 0
0 0 0
0 0 0
0 0 0
0 0 0
0 0 0
0 0 0
0 0 0
0 0 0
0 0 0
0 0 0
0 0 0
0 0 0
0 0 0
0 0 0
0 0 0
0 0 0
0 0 0
0 0 0
0 0 0
0 0 0
0 0 0
0 0 0
0 0 0
0 0 0
0 0 0
0 0 0
0 0 0
0 0 0
0 0 0
0 0 0
0 0 0
0 0 0
0 0 0
0 0 0
0 0 0
0 0 0
0 0 0
0 0 0
0 0 0
0 0 0
0 0 0
0 0 0
0 0 0
0 0 0
0 0 0
0 0 0
0 0 0
0 0 0
0 0 0
0 0 0
0 0 0
0 0 0
0 0 0
0 0 0
0 0 0
0 0 0
0 0 0
0 0 0
0 0 0
0 0 0
0 0 0
0 0 0
0 0 0
0 0 0
0 0 0
0 0 0
0 0 0
0 0 0
0 0 0
0 0 0
0 0 0
0 0 0
0 0 0
0 0 0
0 0 0
0 0 0
0 0 0
0 0 0
0 0 0
0 0 0
0 0 0
0 0 0
0 0 0
0 0 0
0 0 0
0 0 0
0 0 0
0 0 0
0 0 0
0 0 0
0 0 0
0 0 0
0 0 0
0 0 0
0 0 0
0 0 0
0 0 0
0 0 0
0 0 0
0 0 0
0 0 0
0 0 0
0 0 0
0 0 0
0 0 0
0 0 0
0 0 0
0 0 0
0 0 0
0 0 0
0 0 0
0 0 0
0 0 0
0 0 0
0 0 0
0 0 0
0 0 0
0 0 0
0 0 0
0 0 0
0 0 0
0 0 0
0 0 0
0 0 0
0 0 0
0 0 0
0 0 0
0 0 0
0 0 0
0 0 0
0 0 0
0 0 0
0 0 0
0 0 0
0 0 0
0 0 0
0 0 0
0 0 0
0 0 0
0 0 0
0 0 0
0 0 0
0 0 0
0 0 0
0 0 0
0 0 0
0 0 0
0 0 0
0 0 0
0 0 0
0 0 0
0 0 0
0 0 0
0 0 0
0 0 0
0 0 0
0 0 0
0 0 0
0 0 0
0 0 0
0 0 0
0 0 0
0 0 0
0 0 0
0 0 0
0 0 0
0 0 0
0 0 0
0 0 0
0 0 0
0 0 0
0 0 0
0 0 0
0 0 0
0 0 0
0 0 0
0 0 0
0 0 0
0 0 0
0 0 0
0 0 0
0 0 0
0 0 0
0 0 0
0 0 0
0 0 0
0 0 0
0 0 0
0 0 0
0 0 0
0 0 0
0 0 0
0 0 0
0 0 0
0 0 0
0 0 0
0 0 0
0 0 0
0 0 0
0 0 0
0 0 0
0 0 0
0 0 0
0 0 0
0 0 0
0 0 0
0 0 0
0 0 0
0 0 0
0 0 0
0 0 0
0 0 0
0 0 0
0 0 0
0 0 0
0 0 0
0 0 0
0 0 0
0 0 0
0 0 0
0 0 0
0 0 0
0 0 0
0 0 0
0 0 0
0 0 0
0 0 0
0 0 0
0 0 0
0 0 0
0 0 0
0 0 0
0 0 0
0 0 0
0 0 0
0 0 0
0 0 0
0 0 0
0 0 0
0 0 0
0 0 0
0 0 0
0 0 0
0 0 0
0 0 0
0 0 0
0 0 0
0 0 0
0 0 0
0 0 0
0 0 0
0 0 0
0 0 0
0 0 0
0 0 0
0 0 0
0 0 0
0 0 0
0 0 0
0 0 0
0 0 0
0 0 0
0 0 0
0 0 0
0 0 0
0 0 0
0 0 0
0 0 0
0 0 0
0 0 0
0 0 0
0 0 0
0 0 0
0 0 0
0 0 0
0 0 0
0 0 0
0 0 0
0 0 0
0 0 0
0 0 0
0 0 0
0 0 0
0 0 0
0 0 0
0 0 0
0 0 0
0 0 0
0 0 0
0 0 0
0 0 0
0 0 0
0 0 0
0 0 0
0 0 0
0 0 0
0 0 0
0 0 0
0 0 0
0 0 0
0 0 0
0 0 0
0 0 0
0 0 0
0 0 0
0 0 0
0 0 0
0 0 0
0 0 0
0 0 0
0 0 0
0 0 0
0 0 0
0 0 0
0 0 0
0 0 0
0 0 0
0 0 0
0 0 0
0 0 0
0 0 0
0 0 0
0 0 0
0 0 0
0 0 0
0 0 0
0 0 0
0 0 0
0 0 0
0 0 0
0 0 0
0 0 0
0 0 0
0 0 0
0 0 0
0 0 0
0 0 0
0 0 0
0 0 0
0 0 0
0 0 0
0 0 0
0 0 0
0 0 0
0 0 0
0 0 0
0 0 0
0 0 0
0 0 0
0 0 0
0 0 0
0 0 0
0 0 0
0 0 0
0 0 0
0 0 0
0 0 0
0 0 0
0 0 0
0 0 0
0 0 0
0 0 0
0 0 0
0 0 0
0 0 0
0 0 0
0 0 0
0 0 0
0 0 0
0 0 0
0 0 0
0 0 0
0 0 0
0 0 0
0 0 0
0 0 0
0 0 0
0 0 0
0 0 0
0 0 0
0 0 0
0 0 0
0 0 0
0 0 0
0 0 0
0 0 0
0 0 0
0 0 0
0 0 0
0 0 0
0 0 0
0 0 0
0 0 0
0 0 0
0 0 0
0 0 0
0 0 0
0 0 0
0 0 0
0 0 0
0 0 0
0 0 0
0 0 0
0 0 0
0 0 0
0 0 0
0 0 0
0 0 0
0 0 0
0 0 0
0 0 0
0 0 0
0 0 0
0 0 0
0 0 0
0 0 0
0 0 0
0 0 0
0 0 0
0 0 0
0 0 0
0 0 0
0 0 0
0 0 0
0 0 0
0 0 0
0 0 0
0 0 0
0 0 0
0 0 0
0 0 0
0 0 0
0 0 0
0 0 0
0 0 0
0 0 0
0 0 0
0 0 0
0 0 0
0 0 0
0 0 0
0 0 0
0 0 0
0 0 0
0 0 0
0 0 0
0 0 0
0 0 0
0 0 0
0 0 0
0 0 0
0 0 0
0 0 0
0 0 0
0 0 0
0 0 0
0 0 0
0 0 0
0 0 0
0 0 0
0 0 0
0 0 0
0 0 0
0 0 0
0 0 0
0 0 0
0 0 0
0 0 0
0 0 0
0 0 0
0 0 0
0 0 0
0 0 0
0 0 0
0 0 0
0 0 0
0 0 0
0 0 0
0 0 0
0 0 0
0 0 0
0 0 0
0 0 0
0 0 0
0 0 0
0 0 0
0 0 0
0 0 0
0 0 0
0 0 0
0 0 0
0 0 0
0 0 0
0 0 0
0 0 0
0 0 0
0 0 0
0 0 0
0 0 0
0 0 0
0 0 0
0 0 0
0 0 0
0 0 0
0 0 0
0 0 0
0 0 0
0 0 0
0 0 0
0 0 0
0 0 0
0 0 0
0 0 0
0 0 0
0 0 0
0 0 0
0 0 0
0 0 0
0 0 0
0 0 0
0 0 0
0 0 0
0 0 0
0 0 0
0 0 0
0 0 0
0 0 0
0 0 0
0 0 0
0 0 0
0 0 0
0 0 0
0 0 0
0 0 0
0 0 0
0 0 0
0 0 0
0 0 0
0 0 0
0 0 0
0 0 0
0 0 0
0 0 0
0 0 0
0 0 0
0 0 0
0 0 0
0 0 0
0 0 0
0 0 0
0 0 0
0 0 0
0 0 0
0 0 0
0 0 0
0 0 0
0 0 0
0 0 0
0 0 0
0 0 0
0 0 0
0 0 0
0 0 0
0 0 0
0 0 0
0 0 0
0 0 0
0 0 0
0 0 0
0 0 0
0 0 0
0 0 0
0 0 0
0 0 0
0 0 0
0 0 0
0 0 0
0 0 0
0 0 0
0 0 0
0 0 0
0 0 0
0 0 0
0 0 0
0 0 0
0 0 0
0 0 0
0 0 0
0 0 0
0 0 0
0 0 0
0 0 0
0 0 0
0 0 0
0 0 0
0 0 0
0 0 0
0 0 0
0 0 0
0 0 0
0 0 0
0 0 0
0 0 0
0 0 0
0 0 0
0 0 0
0 0 0
0 0 0
0 0 0
0 0 0
0 0 0
0 0 0
0 0 0
0 0 0
0 0 0
0 0 0
0 0 0
0 0 0
0 0 0
0 0 0
0 0 0
0 0 0
0 0 0
0 0 0
0 0 0
0 0 0
0 0 0
0 0 0
0 0 0
0 0 0
0 0 0
0 0 0
0 0 0
0 0 0
0 0 0
0 0 0
0 0 0
0 0 0
0 0 0
0 0 0
0 0 0
0 0 0
0 0 0
0 0 0
0 0 0
0 0 0
0 0 0
0 0 0
0 0 0
0 0 0
0 0 0
0 0 0
0 0 0
0 0 0
0 0 0
0 0 0
0 0 0
0 0 0
0 0 0
0 0 0
0 0 0
0 0 0
0 0 0
0 0 0
0 0 0
0 0 0
0 0 0
0 0 0
0 0 0
0 0 0
0 0 0
0 0 0
0 0 0
0 0 0
0 0 0
0 0 0
0 0 0
0 0 0
0 0 0
0 0 0
0 0 0
0 0 0
0 0 0
0 0 0
0 0 0
0 0 0
0 0 0
0 0 0
0 0 0
0 0 0
0 0 0
0 0 0
0 0 0
0 0 0
0 0 0
0 0 0
0 0 0
0 0 0
0 0 0
0 0 0
0 0 0
0 0 0
0 0 0
0 0 0
0 0 0
0 0 0
0 0 0
0 0 0
0 0 0
0 0 0
0 0 0
0 0 0
0 0 0
0 0 0
0 0 0
0 0 0
0 0 0
0 0 0
0 0 0
0 0 0
0 0 0
0 0 0
0 0 0
0 0 0
0 0 0
0 0 0
0 0 0
0 0 0
0 0 0
0 0 0
0 0 0
0 0 0
0 0 0
0 0 0
0 0 0
0 0 0
0 0 0
0 0 0
0 0 0
0 0 0
0 0 0
0 0 0
0 0 0
0 0 0
0 0 0
0 0 0
0 0 0
0 0 0
0 0 0
0 0 0
0 0 0
0 0 0
0 0 0
0 0 0
0 0 0
0 0 0
0 0 0
0 0 0
0 0 0
0 0 0
0 0 0
0 0 0
0 0 0
0 0 0
0 0 0
0 0 0
0 0 0
0 0 0
0 0 0
0 0 0
0 0 0
0 0 0
0 0 0
0 0 0
0 0 0
0 0 0
0 0 0
0 0 0
0 0 0
0 0 0
0 0 0
0 0 0
0 0 0
0 0 0
0 0 0
0 0 0
0 0 0
0 0 0
0 0 0
0 0 0
0 0 0
0 0 0
0 0 0
0 0 0
0 0 0
0 0 0
0 0 0
0 0 0
0 0 0
0 0 0
0 0 0
0 0 0
0 0 0
0 0 0
0 0 0
0 0 0
0 0 0
0 0 0
0 0 0
0 0 0
0 0 0
0 0 0
0 0 0
0 0 0
0 0 0
0 0 0
0 0 0
0 0 0
0 0 0
0 0 0
0 0 0
0 0 0
0 0 0
0 0 0
0 0 0
0 0 0
0 0 0
0 0 0
0 0 0
0 0 0
0 0 0
0 0 0
0 0 0
0 0 0
0 0 0
0 0 0
0 0 0
0 0 0
0 0 0
0 0 0
0 0 0
0 0 0
0 0 0
0 0 0
0 0 0
0 0 0
0 0 0
0 0 0
0 0 0
0 0 0
0 0 0
0 0 0
0 0 0
0 0 0
0 0 0
0 0 0
0 0 0
0 0 0
0 0 0
0 0 0
0 0 0
0 0 0
0 0 0
0 0 0
0 0 0
0 0 0
0 0 0
0 0 0
0 0 0
0 0 0
0 0 0
0 0 0
0 0 0
0 0 0
0 0 0
0 0 0
0 0 0
0 0 0
0 0 0
0 0 0
0 0 0
0 0 0
0 0 0
0 0 0
0 0 0
0 0 0
0 0 0
0 0 0
0 0 0
0 0 0
0 0 0
0 0 0
0 0 0
0 0 0
0 0 0
0 0 0
0 0 0
0 0 0
0 0 0
0 0 0
0 0 0
0 0 0
0 0 0
0 0 0
0 0 0
0 0 0
0 0 0
0 0 0
0 0 0
0 0 0
0 0 0
0 0 0
0 0 0
0 0 0
0 0 0
0 0 0
0 0 0
0 0 0
0 0 0
0 0 0
0 0 0
0 0 0
0 0 0
0 0 0
0 0 0
0 0 0
0 0 0
0 0 0
0 0 0
0 0 0
0 0 0
0 0 0
0 0 0
0 0 0
0 0 0
0 0 0
0 0 0
0 0 0
0 0 0
0 0 0
0 0 0
0 0 0
0 0 0
0 0 0
0 0 0
0 0 0
0 0 0
0 0 0
0 0 0
0 0 0
0 0 0
0 0 0
0 0 0
0 0 0
0 0 0
0 0 0
0 0 0
0 0 0
0 0 0
0 0 0
0 0 0
0 0 0
0 0 0
0 0 0
0 0 0
0 0 0
0 0 0
0 0 0
0 0 0
0 0 0
0 0 0
0 0 0
0 0 0
0 0 0
0 0 0
0 0 0
0 0 0
0 0 0
0 0 0
0 0 0
0 0 0
0 0 0
0 0 0
0 0 0
0 0 0
0 0 0
0 0 0
0 0 0
0 0 0
0 0 0
0 0 0
0 0 0
0 0 0
0 0 0
0 0 0
0 0 0
0 0 0
0 0 0
0 0 0
0 0 0
0 0 0
0 0 0
0 0 0
0 0 0
0 0 0
0 0 0
0 0 0
0 0 0
0 0 0
0 0 0
0 0 0
0 0 0
0 0 0
0 0 0
0 0 0
0 0 0
0 0 0
0 0 0
0 0 0
0 0 0
0 0 0
0 0 0
0 0 0
0 0 0
0 0 0
0 0 0
0 0 0
0 0 0
0 0 0
0 0 0
0 0 0
0 0 0
0 0 0
0 0 0
0 0 0
0 0 0
0 0 0
0 0 0
0 0 0
0 0 0
0 0 0
0 0 0
0 0 0
0 0 0
0 0 0
0 0 0
0 0 0
0 0 0
0 0 0
0 0 0
0 0 0
0 0 0
0 0 0
0 0 0
0 0 0
0 0 0
0 0 0
0 0 0
0 0 0
0 0 0
0 0 0
0 0 0
0 0 0
0 0 0
0 0 0
0 0 0
0 0 0
0 0 0
0 0 0
0 0 0
0 0 0
0 0 0
0 0 0
0 0 0
0 0 0
0 0 0
0 0 0
0 0 0
0 0 0
0 0 0
0 0 0
0 0 0
0 0 0
0 0 0
0 0 0
0 0 0
0 0 0
0 0 0
0 0 0
0 0 0
0 0 0
0 0 0
0 0 0
0 0 0
0 0 0
0 0 0
0 0 0
0 0 0
0 0 0
0 0 0
0 0 0
0 0 0
0 0 0
0 0 0
0 0 0
0 0 0
0 0 0
0 0 0
0 0 0
0 0 0
0 0 0
0 0 0
0 0 0
0 0 0
0 0 0
0 0 0
0 0 0
0 0 0
0 0 0
0 0 0
0 0 0
0 0 0
0 0 0
0 0 0
0 0 0
0 0 0
0 0 0
0 0 0
0 0 0
0 0 0
0 0 0
0 0 0
0 0 0
0 0 0
0 0 0
0 0 0
0 0 0
0 0 0
0 0 0
0 0 0
0 0 0
0 0 0
0 0 0
0 0 0
0 0 0
0 0 0
0 0 0
0 0 0
0 0 0
0 0 0
0 0 0
0 0 0
0 0 0
0 0 0
0 0 0
0 0 0
0 0 0
0 0 0
0 0 0
0 0 0
0 0 0
0 0 0
0 0 0
0 0 0
0 0 0
0 0 0
0 0 0
0 0 0
0 0 0
0 0 0
0 0 0
0 0 0
0 0 0
0 0 0
0 0 0
0 0 0
0 0 0
0 0 0
0 0 0
0 0 0
0 0 0
0 0 0
0 0 0
0 0 0
0 0 0
0 0 0
0 0 0
0 0 0
0 0 0
0 0 0
0 0 0
0 0 0
0 0 0
0 0 0
0 0 0
0 0 0
0 0 0
0 0 0
0 0 0
0 0 0
0 0 0
0 0 0
0 0 0
0 0 0
0 0 0
0 0 0
0 0 0
0 0 0
0 0 0
0 0 0
0 0 0
0 0 0
0 0 0
0 0 0
0 0 0
0 0 0
0 0 0
0 0 0
0 0 0
0 0 0
0 0 0
0 0 0
0 0 0
0 0 0
0 0 0
0 0 0
0 0 0
0 0 0
0 0 0
0 0 0
0 0 0
0 0 0
0 0 0
0 0 0
0 0 0
0 0 0
0 0 0
0 0 0
0 0 0
0 0 0
0 0 0
0 0 0
0 0 0
0 0 0
0 0 0
0 0 0
0 0 0
0 0 0
0 0 0
0 0 0
0 0 0
0 0 0
0 0 0
0 0 0
0 0 0
0 0 0
0 0 0
0 0 0
0 0 0
0 0 0
0 0 0
0 0 0
0 0 0
0 0 0
0 0 0
0 0 0
0 0 0
0 0 0
0 0 0
0 0 0
0 0 0
0 0 0
0 0 0
0 0 0
0 0 0
0 0 0
0 0 0
0 0 0
0 0 0
0 0 0
0 0 0
0 0 0
0 0 0
0 0 0
0 0 0
0 0 0
0 0 0
0 0 0
0 0 0
0 0 0
0 0 0
0 0 0
0 0 0
0 0 0
0 0 0
0 0 0
0 0 0
0 0 0
0 0 0
0 0 0
0 0 0
0 0 0
0 0 0
0 0 0
0 0 0
0 0 0
0 0 0
0 0 0
0 0 0
0 0 0
0 0 0
0 0 0
0 0 0
0 0 0
0 0 0
0 0 0
0 0 0
0 0 0
0 0 0
0 0 0
0 0 0
0 0 0
0 0 0
0 0 0
0 0 0
0 0 0
0 0 0
0 0 0
0 0 0
0 0 0
0 0 0
0 0 0
0 0 0
0 0 0
0 0 0
0 0 0
0 0 0
0 0 0
0 0 0
0 0 0
0 0 0
0 0 0
0 0 0
0 0 0
0 0 0
0 0 0
0 0 0
0 0 0
0 0 0
0 0 0
0 0 0
0 0 0
0 0 0
0 0 0
0 0 0
0 0 0
0 0 0
0 0 0
0 0 0
0 0 0
0 0 0
0 0 0
0 0 0
0 0 0
0 0 0
0 0 0
0 0 0
0 0 0
0 0 0
0 0 0
0 0 0
0 0 0
0 0 0
0 0 0
0 0 0
0 0 0
0 0 0
0 0 0
0 0 0
0 0 0
0 0 0
0 0 0
0 0 0
0 0 0
0 0 0
0 0 0
0 0 0
0 0 0
0 0 0
0 0 0
0 0 0
0 0 0
0 0 0
0 0 0
0 0 0
0 0 0
0 0 0
0 0 0
0 0 0
0 0 0
0 0 0
0 0 0
0 0 0
0 0 0
0 0 0
0 0 0
0 0 0
0 0 0
0 0 0
0 0 0
0 0 0
0 0 0
0 0 0
0 0 0
0 0 0
0 0 0
0 0 0
0 0 0
0 0 0
0 0 0
0 0 0
0 0 0
0 0 0
0 0 0
0 0 0
0 0 0
0 0 0
0 0 0
0 0 0
0 0 0
0 0 0
0 0 0
0 0 0
0 0 0
0 0 0
0 0 0
0 0 0
0 0 0
0 0 0
0 0 0
0 0 0
0 0 0
0 0 0
0 0 0
0 0 0
0 0 0
0 0 0
0 0 0
0 0 0
0 0 0
0 0 0
0 0 0
0 0 0
0 0 0
0 0 0
0 0 0
0 0 0
0 0 0
0 0 0
0 0 0
0 0 0
0 0 0
0 0 0
0 0 0
0 0 0
0 0 0
0 0 0
0 0 0
0 0 0
0 0 0
0 0 0
0 0 0
0 0 0
0 0 0
0 0 0
0 0 0
0 0 0
0 0 0
0 0 0
0 0 0
0 0 0
0 0 0
0 0 0
0 0 0
0 0 0
0 0 0
0 0 0
0 0 0
0 0 0
0 0 0
0 0 0
0 0 0
0 0 0
0 0 0
0 0 0
0 0 0
0 0 0
0 0 0
0 0 0
0 0 0
0 0 0
0 0 0
0 0 0
0 0 0
0 0 0
0 0 0
0 0 0
0 0 0
0 0 0
0 0 0
0 0 0
0 0 0
0 0 0
0 0 0
0 0 0
0 0 0
0 0 0
0 0 0
0 0 0
0 0 0
0 0 0
0 0 0
0 0 0
0 0 0
0 0 0
0 0 0
0 0 0
0 0 0
0 0 0
0 0 0
0 0 0
0 0 0
0 0 0
0 0 0
0 0 0
0 0 0
0 0 0
0 0 0
0 0 0
0 0 0
0 0 0
0 0 0
0 0 0
0 0 0
0 0 0
0 0 0
0 0 0
0 0 0
0 0 0
0 0 0
0 0 0
0 0 0
0 0 0
0 0 0
0 0 0
0 0 0
0 0 0
0 0 0
0 0 0
0 0 0
0 0 0
0 0 0
0 0 0
0 0 0
0 0 0
0 0 0
0 0 0
0 0 0
0 0 0
0 0 0
0 0 0
0 0 0
0 0 0
0 0 0
0 0 0
0 0 0
0 0 0
0 0 0
0 0 0
0 0 0
0 0 0
0 0 0
0 0 0
0 0 0
0 0 0
0 0 0
0 0 0
0 0 0
0 0 0
0 0 0
0 0 0
0 0 0
0 0 0
0 0 0
0 0 0
0 0 0
0 0 0
0 0 0
0 0 0
0 0 0
0 0 0
0 0 0
0 0 0
0 0 0
0 0 0
0 0 0
0 0 0
0 0 0
0 0 0
0 0 0
0 0 0
0 0 0
0 0 0
0 0 0
0 0 0
0 0 0
0 0 0
0 0 0
0 0 0
0 0 0
0 0 0
0 0 0
0 0 0
0 0 0
0 0 0
0 0 0
0 0 0
0 0 0
0 0 0
0 0 0
0 0 0
0 0 0
0 0 0
0 0 0
0 0 0
0 0 0
0 0 0
0 0 0
0 0 0
0 0 0
0 0 0
0 0 0
0 0 0
0 0 0
0 0 0
0 0 0
0 0 0
0 0 0
0 0 0
0 0 0
0 0 0
0 0 0
0 0 0
0 0 0
0 0 0
0 0 0
0 0 0
0 0 0
0 0 0
0 0 0
0 0 0
0 0 0
0 0 0
0 0 0
0 0 0
0 0 0
0 0 0
0 0 0
0 0 0
0 0 0
0 0 0
0 0 0
0 0 0
0 0 0
0 0 0
0 0 0
0 0 0
0 0 0
0 0 0
0 0 0
0 0 0
0 0 0
0 0 0
0 0 0
0 0 0
0 0 0
0 0 0
0 0 0
0 0 0
0 0 0
0 0 0
0 0 0
0 0 0
0 0 0
0 0 0
0 0 0
0 0 0
0 0 0
0 0 0
0 0 0
0 0 0
0 0 0
0 0 0
0 0 0
0 0 0
0 0 0
0 0 0
0 0 0
0 0 0
0 0 0
0 0 0
0 0 0
0 0 0
0 0 0
0 0 0
0 0 0
0 0 0
0 0 0
0 0 0
0 0 0
0 0 0
0 0 0
0 0 0
0 0 0
0 0 0
0 0 0
0 0 0
0 0 0
0 0 0
0 0 0
0 0 0
0 0 0
0 0 0
0 0 0
0 0 0
0 0 0
0 0 0
0 0 0
0 0 0
0 0 0
0 0 0
0 0 0
0 0 0
0 0 0
0 0 0
0 0 0
0 0 0
0 0 0
0 0 0
0 0 0
0 0 0
0 0 0
0 0 0
0 0 0
0 0 0
0 0 0
0 0 0
0 0 0
0 0 0
0 0 0
0 0 0
0 0 0
0 0 0
0 0 0
0 0 0
0 0 0
0 0 0
0 0 0
0 0 0
0 0 0
0 0 0
0 0 0
0 0 0
0 0 0
0 0 0
0 0 0
0 0 0
0 0 0
0 0 0
0 0 0
0 0 0
0 0 0
0 0 0
0 0 0
0 0 0
0 0 0
0 0 0
0 0 0
0 0 0
0 0 0
0 0 0
0 0 0
0 0 0
0 0 0
0 0 0
0 0 0
0 0 0
0 0 0
0 0 0
0 0 0
0 0 0
0 0 0
0 0 0
0 0 0
0 0 0
0 0 0
0 0 0
0 0 0
0 0 0
0 0 0
0 0 0
0 0 0
0 0 0
0 0 0
0 0 0
0 0 0
0 0 0
0 0 0
0 0 0
0 0 0
0 0 0
0 0 0
0 0 0
0 0 0
0 0 0
0 0 0
0 0 0
0 0 0
0 0 0
0 0 0
0 0 0
0 0 0
0 0 0
0 0 0
0 0 0
0 0 0
0 0 0
0 0 0
0 0 0
0 0 0
0 0 0
0 0 0
0 0 0
0 0 0
0 0 0
0 0 0
0 0 0
0 0 0
0 0 0
0 0 0
0 0 0
0 0 0
0 0 0
0 0 0
0 0 0
0 0 0
0 0 0
0 0 0
0 0 0
0 0 0
0 0 0
0 0 0
0 0 0
0 0 0
0 0 0
0 0 0
0 0 0
0 0 0
0 0 0
0 0 0
0 0 0
0 0 0
0 0 0
0 0 0
0 0 0
0 0 0
0 0 0
0 0 0
0 0 0
0 0 0
0 0 0
0 0 0
0 0 0
0 0 0
0 0 0
0 0 0
0 0 0
0 0 0
0 0 0
0 0 0
0 0 0
0 0 0
0 0 0
0 0 0
0 0 0
0 0 0
0 0 0
0 0 0
0 0 0
0 0 0
0 0 0
0 0 0
0 0 0
0 0 0
0 0 0
0 0 0
0 0 0
0 0 0
0 0 0
0 0 0
0 0 0
0 0 0
0 0 0
0 0 0
0 0 0
0 0 0
0 0 0
0 0 0
0 0 0
0 0 0
0 0 0
0 0 0
0 0 0
0 0 0
0 0 0
0 0 0
0 0 0
0 0 0
0 0 0
0 0 0
0 0 0
0 0 0
0 0 0
0 0 0
0 0 0
0 0 0
0 0 0
0 0 0
0 0 0
0 0 0
0 0 0
0 0 0
0 0 0
0 0 0
0 0 0
0 0 0
0 0 0
0 0 0
0 0 0
0 0 0
0 0 0
0 0 0
0 0 0
0 0 0
0 0 0
0 0 0
0 0 0
0 0 0
0 0 0
0 0 0
0 0 0
0 0 0
0 0 0
0 0 0
0 0 0
0 0 0
0 0 0
0 0 0
0 0 0
0 0 0
0 0 0
0 0 0
0 0 0
0 0 0
0 0 0
0 0 0
0 0 0
0 0 0
0 0 0
0 0 0
0 0 0
0 0 0
0 0 0
0 0 0
0 0 0
0 0 0
0 0 0
0 0 0
0 0 0
0 0 0
0 0 0
0 0 0
0 0 0
0 0 0
0 0 0
0 0 0
0 0 0
0 0 0
0 0 0
0 0 0
0 0 0
0 0 0
0 0 0
0 0 0
0 0 0
0 0 0
0 0 0
0 0 0
0 0 0
0 0 0
0 0 0
0 0 0
0 0 0
0 0 0
0 0 0
0 0 0
0 0 0
0 0 0
0 0 0
0 0 0
0 0 0
0 0 0
0 0 0
0 0 0
0 0 0
0 0 0
0 0 0
0 0 0
0 0 0
0 0 0
0 0 0
0 0 0
0 0 0
0 0 0
0 0 0
0 0 0
0 0 0
0 0 0
0 0 0
0 0 0
0 0 0
0 0 0
0 0 0
0 0 0
0 0 0
0 0 0
0 0 0
0 0 0
0 0 0
0 0 0
0 0 0
0 0 0
0 0 0
0 0 0
0 0 0
0 0 0
0 0 0
0 0 0
0 0 0
0 0 0
0 0 0
0 0 0
0 0 0
0 0 0
0 0 0
0 0 0
0 0 0
0 0 0
0 0 0
0 0 0
0 0 0
0 0 0
0 0 0
0 0 0
0 0 0
0 0 0
0 0 0
0 0 0
0 0 0
0 0 0
0 0 0
0 0 0
0 0 0
0 0 0
0 0 0
0 0 0
0 0 0
0 0 0
0 0 0
0 0 0
0 0 0
0 0 0
0 0 0
0 0 0
0 0 0
0 0 0
0 0 0
0 0 0
0 0 0
0 0 0
0 0 0
0 0 0
0 0 0
0 0 0
0 0 0
0 0 0
0 0 0
0 0 0
0 0 0
0 0 0
0 0 0
0 0 0
0 0 0
0 0 0
0 0 0
0 0 0
0 0 0
0 0 0
0 0 0
0 0 0
0 0 0
0 0 0
0 0 0
0 0 0
0 0 0
0 0 0
0 0 0
0 0 0
0 0 0
0 0 0
0 0 0
0 0 0
0 0 0
0 0 0
0 0 0
0 0 0
0 0 0
0 0 0
0 0 0
0 0 0
0 0 0
0 0 0
0 0 0
0 0 0
0 0 0
0 0 0
0 0 0
0 0 0
0 0 0
0 0 0
0 0 0
0 0 0
0 0 0
0 0 0
0 0 0
0 0 0
0 0 0
0 0 0
0 0 0
0 0 0
0 0 0
0 0 0
0 0 0
0 0 0
0 0 0
0 0 0
0 0 0
0 0 0
0 0 0
0 0 0
0 0 0
0 0 0
0 0 0
0 0 0
0 0 0
0 0 0
0 0 0
0 0 0
0 0 0
0 0 0
0 0 0
0 0 0
0 0 0
0 0 0
0 0 0
0 0 0
0 0 0
0 0 0
0 0 0
0 0 0
0 0 0
0 0 0
0 0 0
0 0 0
0 0 0
0 0 0
0 0 0
0 0 0
0 0 0
0 0 0
0 0 0
0 0 0
0 0 0
0 0 0
0 0 0
0 0 0
0 0 0
0 0 0
0 0 0
0 0 0
0 0 0
0 0 0
0 0 0
0 0 0
0 0 0
0 0 0
0 0 0
0 0 0
0 0 0
0 0 0
0 0 0
0 0 0
0 0 0
0 0 0
0 0 0
0 0 0
0 0 0
0 0 0
0 0 0
0 0 0
0 0 0
0 0 0
0 0 0
0 0 0
0 0 0
0 0 0
0 0 0
0 0 0
0 0 0
0 0 0
0 0 0
0 0 0
0 0 0
0 0 0
0 0 0
0 0 0
0 0 0
0 0 0
0 0 0
0 0 0
0 0 0
0 0 0
0 0 0
0 0 0
0 0 0
0 0 0
0 0 0
0 0 0
0 0 0
0 0 0
0 0 0
0 0 0
0 0 0
0 0 0
0 0 0
0 0 0
0 0 0
0 0 0
0 0 0
0 0 0
0 0 0
0 0 0
0 0 0
0 0 0
0 0 0
0 0 0
0 0 0
0 0 0
0 0 0
0 0 0
0 0 0
0 0 0
0 0 0
0 0 0
0 0 0
0 0 0
0 0 0
0 0 0
0 0 0
0 0 0
0 0 0
0 0 0
0 0 0
0 0 0
0 0 0
0 0 0
0 0 0
0 0 0
0 0 0
0 0 0
0 0 0
0 0 0
0 0 0
0 0 0
0 0 0
0 0 0
0 0 0
0 0 0
0 0 0
0 0 0
0 0 0
0 0 0
0 0 0
0 0 0
0 0 0
0 0 0
0 0 0
0 0 0
0 0 0
0 0 0
0 0 0
0 0 0
0 0 0
0 0 0
0 0 0
0 0 0
0 0 0
0 0 0
0 0 0
0 0 0
0 0 0
0 0 0
0 0 0
0 0 0
0 0 0
0 0 0
0 0 0
0 0 0
0 0 0
0 0 0
0 0 0
0 0 0
0 0 0
0 0 0
0 0 0
0 0 0
0 0 0
0 0 0
0 0 0
0 0 0
0 0 0
0 0 0
0 0 0
0 0 0
0 0 0
0 0 0
0 0 0
0 0 0
0 0 0
0 0 0
0 0 0
0 0 0
0 0 0
0 0 0
0 0 0
0 0 0
0 0 0
0 0 0
0 0 0
0 0 0
0 0 0
0 0 0
0 0 0
0 0 0
0 0 0
0 0 0
0 0 0
0 0 0
0 0 0
0 0 0
0 0 0
0 0 0
0 0 0
0 0 0
0 0 0
0 0 0
0 0 0
0 0 0
0 0 0
0 0 0
0 0 0
0 0 0
0 0 0
0 0 0
0 0 0
0 0 0
0 0 0
0 0 0
0 0 0
0 0 0
0 0 0
0 0 0
0 0 0
0 0 0
0 0 0
0 0 0
0 0 0
0 0 0
0 0 0
0 0 0
0 0 0
0 0 0
0 0 0
0 0 0
0 0 0
0 0 0
0 0 0
0 0 0
0 0 0
0 0 0
0 0 0
0 0 0
0 0 0
0 0 0
0 0 0
0 0 0
0 0 0
0 0 0
0 0 0
0 0 0
0 0 0
0 0 0
0 0 0
0 0 0
0 0 0
0 0 0
0 0 0
0 0 0
0 0 0
0 0 0
0 0 0
0 0 0
0 0 0
0 0 0
0 0 0
0 0 0
0 0 0
0 0 0
0 0 0
0 0 0
0 0 0
0 0 0
0 0 0
0 0 0
0 0 0
0 0 0
0 0 0
0 0 0
0 0 0
0 0 0
0 0 0
0 0 0
0 0 0
0 0 0
0 0 0
0 0 0
0 0 0
0 0 0
0 0 0
0 0 0
0 0 0
0 0 0
0 0 0
0 0 0
0 0 0
0 0 0
0 0 0
0 0 0
0 0 0
0 0 0
0 0 0
0 0 0
0 0 0
0 0 0
0 0 0
0 0 0
0 0 0
0 0 0
0 0 0
0 0 0
0 0 0
0 0 0
0 0 0
0 0 0
0 0 0
0 0 0
0 0 0
0 0 0
0 0 0
0 0 0
0 0 0
0 0 0
0 0 0
0 0 0
0 0 0
0 0 0
0 0 0
0 0 0
0 0 0
0 0 0
0 0 0
0 0 0
0 0 0
0 0 0
0 0 0
0 0 0
0 0 0
0 0 0
0 0 0
0 0 0
0 0 0
0 0 0
0 0 0
0 0 0
0 0 0
0 0 0
0 0 0
0 0 0
0 0 0
0 0 0
0 0 0
0 0 0
0 0 0
0 0 0
0 0 0
0 0 0
0 0 0
0 0 0
0 0 0
0 0 0
0 0 0
0 0 0
0 0 0
0 0 0
0 0 0
0 0 0
0 0 0
0 0 0
0 0 0
0 0 0
0 0 0
0 0 0
0 0 0
0 0 0
0 0 0
0 0 0
0 0 0
0 0 0
0 0 0
0 0 0
0 0 0
0 0 0
0 0 0
0 0 0
0 0 0
0 0 0
0 0 0
0 0 0
0 0 0
0 0 0
0 0 0
0 0 0
0 0 0
0 0 0
0 0 0
0 0 0
0 0 0
0 0 0
0 0 0
0 0 0
0 0 0
0 0 0
0 0 0
0 0 0
0 0 0
0 0 0
0 0 0
0 0 0
0 0 0
0 0 0
0 0 0
0 0 0
0 0 0
0 0 0
0 0 0
0 0 0
0 0 0
0 0 0
0 0 0
0 0 0
0 0 0
0 0 0
0 0 0
0 0 0
0 0 0
0 0 0
0 0 0
0 0 0
0 0 0
0 0 0
0 0 0
0 0 0
0 0 0
0 0 0
0 0 0
0 0 0
0 0 0
0 0 0
0 0 0
0 0 0
0 0 0
0 0 0
0 0 0
0 0 0
0 0 0
0 0 0
0 0 0
0 0 0
0 0 0
0 0 0
0 0 0
0 0 0
0 0 0
0 0 0
0 0 0
0 0 0
0 0 0
0 0 0
0 0 0
0 0 0
0 0 0
0 0 0
0 0 0
0 0 0
0 0 0
0 0 0
0 0 0
0 0 0
0 0 0
0 0 0
0 0 0
0 0 0
0 0 0
0 0 0
0 0 0
0 0 0
0 0 0
0 0 0
0 0 0
0 0 0
0 0 0
0 0 0
0 0 0
0 0 0
0 0 0
0 0 0
0 0 0
0 0 0
0 0 0
0 0 0
0 0 0
0 0 0
0 0 0
0 0 0
0 0 0
0 0 0
0 0 0
0 0 0
0 0 0
0 0 0
0 0 0
0 0 0
0 0 0
0 0 0
0 0 0
0 0 0
0 0 0
0 0 0
0 0 0
0 0 0
0 0 0
0 0 0
0 0 0
0 0 0
0 0 0
0 0 0
0 0 0
0 0 0
0 0 0
0 0 0
0 0 0
0 0 0
0 0 0
0 0 0
0 0 0
0 0 0
0 0 0
0 0 0
0 0 0
0 0 0
0 0 0
0 0 0
0 0 0
0 0 0
0 0 0
0 0 0
0 0 0
0 0 0
0 0 0
0 0 0
0 0 0
0 0 0
0 0 0
0 0 0
0 0 0
0 0 0
0 0 0
0 0 0
0 0 0
0 0 0
0 0 0
0 0 0
0 0 0
0 0 0
0 0 0
0 0 0
0 0 0
0 0 0
0 0 0
0 0 0
0 0 0
0 0 0
0 0 0
0 0 0
0 0 0
0 0 0
0 0 0
0 0 0
0 0 0
0 0 0
0 0 0
0 0 0
0 0 0
0 0 0
0 0 0
0 0 0
0 0 0
0 0 0
0 0 0
0 0 0
0 0 0
0 0 0
0 0 0
0 0 0
0 0 0
0 0 0
0 0 0
0 0 0
0 0 0
0 0 0
0 0 0
0 0 0
0 0 0
0 0 0
0 0 0
0 0 0
0 0 0
0 0 0
0 0 0
0 0 0
0 0 0
0 0 0
0 0 0
0 0 0
0 0 0
0 0 0
0 0 0
0 0 0
0 0 0
0 0 0
0 0 0
0 0 0
0 0 0
0 0 0
0 0 0
0 0 0
0 0 0
0 0 0
0 0 0
0 0 0
0 0 0
0 0 0
0 0 0
0 0 0
0 0 0
0 0 0
0 0 0
0 0 0
0 0 0
0 0 0
0 0 0
0 0 0
0 0 0
0 0 0
0 0 0
0 0 0
0 0 0
0 0 0
0 0 0
0 0 0
0 0 0
0 0 0
0 0 0
0 0 0
0 0 0
0 0 0
0 0 0
0 0 0
0 0 0
0 0 0
0 0 0
0 0 0
0 0 0
0 0 0
0 0 0
0 0 0
0 0 0
0 0 0
0 0 0
0 0 0
0 0 0
0 0 0
0 0 0
0 0 0
0 0 0
0 0 0
0 0 0
0 0 0
0 0 0
0 0 0
0 0 0
0 0 0
0 0 0
0 0 0
0 0 0
0 0 0
0 0 0
0 0 0
0 0 0
0 0 0
0 0 0
0 0 0
0 0 0
0 0 0
0 0 0
0 0 0
0 0 0
0 0 0
0 0 0
0 0 0
0 0 0
0 0 0
0 0 0
0 0 0
0 0 0
0 0 0
0 0 0
0 0 0
0 0 0
0 0 0
0 0 0
0 0 0
0 0 0
0 0 0
0 0 0
0 0 0
0 0 0
0 0 0
0 0 0
0 0 0
0 0 0
0 0 0
0 0 0
0 0 0
0 0 0
0 0 0
0 0 0
0 0 0
0 0 0
0 0 0
0 0 0
0 0 0
0 0 0
0 0 0
0 0 0
0 0 0
0 0 0
0 0 0
0 0 0
0 0 0
0 0 0
0 0 0
0 0 0
0 0 0
0 0 0
0 0 0
0 0 0
0 0 0
0 0 0
0 0 0
0 0 0
0 0 0
0 0 0
0 0 0
0 0 0
0 0 0
0 0 0
0 0 0
0 0 0
0 0 0
0 0 0
0 0 0
0 0 0
0 0 0
0 0 0
0 0 0
0 0 0
0 0 0
0 0 0
0 0 0
0 0 0
0 0 0
0 0 0
0 0 0
0 0 0
0 0 0
0 0 0
0 0 0
0 0 0
0 0 0
0 0 0
0 0 0
0 0 0
0 0 0
0 0 0
0 0 0
0 0 0
0 0 0
0 0 0
0 0 0
0 0 0
0 0 0
0 0 0
0 0 0
0 0 0
0 0 0
0 0 0
0 0 0
0 0 0
0 0 0
0 0 0
0 0 0
0 0 0
0 0 0
0 0 0
0 0 0
0 0 0
0 0 0
0 0 0
0 0 0
0 0 0
0 0 0
0 0 0
0 0 0
0 0 0
0 0 0
0 0 0
0 0 0
0 0 0
0 0 0
0 0 0
0 0 0
0 0 0
0 0 0
0 0 0
0 0 0
0 0 0
0 0 0
0 0 0
0 0 0
0 0 0
0 0 0
0 0 0
0 0 0
0 0 0
0 0 0
0 0 0
0 0 0
0 0 0
0 0 0
0 0 0
0 0 0
0 0 0
0 0 0
0 0 0
0 0 0
0 0 0
0 0 0
0 0 0
0 0 0
0 0 0
0 0 0
0 0 0
0 0 0
0 0 0
0 0 0
0 0 0
0 0 0
0 0 0
0 0 0
0 0 0
0 0 0
0 0 0
0 0 0
0 0 0
0 0 0
0 0 0
0 0 0
0 0 0
0 0 0
0 0 0
0 0 0
0 0 0
0 0 0
0 0 0
0 0 0
0 0 0
0 0 0
0 0 0
0 0 0
0 0 0
0 0 0
0 0 0
0 0 0
0 0 0
0 0 0
0 0 0
0 0 0
0 0 0
0 0 0
0 0 0
0 0 0
0 0 0
0 0 0
0 0 0
0 0 0
0 0 0
0 0 0
0 0 0
0 0 0
0 0 0
0 0 0
0 0 0
0 0 0
0 0 0
0 0 0
0 0 0
0 0 0
0 0 0
0 0 0
0 0 0
0 0 0
0 0 0
0 0 0
0 0 0
0 0 0
0 0 0
0 0 0
0 0 0
0 0 0
0 0 0
0 0 0
0 0 0
0 0 0
0 0 0
0 0 0
0 0 0
0 0 0
0 0 0
0 0 0
0 0 0
0 0 0
0 0 0
0 0 0
0 0 0
0 0 0
0 0 0
0 0 0
0 0 0
0 0 0
0 0 0
0 0 0
0 0 0
0 0 0
0 0 0
0 0 0
0 0 0
0 0 0
0 0 0
0 0 0
0 0 0
0 0 0
0 0 0
0 0 0
0 0 0
0 0 0
0 0 0
0 0 0
0 0 0
0 0 0
0 0 0
0 0 0
0 0 0
0 0 0
0 0 0
0 0 0
0 0 0
0 0 0
0 0 0
0 0 0
0 0 0
0 0 0
0 0 0
0 0 0
0 0 0
0 0 0
0 0 0
0 0 0
0 0 0
0 0 0
0 0 0
0 0 0
0 0 0
0 0 0
0 0 0
0 0 0
0 0 0
0 0 0
0 0 0
0 0 0
0 0 0
0 0 0
0 0 0
0 0 0
0 0 0
0 0 0
0 0 0
0 0 0
0 0 0
0 0 0
0 0 0
0 0 0
0 0 0
0 0 0
0 0 0
0 0 0
0 0 0
0 0 0
0 0 0
0 0 0
0 0 0
0 0 0
0 0 0
0 0 0
0 0 0
0 0 0
0 0 0
0 0 0
0 0 0
0 0 0
0 0 0
0 0 0
0 0 0
0 0 0
0 0 0
0 0 0
0 0 0
0 0 0
0 0 0
0 0 0
0 0 0
0 0 0
0 0 0
0 0 0
0 0 0
0 0 0
0 0 0
0 0 0
0 0 0
0 0 0
0 0 0
0 0 0
0 0 0
0 0 0
0 0 0
0 0 0
0 0 0
0 0 0
0 0 0
0 0 0
0 0 0
0 0 0
0 0 0
0 0 0
0 0 0
0 0 0
0 0 0
0 0 0
0 0 0
0 0 0
0 0 0
0 0 0
0 0 0
0 0 0
0 0 0
0 0 0
0 0 0
0 0 0
0 0 0
0 0 0
0 0 0
0 0 0
0 0 0
0 0 0
0 0 0
0 0 0
0 0 0
0 0 0
0 0 0
0 0 0
0 0 0
0 0 0
0 0 0
0 0 0
0 0 0
0 0 0
0 0 0
0 0 0
0 0 0
0 0 0
0 0 0
0 0 0
0 0 0
0 0 0
0 0 0
0 0 0
0 0 0
0 0 0
0 0 0
0 0 0
0 0 0
0 0 0
0 0 0
0 0 0
0 0 0
0 0 0
0 0 0
0 0 0
0 0 0
0 0 0
0 0 0
0 0 0
0 0 0
0 0 0
0 0 0
0 0 0
0 0 0
0 0 0
0 0 0
0 0 0
0 0 0
0 0 0
0 0 0
0 0 0
0 0 0
0 0 0
0 0 0
0 0 0
0 0 0
0 0 0
0 0 0
0 0 0
0 0 0
0 0 0
0 0 0
0 0 0
0 0 0
0 0 0
0 0 0
0 0 0
0 0 0
0 0 0
0 0 0
0 0 0
0 0 0
0 0 0
0 0 0
0 0 0
0 0 0
0 0 0
0 0 0
0 0 0
0 0 0
0 0 0
0 0 0
0 0 0
0 0 0
0 0 0
0 0 0
0 0 0
0 0 0
0 0 0
0 0 0
0 0 0
0 0 0
0 0 0
0 0 0
0 0 0
0 0 0
0 0 0
0 0 0
0 0 0
0 0 0
0 0 0
0 0 0
0 0 0
0 0 0
0 0 0
0 0 0
0 0 0
0 0 0
0 0 0
0 0 0
0 0 0
0 0 0
0 0 0
0 0 0
0 0 0
0 0 0
0 0 0
0 0 0
0 0 0
0 0 0
0 0 0
0 0 0
0 0 0
0 0 0
0 0 0
0 0 0
0 0 0
0 0 0
0 0 0
0 0 0
0 0 0
0 0 0
0 0 0
0 0 0
0 0 0
0 0 0
0 0 0
0 0 0
0 0 0
0 0 0
0 0 0
0 0 0
0 0 0
0 0 0
0 0 0
0 0 0
0 0 0
0 0 0
0 0 0
0 0 0
0 0 0
0 0 0
0 0 0
0 0 0
0 0 0
0 0 0
0 0 0
0 0 0
0 0 0
0 0 0
0 0 0
0 0 0
0 0 0
0 0 0
0 0 0
0 0 0
0 0 0
0 0 0
0 0 0
0 0 0
0 0 0
0 0 0
0 0 0
0 0 0
0 0 0
0 0 0
0 0 0
0 0 0
0 0 0
0 0 0
0 0 0
0 0 0
0 0 0
0 0 0
0 0 0
0 0 0
0 0 0
0 0 0
0 0 0
0 0 0
0 0 0
0 0 0
0 0 0
0 0 0
0 0 0
0 0 0
0 0 0
0 0 0
0 0 0
0 0 0
0 0 0
0 0 0
0 0 0
0 0 0
0 0 0
0 0 0
0 0 0
0 0 0
0 0 0
0 0 0
0 0 0
0 0 0
0 0 0
0 0 0
0 0 0
0 0 0
0 0 0
0 0 0
0 0 0
0 0 0
0 0 0
0 0 0
0 0 0
0 0 0
0 0 0
0 0 0
0 0 0
0 0 0
0 0 0
0 0 0
0 0 0
0 0 0
0 0 0
0 0 0
0 0 0
0 0 0
0 0 0
0 0 0
0 0 0
0 0 0
0 0 0
0 0 0
0 0 0
0 0 0
0 0 0
0 0 0
0 0 0
0 0 0
0 0 0
0 0 0
0 0 0
0 0 0
0 0 0
0 0 0
0 0 0
0 0 0
0 0 0
0 0 0
0 0 0
0 0 0
0 0 0
0 0 0
0 0 0
0 0 0
0 0 0
0 0 0
0 0 0
0 0 0
0 0 0
0 0 0
0 0 0
0 0 0
0 0 0
0 0 0
0 0 0
0 0 0
0 0 0
0 0 0
0 0 0
0 0 0
0 0 0
0 0 0
0 0 0
0 0 0
0 0 0
0 0 0
0 0 0
0 0 0
0 0 0
0 0 0
0 0 0
0 0 0
0 0 0
0 0 0
0 0 0
0 0 0
0 0 0
0 0 0
0 0 0
0 0 0
0 0 0
0 0 0
0 0 0
0 0 0
0 0 0
0 0 0
0 0 0
0 0 0
0 0 0
0 0 0
0 0 0
0 0 0
0 0 0
0 0 0
0 0 0
0 0 0
0 0 0
0 0 0
0 0 0
0 0 0
0 0 0
0 0 0
0 0 0
0 0 0
0 0 0
0 0 0
0 0 0
0 0 0
0 0 0
0 0 0
0 0 0
0 0 0
0 0 0
0 0 0
0 0 0
0 0 0
0 0 0
0 0 0
0 0 0
0 0 0
0 0 0
0 0 0
0 0 0
0 0 0
0 0 0
0 0 0
0 0 0
0 0 0
0 0 0
0 0 0
0 0 0
0 0 0
0 0 0
0 0 0
0 0 0
0 0 0
0 0 0
0 0 0
0 0 0
0 0 0
0 0 0
0 0 0
0 0 0
0 0 0
0 0 0
0 0 0
0 0 0
0 0 0
0 0 0
0 0 0
0 0 0
0 0 0
0 0 0
0 0 0
0 0 0
0 0 0
0 0 0
0 0 0
0 0 0
0 0 0
0 0 0
0 0 0
0 0 0
0 0 0
0 0 0
0 0 0
0 0 0
0 0 0
0 0 0
0 0 0
0 0 0
0 0 0
0 0 0
0 0 0
0 0 0
0 0 0
0 0 0
0 0 0
0 0 0
0 0 0
0 0 0
0 0 0
0 0 0
0 0 0
0 0 0
0 0 0
0 0 0
0 0 0
0 0 0
0 0 0
0 0 0
0 0 0
0 0 0
0 0 0
0 0 0
0 0 0
0 0 0
0 0 0
0 0 0
0 0 0
0 0 0
0 0 0
0 0 0
0 0 0
0 0 0
0 0 0
0 0 0
0 0 0
0 0 0
0 0 0
0 0 0
0 0 0
0 0 0
0 0 0
0 0 0
0 0 0
0 0 0
0 0 0
0 0 0
0 0 0
0 0 0
0 0 0
0 0 0
0 0 0
0 0 0
0 0 0
0 0 0
0 0 0
0 0 0
0 0 0
0 0 0
0 0 0
0 0 0
0 0 0
0 0 0
0 0 0
0 0 0
0 0 0
0 0 0
0 0 0
0 0 0
0 0 0
0 0 0
0 0 0
0 0 0
0 0 0
0 0 0
0 0 0
0 0 0
0 0 0
0 0 0
0 0 0
0 0 0
0 0 0
0 0 0
0 0 0
0 0 0
0 0 0
0 0 0
0 0 0
0 0 0
0 0 0
0 0 0
0 0 0
0 0 0
0 0 0
0 0 0
0 0 0
0 0 0
0 0 0
0 0 0
0 0 0
0 0 0
0 0 0
0 0 0
0 0 0
0 0 0
0 0 0
0 0 0
0 0 0
0 0 0
0 0 0
0 0 0
0 0 0
0 0 0
0 0 0
0 0 0
0 0 0
0 0 0
0 0 0
0 0 0
0 0 0
0 0 0
0 0 0
0 0 0
0 0 0
0 0 0
0 0 0
0 0 0
0 0 0
0 0 0
0 0 0
0 0 0
0 0 0
0 0 0
0 0 0
0 0 0
0 0 0
0 0 0
0 0 0
0 0 0
0 0 0
0 0 0
0 0 0
0 0 0
0 0 0
0 0 0
0 0 0
0 0 0
0 0 0
0 0 0
0 0 0
0 0 0
0 0 0
0 0 0
0 0 0
0 0 0
0 0 0
0 0 0
0 0 0
0 0 0
0 0 0
0 0 0
0 0 0
0 0 0
0 0 0
0 0 0
0 0 0
0 0 0
0 0 0
0 0 0
0 0 0
0 0 0
0 0 0
0 0 0
0 0 0
0 0 0
0 0 0
0 0 0
0 0 0
0 0 0
0 0 0
0 0 0
0 0 0
0 0 0
0 0 0
0 0 0
0 0 0
0 0 0
0 0 0
0 0 0
0 0 0
0 0 0
0 0 0
0 0 0
0 0 0
0 0 0
0 0 0
0 0 0
0 0 0
0 0 0
0 0 0
0 0 0
0 0 0
0 0 0
0 0 0
0 0 0
0 0 0
0 0 0
0 0 0
0 0 0
0 0 0
0 0 0
0 0 0
0 0 0
0 0 0
0 0 0
0 0 0
0 0 0
0 0 0
0 0 0
0 0 0
0 0 0
0 0 0
0 0 0
0 0 0
0 0 0
0 0 0
0 0 0
0 0 0
0 0 0
0 0 0
0 0 0
0 0 0
0 0 0
0 0 0
0 0 0
0 0 0
0 0 0
0 0 0
0 0 0
0 0 0
0 0 0
0 0 0
0 0 0
0 0 0
0 0 0
0 0 0
0 0 0
0 0 0
0 0 0
0 0 0
0 0 0
0 0 0
0 0 0
0 0 0
0 0 0
0 0 0
0 0 0
0 0 0
0 0 0
0 0 0
0 0 0
0 0 0
0 0 0
0 0 0
0 0 0
0 0 0
0 0 0
0 0 0
0 0 0
0 0 0
0 0 0
0 0 0
0 0 0
0 0 0
0 0 0
0 0 0
0 0 0
0 0 0
0 0 0
0 0 0
0 0 0
0 0 0
0 0 0
0 0 0
0 0 0
0 0 0
0 0 0
0 0 0
0 0 0
0 0 0
0 0 0
0 0 0
0 0 0
0 0 0
0 0 0
0 0 0
0 0 0
0 0 0
0 0 0
0 0 0
0 0 0
0 0 0
0 0 0
0 0 0
0 0 0
0 0 0
0 0 0
0 0 0
0 0 0
0 0 0
0 0 0
0 0 0
0 0 0
0 0 0
0 0 0
0 0 0
0 0 0
0 0 0
0 0 0
0 0 0
0 0 0
0 0 0
0 0 0
0 0 0
0 0 0
0 0 0
0 0 0
0 0 0
0 0 0
0 0 0
0 0 0
0 0 0
0 0 0
0 0 0
0 0 0
0 0 0
0 0 0
0 0 0
0 0 0
0 0 0
0 0 0
0 0 0
0 0 0
0 0 0
0 0 0
0 0 0
0 0 0
0 0 0
0 0 0
0 0 0
0 0 0
0 0 0
0 0 0
0 0 0
0 0 0
0 0 0
0 0 0
0 0 0
0 0 0
0 0 0
0 0 0
0 0 0
0 0 0
0 0 0
0 0 0
0 0 0
0 0 0
0 0 0
0 0 0
0 0 0
0 0 0
0 0 0
0 0 0
0 0 0
0 0 0
0 0 0
0 0 0
0 0 0
0 0 0
0 0 0
0 0 0
0 0 0
0 0 0
0 0 0
0 0 0
0 0 0
0 0 0
0 0 0
0 0 0
0 0 0
0 0 0
0 0 0
0 0 0
0 0 0
0 0 0
0 0 0
0 0 0
0 0 0
0 0 0
0 0 0
0 0 0
0 0 0
0 0 0
0 0 0
0 0 0
0 0 0
0 0 0
0 0 0
0 0 0
0 0 0
0 0 0
0 0 0
0 0 0
0 0 0
0 0 0
0 0 0
0 0 0
0 0 0
0 0 0
0 0 0
0 0 0
0 0 0
0 0 0
0 0 0
0 0 0
0 0 0
0 0 0
0 0 0
0 0 0
0 0 0
0 0 0
0 0 0
0 0 0
0 0 0
0 0 0
0 0 0
0 0 0
0 0 0
0 0 0
0 0 0
0 0 0
0 0 0
0 0 0
0 0 0
0 0 0
0 0 0
0 0 0
0 0 0
0 0 0
0 0 0
0 0 0
0 0 0
0 0 0
0 0 0
0 0 0
0 0 0
0 0 0
0 0 0
0 0 0
0 0 0
0 0 0
0 0 0
0 0 0
0 0 0
0 0 0
0 0 0
0 0 0
0 0 0
0 0 0
0 0 0
0 0 0
0 0 0
0 0 0
0 0 0
0 0 0
0 0 0
0 0 0
0 0 0
0 0 0
0 0 0
0 0 0
0 0 0
0 0 0
0 0 0
0 0 0
0 0 0
0 0 0
0 0 0
0 0 0
0 0 0
0 0 0
0 0 0
0 0 0
0 0 0
0 0 0
0 0 0
0 0 0
0 0 0
0 0 0
0 0 0
0 0 0
0 0 0
0 0 0
0 0 0
0 0 0
0 0 0
0 0 0
0 0 0
0 0 0
0 0 0
0 0 0
0 0 0
0 0 0
0 0 0
0 0 0
0 0 0
0 0 0
0 0 0
0 0 0
0 0 0
0 0 0
0 0 0
0 0 0
0 0 0
0 0 0
0 0 0
0 0 0
0 0 0
0 0 0
0 0 0
0 0 0
0 0 0
0 0 0
0 0 0
0 0 0
0 0 0
0 0 0
0 0 0
0 0 0
0 0 0
0 0 0
0 0 0
0 0 0
0 0 0
0 0 0
0 0 0
0 0 0
0 0 0
0 0 0
0 0 0
0 0 0
0 0 0
0 0 0
0 0 0
0 0 0
0 0 0
0 0 0
0 0 0
0 0 0
0 0 0
0 0 0
0 0 0
0 0 0
0 0 0
0 0 0
0 0 0
0 0 0
0 0 0
0 0 0
0 0 0
0 0 0
0 0 0
0 0 0
0 0 0
0 0 0
0 0 0
0 0 0
0 0 0
0 0 0
0 0 0
0 0 0
0 0 0
0 0 0
0 0 0
0 0 0
0 0 0
0 0 0
0 0 0
0 0 0
0 0 0
0 0 0
0 0 0
0 0 0
0 0 0
0 0 0
0 0 0
0 0 0
0 0 0
0 0 0
0 0 0
0 0 0
0 0 0
0 0 0
0 0 0
0 0 0
0 0 0
0 0 0
0 0 0
0 0 0
0 0 0
0 0 0
0 0 0
0 0 0
0 0 0
0 0 0
0 0 0
0 0 0
0 0 0
0 0 0
0 0 0
0 0 0
0 0 0
0 0 0
0 0 0
0 0 0
0 0 0
0 0 0
0 0 0
0 0 0
0 0 0
0 0 0
0 0 0
0 0 0
0 0 0
0 0 0
0 0 0
0 0 0
0 0 0
0 0 0
0 0 0
0 0 0
0 0 0
0 0 0
0 0 0
0 0 0
0 0 0
0 0 0
0 0 0
0 0 0
0 0 0
0 0 0
0 0 0
0 0 0
0 0 0
0 0 0
0 0 0
0 0 0
0 0 0
0 0 0
0 0 0
0 0 0
0 0 0
0 0 0
0 0 0
0 0 0
0 0 0
0 0 0
0 0 0
0 0 0
0 0 0
0 0 0
0 0 0
0 0 0
0 0 0
0 0 0
0 0 0
0 0 0
0 0 0
0 0 0
0 0 0
0 0 0
0 0 0
0 0 0
0 0 0
0 0 0
0 0 0
0 0 0
0 0 0
0 0 0
0 0 0
0 0 0
0 0 0
0 0 0
0 0 0
0 0 0
0 0 0
0 0 0
0 0 0
0 0 0
0 0 0
0 0 0
0 0 0
0 0 0
0 0 0
0 0 0
0 0 0
0 0 0
0 0 0
0 0 0
0 0 0
0 0 0
0 0 0
0 0 0
0 0 0
0 0 0
0 0 0
0 0 0
0 0 0
0 0 0
0 0 0
0 0 0
0 0 0
0 0 0
0 0 0
0 0 0
0 0 0
0 0 0
0 0 0
0 0 0
0 0 0
0 0 0
0 0 0
0 0 0
0 0 0
0 0 0
0 0 0
0 0 0
0 0 0
0 0 0
0 0 0
0 0 0
0 0 0
0 0 0
0 0 0
0 0 0
0 0 0
0 0 0
0 0 0
0 0 0
0 0 0
0 0 0
0 0 0
0 0 0
0 0 0
0 0 0
0 0 0
0 0 0
0 0 0
0 0 0
0 0 0
0 0 0
0 0 0
0 0 0
0 0 0
0 0 0
0 0 0
0 0 0
0 0 0
0 0 0
0 0 0
0 0 0
0 0 0
0 0 0
0 0 0
0 0 0
0 0 0
0 0 0
0 0 0
0 0 0
0 0 0
0 0 0
0 0 0
0 0 0
0 0 0
0 0 0
0 0 0
0 0 0
0 0 0
0 0 0
0 0 0
0 0 0
0 0 0
0 0 0
0 0 0
0 0 0
0 0 0
0 0 0
0 0 0
0 0 0
0 0 0
0 0 0
0 0 0
0 0 0
0 0 0
0 0 0
0 0 0
0 0 0
0 0 0
0 0 0
0 0 0
0 0 0
0 0 0
0 0 0
0 0 0
0 0 0
0 0 0
0 0 0
0 0 0
0 0 0
0 0 0
0 0 0
0 0 0
0 0 0
0 0 0
0 0 0
0 0 0
0 0 0
0 0 0
0 0 0
0 0 0
0 0 0
0 0 0
0 0 0
0 0 0
0 0 0
0 0 0
0 0 0
0 0 0
0 0 0
0 0 0
0 0 0
0 0 0
0 0 0
0 0 0
0 0 0
0 0 0
0 0 0
0 0 0
0 0 0
0 0 0
0 0 0
0 0 0
0 0 0
0 0 0
0 0 0
0 0 0
0 0 0
0 0 0
0 0 0
0 0 0
0 0 0
0 0 0
0 0 0
0 0 0
0 0 0
0 0 0
0 0 0
0 0 0
0 0 0
0 0 0
0 0 0
0 0 0
0 0 0
0 0 0
0 0 0
0 0 0
0 0 0
0 0 0
0 0 0
0 0 0
0 0 0
0 0 0
0 0 0
0 0 0
0 0 0
0 0 0
0 0 0
0 0 0
0 0 0
0 0 0
0 0 0
0 0 0
0 0 0
0 0 0
0 0 0
0 0 0
0 0 0
0 0 0
0 0 0
0 0 0
0 0 0
0 0 0
0 0 0
0 0 0
0 0 0
0 0 0
0 0 0
0 0 0
0 0 0
0 0 0
0 0 0
0 0 0
0 0 0
0 0 0
0 0 0
0 0 0
0 0 0
0 0 0
0 0 0
0 0 0
0 0 0
0 0 0
0 0 0
0 0 0
0 0 0
0 0 0
0 0 0
0 0 0
0 0 0
0 0 0
0 0 0
0 0 0
0 0 0
0 0 0
0 0 0
0 0 0
0 0 0
0 0 0
0 0 0
0 0 0
0 0 0
0 0 0
0 0 0
0 0 0
0 0 0
0 0 0
0 0 0
0 0 0
0 0 0
0 0 0
0 0 0
0 0 0
0 0 0
0 0 0
0 0 0
0 0 0
0 0 0
0 0 0
0 0 0
0 0 0
0 0 0
0 0 0
0 0 0
0 0 0
0 0 0
0 0 0
0 0 0
0 0 0
0 0 0
0 0 0
0 0 0
0 0 0
0 0 0
0 0 0
0 0 0
0 0 0
0 0 0
0 0 0
0 0 0
0 0 0
0 0 0
0 0 0
0 0 0
0 0 0
0 0 0
0 0 0
0 0 0
0 0 0
0 0 0
0 0 0
0 0 0
0 0 0
0 0 0
0 0 0
0 0 0
0 0 0
0 0 0
0 0 0
0 0 0
0 0 0
0 0 0
0 0 0
0 0 0
0 0 0
0 0 0
0 0 0
0 0 0
0 0 0
0 0 0
0 0 0
0 0 0
0 0 0
0 0 0
0 0 0
0 0 0
0 0 0
0 0 0
0 0 0
0 0 0
0 0 0
0 0 0
0 0 0
0 0 0
0 0 0
0 0 0
0 0 0
0 0 0
0 0 0
0 0 0
0 0 0
0 0 0
0 0 0
0 0 0
0 0 0
0 0 0
0 0 0
0 0 0
0 0 0
0 0 0
0 0 0
0 0 0
0 0 0
0 0 0
0 0 0
0 0 0
0 0 0
0 0 0
0 0 0
0 0 0
0 0 0
0 0 0
0 0 0
0 0 0
0 0 0
0 0 0
0 0 0
0 0 0
0 0 0
0 0 0
0 0 0
0 0 0
0 0 0
0 0 0
0 0 0
0 0 0
0 0 0
0 0 0
0 0 0
0 0 0
0 0 0
0 0 0
0 0 0
0 0 0
0 0 0
0 0 0
0 0 0
0 0 0
0 0 0
0 0 0
0 0 0
0 0 0
0 0 0
0 0 0
0 0 0
0 0 0
0 0 0
0 0 0
0 0 0
0 0 0
0 0 0
0 0 0
0 0 0
0 0 0
0 0 0
0 0 0
0 0 0
0 0 0
0 0 0
0 0 0
0 0 0
0 0 0
0 0 0
0 0 0
0 0 0
0 0 0
0 0 0
0 0 0
0 0 0
0 0 0
0 0 0
0 0 0
0 0 0
0 0 0
0 0 0
0 0 0
0 0 0
0 0 0
0 0 0
0 0 0
0 0 0
0 0 0
0 0 0
0 0 0
0 0 0
0 0 0
0 0 0
0 0 0
0 0 0
0 0 0
0 0 0
0 0 0
0 0 0
0 0 0
0 0 0
0 0 0
0 0 0
0 0 0
0 0 0
0 0 0
0 0 0
0 0 0
0 0 0
0 0 0
0 0 0
0 0 0
0 0 0
0 0 0
0 0 0
0 0 0
0 0 0
0 0 0
0 0 0
0 0 0
0 0 0
0 0 0
0 0 0
0 0 0
0 0 0
0 0 0
0 0 0
0 0 0
0 0 0
0 0 0
0 0 0
0 0 0
0 0 0
0 0 0
0 0 0
0 0 0
0 0 0
0 0 0
0 0 0
0 0 0
0 0 0
0 0 0
0 0 0
0 0 0
0 0 0
0 0 0
0 0 0
0 0 0
0 0 0
0 0 0
0 0 0
0 0 0
0 0 0
0 0 0
0 0 0
0 0 0
0 0 0
0 0 0
0 0 0
0 0 0
0 0 0
0 0 0
0 0 0
0 0 0
0 0 0
0 0 0
0 0 0
0 0 0
0 0 0
0 0 0
0 0 0
0 0 0
0 0 0
0 0 0
0 0 0
0 0 0
0 0 0
0 0 0
0 0 0
0 0 0
0 0 0
0 0 0
0 0 0
0 0 0
0 0 0
0 0 0
0 0 0
0 0 0
0 0 0
0 0 0
0 0 0
0 0 0
0 0 0
0 0 0
0 0 0
0 0 0
0 0 0
0 0 0
0 0 0
0 0 0
0 0 0
0 0 0
0 0 0
0 0 0
0 0 0
0 0 0
0 0 0
0 0 0
0 0 0
0 0 0
0 0 0
0 0 0
0 0 0
0 0 0
0 0 0
0 0 0
0 0 0
0 0 0
0 0 0
0 0 0
0 0 0
0 0 0
0 0 0
0 0 0
0 0 0
0 0 0
0 0 0
0 0 0
0 0 0
0 0 0
0 0 0
0 0 0
0 0 0
0 0 0
0 0 0
0 0 0
0 0 0
0 0 0
0 0 0
0 0 0
0 0 0
0 0 0
0 0 0
0 0 0
0 0 0
0 0 0
0 0 0
0 0 0
0 0 0
0 0 0
0 0 0
0 0 0
0 0 0
0 0 0
0 0 0
0 0 0
0 0 0
0 0 0
0 0 0
0 0 0
0 0 0
0 0 0
0 0 0
0 0 0
0 0 0
0 0 0
0 0 0
0 0 0
0 0 0
0 0 0
0 0 0
0 0 0
0 0 0
0 0 0
0 0 0
0 0 0
0 0 0
0 0 0
0 0 0
0 0 0
0 0 0
0 0 0
0 0 0
0 0 0
0 0 0
0 0 0
0 0 0
0 0 0
0 0 0
0 0 0
0 0 0
0 0 0
0 0 0
0 0 0
0 0 0
0 0 0
0 0 0
0 0 0
0 0 0
0 0 0
0 0 0
0 0 0
0 0 0
0 0 0
0 0 0
0 0 0
0 0 0
0 0 0
0 0 0
0 0 0
0 0 0
0 0 0
0 0 0
0 0 0
0 0 0
0 0 0
0 0 0
0 0 0
0 0 0
0 0 0
0 0 0
0 0 0
0 0 0
0 0 0
0 0 0
0 0 0
0 0 0
0 0 0
0 0 0
0 0 0
0 0 0
0 0 0
0 0 0
0 0 0
0 0 0
0 0 0
0 0 0
0 0 0
0 0 0
0 0 0
0 0 0
0 0 0
0 0 0
0 0 0
0 0 0
0 0 0
0 0 0
0 0 0
0 0 0
0 0 0
0 0 0
0 0 0
0 0 0
0 0 0
0 0 0
0 0 0
0 0 0
0 0 0
0 0 0
0 0 0
0 0 0
0 0 0
0 0 0
0 0 0
0 0 0
0 0 0
0 0 0
0 0 0
0 0 0
0 0 0
0 0 0
0 0 0
0 0 0
0 0 0
0 0 0
0 0 0
0 0 0
0 0 0
0 0 0
0 0 0
0 0 0
0 0 0
0 0 0
0 0 0
0 0 0
0 0 0
0 0 0
0 0 0
0 0 0
0 0 0
0 0 0
0 0 0
0 0 0
0 0 0
0 0 0
0 0 0
0 0 0
0 0 0
0 0 0
0 0 0
0 0 0
0 0 0
0 0 0
0 0 0
0 0 0
0 0 0
0 0 0
0 0 0
0 0 0
0 0 0
0 0 0
0 0 0
0 0 0
0 0 0
0 0 0
0 0 0
0 0 0
0 0 0
0 0 0
0 0 0
0 0 0
0 0 0
0 0 0
0 0 0
0 0 0
0 0 0
0 0 0
0 0 0
0 0 0
0 0 0
0 0 0
0 0 0
0 0 0
0 0 0
0 0 0
0 0 0
0 0 0
0 0 0
0 0 0
0 0 0
0 0 0
0 0 0
0 0 0
0 0 0
0 0 0
0 0 0
0 0 0
0 0 0
0 0 0
0 0 0
0 0 0
0 0 0
0 0 0
0 0 0
0 0 0
0 0 0
0 0 0
0 0 0
0 0 0
0 0 0
0 0 0
0 0 0
0 0 0
0 0 0
0 0 0
0 0 0
0 0 0
0 0 0
0 0 0
0 0 0
0 0 0
0 0 0
0 0 0
0 0 0
0 0 0
0 0 0
0 0 0
0 0 0
0 0 0
0 0 0
0 0 0
0 0 0
0 0 0
0 0 0
0 0 0
0 0 0
0 0 0
0 0 0
0 0 0
0 0 0
0 0 0
0 0 0
0 0 0
0 0 0
0 0 0
0 0 0
0 0 0
0 0 0
0 0 0
0 0 0
0 0 0
0 0 0
0 0 0
0 0 0
0 0 0
0 0 0
0 0 0
0 0 0
0 0 0
0 0 0
0 0 0
0 0 0
0 0 0
0 0 0
0 0 0
0 0 0
0 0 0
0 0 0
0 0 0
0 0 0
0 0 0
0 0 0
0 0 0
0 0 0
0 0 0
0 0 0
0 0 0
0 0 0
0 0 0
0 0 0
0 0 0
0 0 0
0 0 0
0 0 0
0 0 0
0 0 0
0 0 0
0 0 0
0 0 0
0 0 0
0 0 0
0 0 0
0 0 0
0 0 0
0 0 0
0 0 0
0 0 0
0 0 0
0 0 0
0 0 0
0 0 0
0 0 0
0 0 0
0 0 0
0 0 0
0 0 0
0 0 0
0 0 0
0 0 0
0 0 0
0 0 0
0 0 0
0 0 0
0 0 0
0 0 0
0 0 0
0 0 0
0 0 0
0 0 0
0 0 0
0 0 0
0 0 0
0 0 0
0 0 0
0 0 0
0 0 0
0 0 0
0 0 0
0 0 0
0 0 0
0 0 0
0 0 0
0 0 0
0 0 0
0 0 0
0 0 0
0 0 0
0 0 0
0 0 0
0 0 0
0 0 0
0 0 0
0 0 0
0 0 0
0 0 0
0 0 0
0 0 0
0 0 0
0 0 0
0 0 0
0 0 0
0 0 0
0 0 0
0 0 0
0 0 0
0 0 0
0 0 0
0 0 0
0 0 0
0 0 0
0 0 0
0 0 0
0 0 0
0 0 0
0 0 0
0 0 0
0 0 0
0 0 0
0 0 0
0 0 0
0 0 0
0 0 0
0 0 0
0 0 0
0 0 0
0 0 0
0 0 0
0 0 0
0 0 0
0 0 0
0 0 0
0 0 0
0 0 0
0 0 0
0 0 0
0 0 0
0 0 0
0 0 0
0 0 0
0 0 0
0 0 0
0 0 0
0 0 0
0 0 0
0 0 0
0 0 0
0 0 0
0 0 0
0 0 0
0 0 0
0 0 0
0 0 0
0 0 0
0 0 0
0 0 0
0 0 0
0 0 0
0 0 0
1 1 1
1 1 1
0 0 0
0 0 0
0 0 0
0 0 0
0 0 0
0 0 0
0 0 0
0 0 0
0 0 0
0 0 0
0 0 0
0 0 0
0 0 0
0 0 0
0 0 0
0 0 0
1 1 1
1 1 1
0 0 0
0 0 0
0 0 0
0 0 0
0 0 0
0 0 0
0 0 0
0 0 0
0 0 0
0 0 0
0 0 0
0 0 0
0 0 0
0 0 0
0 0 0
0 0 0
0 0 0
0 0 0
0 0 0
0 0 0
0 0 0
0 0 0
0 0 0
0 0 0
0 0 0
0 0 0
0 0 0
0 0 0
0 0 0
0 0 0
0 0 0
0 0 0
0 0 0
0 0 0
0 0 0
0 0 0
0 0 0
0 0 0
0 0 0
0 0 0
0 0 0
0 0 0
0 0 0
0 0 0
0 0 0
0 0 0
0 0 0
0 0 0
0 0 0
0 0 0
0 0 0
0 0 0
0 0 0
0 0 0
0 0 0
0 0 0
0 0 0
0 0 0
0 0 0
0 0 0
0 0 0
0 0 0
0 0 0
0 0 0
0 0 0
0 0 0
0 0 0
0 0 0
0 0 0
0 0 0
0 0 0
0 0 0
0 0 0
0 0 0
0 0 0
0 0 0
0 0 0
0 0 0
0 0 0
0 0 0
0 0 0
0 0 0
0 0 0
0 0 0
0 0 0
0 0 0
0 0 0
0 0 0
0 0 0
0 0 0
0 0 0
0 0 0
0 0 0
0 0 0
0 0 0
0 0 0
0 0 0
0 0 0
0 0 0
0 0 0
0 0 0
0 0 0
0 0 0
0 0 0
0 0 0
0 0 0
0 0 0
0 0 0
0 0 0
0 0 0
0 0 0
0 0 0
0 0 0
0 0 0
0 0 0
0 0 0
0 0 0
0 0 0
0 0 0
0 0 0
0 0 0
0 0 0
0 0 0
0 0 0
0 0 0
0 0 0
0 0 0
0 0 0
0 0 0
0 0 0
0 0 0
0 0 0
0 0 0
0 0 0
0 0 0
0 0 0
0 0 0
0 0 0
0 0 0
0 0 0
0 0 0
0 0 0
0 0 0
0 0 0
0 0 0
0 0 0
0 0 0
0 0 0
0 0 0
0 0 0
0 0 0
0 0 0
0 0 0
0 0 0
0 0 0
0 0 0
0 0 0
0 0 0
0 0 0
0 0 0
0 0 0
0 0 0
0 0 0
0 0 0
0 0 0
0 0 0
0 0 0
0 0 0
0 0 0
0 0 0
0 0 0
0 0 0
0 0 0
0 0 0
0 0 0
0 0 0
0 0 0
0 0 0
0 0 0
0 0 0
0 0 0
0 0 0
0 0 0
0 0 0
0 0 0
0 0 0
0 0 0
0 0 0
0 0 0
0 0 0
0 0 0
0 0 0
0 0 0
0 0 0
0 0 0
0 0 0
0 0 0
0 0 0
0 0 0
0 0 0
0 0 0
0 0 0
0 0 0
0 0 0
0 0 0
0 0 0
0 0 0
0 0 0
0 0 0
0 0 0
0 0 0
0 0 0
0 0 0
0 0 0
0 0 0
0 0 0
0 0 0
0 0 0
0 0 0
0 0 0
0 0 0
0 0 0
0 0 0
0 0 0
0 0 0
0 0 0
0 0 0
0 0 0
0 0 0
0 0 0
0 0 0
0 0 0
0 0 0
0 0 0
0 0 0
0 0 0
0 0 0
0 0 0
0 0 0
0 0 0
0 0 0
0 0 0
0 0 0
0 0 0
0 0 0
0 0 0
0 0 0
0 0 0
0 0 0
0 0 0
0 0 0
0 0 0
0 0 0
0 0 0
0 0 0
0 0 0
0 0 0
0 0 0
0 0 0
0 0 0
0 0 0
0 0 0
0 0 0
0 0 0
0 0 0
0 0 0
0 0 0
0 0 0
0 0 0
0 0 0
0 0 0
0 0 0
0 0 0
0 0 0
0 0 0
0 0 0
0 0 0
0 0 0
0 0 0
0 0 0
0 0 0
0 0 0
0 0 0
0 0 0
0 0 0
0 0 0
0 0 0
0 0 0
0 0 0
0 0 0
0 0 0
0 0 0
0 0 0
0 0 0
0 0 0
0 0 0
1 1 1
2 2 2
1 1 1
0 0 0
0 0 0
0 0 0
0 0 0
1 1 1
2 2 2
1 1 1
0 0 0
0 0 0
0 0 0
0 0 0
0 0 0
0 0 0
0 0 0
0 0 0
2 2 2
2 2 2
0 0 1
0 0 0
0 0 0
0 0 0
0 0 0
1 1 1
2 2 2
1 1 1
0 0 0
0 0 0
0 0 0
0 0 0
0 0 0
0 0 0
0 0 0
0 0 0
0 0 0
0 0 0
0 0 0
0 0 0
0 0 0
0 0 0
0 0 0
0 0 0
0 0 0
0 0 0
0 0 0
0 0 0
0 0 0
0 0 0
0 0 0
0 0 0
0 0 0
0 0 0
0 0 0
0 0 0
0 0 0
0 0 0
0 0 0
0 0 0
0 0 0
0 0 0
0 0 0
0 0 0
0 0 0
0 0 0
0 0 0
0 0 0
0 0 0
0 0 0
0 0 0
0 0 0
0 0 0
0 0 0
0 0 0
0 0 0
0 0 0
0 0 0
0 0 0
0 0 0
0 0 0
0 0 0
0 0 0
0 0 0
0 0 0
0 0 0
0 0 0
0 0 0
0 0 0
0 0 0
0 0 0
0 0 0
0 0 0
0 0 0
0 0 0
0 0 0
0 0 0
0 0 0
0 0 0
0 0 0
0 0 0
0 0 0
0 0 0
0 0 0
0 0 0
0 0 0
0 0 0
0 0 0
0 0 0
0 0 0
0 0 0
0 0 0
0 0 0
0 0 0
0 0 0
0 0 0
0 0 0
0 0 0
0 0 0
0 0 0
0 0 0
0 0 0
0 0 0
0 0 0
0 0 0
0 0 0
0 0 0
0 0 0
0 0 0
0 0 0
0 0 0
0 0 0
0 0 0
0 0 0
0 0 0
0 0 0
0 0 0
0 0 0
0 0 0
0 0 0
0 0 0
0 0 0
0 0 0
0 0 0
0 0 0
0 0 0
0 0 0
0 0 0
0 0 0
0 0 0
0 0 0
0 0 0
0 0 0
0 0 0
0 0 0
0 0 0
0 0 0
0 0 0
0 0 0
0 0 0
0 0 0
0 0 0
0 0 0
0 0 0
0 0 0
0 0 0
0 0 0
0 0 0
0 0 0
0 0 0
0 0 0
0 0 0
0 0 0
0 0 0
0 0 0
0 0 0
0 0 0
0 0 0
0 0 0
0 0 0
0 0 0
0 0 0
0 0 0
0 0 0
0 0 0
0 0 0
0 0 0
0 0 0
0 0 0
0 0 0
0 0 0
0 0 0
0 0 0
0 0 0
0 0 0
0 0 0
0 0 0
0 0 0
0 0 0
0 0 0
0 0 0
0 0 0
0 0 0
0 0 0
0 0 0
0 0 0
0 0 0
0 0 0
0 0 0
0 0 0
0 0 0
0 0 0
0 0 0
0 0 0
0 0 0
0 0 0
0 0 0
0 0 0
0 0 0
0 0 0
0 0 0
0 0 0
0 0 0
0 0 0
0 0 0
0 0 0
0 0 0
0 0 0
0 0 0
0 0 0
0 0 0
0 0 0
0 0 0
0 0 0
0 0 0
0 0 0
0 0 0
0 0 0
0 0 0
0 0 0
0 0 0
0 0 0
0 0 0
0 0 0
0 0 0
0 0 0
0 0 0
0 0 0
0 0 0
0 0 0
0 0 0
0 0 0
0 0 0
0 0 0
0 0 0
0 0 0
0 0 0
0 0 0
0 0 0
0 0 0
0 0 0
0 0 0
0 0 0
0 0 0
0 0 0
0 0 0
0 0 0
0 0 0
0 0 0
0 0 0
0 0 0
0 0 0
0 0 0
0 0 0
0 0 0
0 0 0
0 0 0
0 0 0
0 0 0
0 0 0
0 0 0
0 0 0
0 0 0
0 0 0
0 0 0
0 0 0
0 0 0
0 0 0
0 0 0
0 0 0
0 0 0
0 0 0
0 0 0
0 0 0
0 0 0
0 0 0
0 0 0
0 0 0
0 0 0
0 0 0
0 0 0
0 0 0
0 0 0
0 0 0
0 0 0
0 0 0
0 0 0
0 0 0
0 0 0
0 0 0
0 0 0
0 0 0
0 0 0
0 0 0
0 0 0
0 0 0
0 0 0
1 1 1
2 2 2
0 0 0
0 0 0
0 0 0
0 0 0
0 0 0
6 6 5
9 9 9
2 2 1
0 0 0
0 0 0
0 0 0
0 0 0
2 2 2
0 0 0
0 0 0
0 0 0
1 1 1
2 2 2
0 0 0
0 0 0
0 0 0
0 0 0
2 2 2
9 9 9
7 7 7
0 0 0
0 0 0
0 0 0
0 0 0
0 0 0
2 2 2
1 1 1
0 0 0
0 0 0
0 0 0
0 0 0
0 0 0
0 0 0
0 0 0
0 0 0
0 0 0
0 0 0
0 0 0
0 0 0
0 0 0
0 0 0
0 0 0
0 0 0
0 0 0
0 0 0
0 0 0
0 0 0
0 0 0
0 0 0
0 0 0
0 0 0
0 0 0
0 0 0
0 0 0
0 0 0
0 0 0
0 0 0
0 0 0
0 0 0
0 0 0
0 0 0
0 0 0
0 0 0
0 0 0
0 0 0
0 0 0
0 0 0
0 0 0
0 0 0
0 0 0
0 0 0
0 0 0
0 0 0
0 0 0
0 0 0
0 0 0
0 0 0
0 0 0
0 0 0
0 0 0
0 0 0
0 0 0
0 0 0
0 0 0
0 0 0
0 0 0
0 0 0
0 0 0
0 0 0
0 0 0
0 0 0
0 0 0
0 0 0
0 0 0
0 0 0
0 0 0
0 0 0
0 0 0
0 0 0
0 0 0
0 0 0
0 0 0
0 0 0
0 0 0
0 0 0
0 0 0
0 0 0
0 0 0
0 0 0
0 0 0
0 0 0
0 0 0
0 0 0
0 0 0
0 0 0
0 0 0
0 0 0
0 0 0
0 0 0
0 0 0
0 0 0
0 0 0
0 0 0
0 0 0
0 0 0
0 0 0
0 0 0
0 0 0
0 0 0
0 0 0
0 0 0
0 0 0
0 0 0
0 0 0
0 0 0
0 0 0
0 0 0
0 0 0
0 0 0
0 0 0
0 0 0
0 0 0
0 0 0
0 0 0
0 0 0
0 0 0
0 0 0
0 0 0
0 0 0
0 0 0
0 0 0
0 0 0
0 0 0
0 0 0
0 0 0
0 0 0
0 0 0
0 0 0
0 0 0
0 0 0
0 0 0
0 0 0
0 0 0
0 0 0
0 0 0
0 0 0
0 0 0
0 0 0
0 0 0
0 0 0
0 0 0
0 0 0
0 0 0
0 0 0
0 0 0
0 0 0
0 0 0
0 0 0
0 0 0
0 0 0
0 0 0
0 0 0
0 0 0
0 0 0
0 0 0
0 0 0
0 0 0
0 0 0
0 0 0
0 0 0
0 0 0
0 0 0
0 0 0
0 0 0
0 0 0
0 0 0
0 0 0
0 0 0
0 0 0
0 0 0
0 0 0
0 0 0
0 0 0
0 0 0
0 0 0
0 0 0
0 0 0
0 0 0
0 0 0
0 0 0
0 0 0
0 0 0
0 0 0
0 0 0
0 0 0
0 0 0
0 0 0
0 0 0
0 0 0
0 0 0
0 0 0
0 0 0
0 0 0
0 0 0
0 0 0
0 0 0
0 0 0
0 0 0
0 0 0
0 0 0
0 0 0
0 0 0
0 0 0
0 0 0
0 0 0
0 0 0
0 0 0
0 0 0
0 0 0
0 0 0
0 0 0
0 0 0
0 0 0
0 0 0
0 0 0
0 0 0
0 0 0
0 0 0
0 0 0
0 0 0
0 0 0
0 0 0
0 0 0
0 0 0
0 0 0
0 0 0
0 0 0
0 0 0
0 0 0
0 0 0
0 0 0
0 0 0
0 0 0
0 0 0
0 0 0
0 0 0
0 0 0
0 0 0
0 0 0
0 0 0
0 0 0
0 0 0
0 0 0
0 0 0
0 0 0
0 0 0
0 0 0
0 0 0
0 0 0
0 0 0
0 0 0
0 0 0
0 0 0
0 0 0
0 0 0
0 0 0
0 0 0
0 0 0
0 0 0
0 0 0
0 0 0
0 0 0
0 0 0
0 0 0
0 0 0
0 0 0
0 0 0
0 0 0
0 0 0
0 0 0
0 0 0
0 0 0
0 0 0
0 0 0
0 0 0
0 0 0
0 0 0
0 0 0
0 0 0
0 0 0
0 0 0
0 0 0
1 1 1
0 0 0
0 0 0
0 0 0
28 28 27
68 68 71
94 95 98
116 116 120
124 124 125
130 130 134
122 122 126
102 102 105
68 68 71
27 27 24
0 0 0
0 0 0
0 0 0
1 1 1
1 1 1
0 0 0
0 0 0
4 3 3
37 37 37
84 83 84
113 112 110
124 124 125
139 138 142
132 132 135
113 112 110
90 90 92
59 64 62
22 22 23
0 0 0
0 0 0
0 0 0
1 1 1
0 0 0
0 0 0
0 0 0
0 0 0
0 0 0
0 0 0
0 0 0
0 0 0
0 0 0
0 0 0
0 0 0
0 0 0
0 0 0
0 0 0
0 0 0
0 0 0
0 0 0
0 0 0
0 0 0
0 0 0
0 0 0
0 0 0
0 0 0
0 0 0
0 0 0
0 0 0
0 0 0
0 0 0
0 0 0
0 0 0
0 0 0
0 0 0
0 0 0
0 0 0
0 0 0
0 0 0
0 0 0
0 0 0
0 0 0
0 0 0
0 0 0
0 0 0
0 0 0
0 0 0
0 0 0
0 0 0
0 0 0
0 0 0
0 0 0
0 0 0
0 0 0
0 0 0
0 0 0
0 0 0
0 0 0
0 0 0
0 0 0
0 0 0
0 0 0
0 0 0
0 0 0
0 0 0
0 0 0
0 0 0
0 0 0
0 0 0
0 0 0
0 0 0
0 0 0
0 0 0
0 0 0
0 0 0
0 0 0
0 0 0
0 0 0
0 0 0
0 0 0
0 0 0
0 0 0
0 0 0
0 0 0
0 0 0
0 0 0
0 0 0
0 0 0
0 0 0
0 0 0
0 0 0
0 0 0
0 0 0
0 0 0
0 0 0
0 0 0
0 0 0
0 0 0
0 0 0
0 0 0
0 0 0
0 0 0
0 0 0
0 0 0
0 0 0
0 0 0
0 0 0
0 0 0
0 0 0
0 0 0
0 0 0
0 0 0
0 0 0
0 0 0
0 0 0
0 0 0
0 0 0
0 0 0
0 0 0
0 0 0
0 0 0
0 0 0
0 0 0
0 0 0
0 0 0
0 0 0
0 0 0
0 0 0
0 0 0
0 0 0
0 0 0
0 0 0
0 0 0
0 0 0
0 0 0
0 0 0
0 0 0
0 0 0
0 0 0
0 0 0
0 0 0
0 0 0
0 0 0
0 0 0
0 0 0
0 0 0
0 0 0
0 0 0
0 0 0
0 0 0
0 0 0
0 0 0
0 0 0
0 0 0
0 0 0
0 0 0
0 0 0
0 0 0
0 0 0
0 0 0
0 0 0
0 0 0
0 0 0
0 0 0
0 0 0
0 0 0
0 0 0
0 0 0
0 0 0
0 0 0
0 0 0
0 0 0
0 0 0
0 0 0
0 0 0
0 0 0
0 0 0
0 0 0
0 0 0
0 0 0
0 0 0
0 0 0
0 0 0
0 0 0
0 0 0
0 0 0
0 0 0
0 0 0
0 0 0
0 0 0
0 0 0
0 0 0
0 0 0
0 0 0
0 0 0
0 0 0
0 0 0
0 0 0
0 0 0
0 0 0
0 0 0
0 0 0
0 0 0
0 0 0
0 0 0
0 0 0
0 0 0
0 0 0
0 0 0
0 0 0
0 0 0
0 0 0
0 0 0
0 0 0
0 0 0
0 0 0
0 0 0
0 0 0
0 0 0
0 0 0
0 0 0
0 0 0
0 0 0
0 0 0
0 0 0
0 0 0
0 0 0
0 0 0
0 0 0
0 0 0
0 0 0
0 0 0
0 0 0
0 0 0
0 0 0
0 0 0
0 0 0
0 0 0
0 0 0
0 0 0
0 0 0
0 0 0
0 0 0
0 0 0
0 0 0
0 0 0
0 0 0
0 0 0
0 0 0
0 0 0
0 0 0
0 0 0
0 0 0
0 0 0
0 0 0
0 0 0
0 0 0
0 0 0
0 0 0
0 0 0
0 0 0
0 0 0
0 0 0
0 0 0
0 0 0
0 0 0
0 0 0
0 0 0
0 0 0
0 0 0
0 0 0
0 0 0
0 0 0
0 0 0
0 0 0
0 0 0
0 0 0
0 0 0
0 0 0
0 0 0
0 0 0
0 0 0
0 0 0
0 0 0
0 0 0
0 0 0
1 1 1
0 0 0
37 37 37
88 87 91
116 116 120
149 150 146
144 143 148
116 116 120
102 102 105
71 72 76
54 54 58
84 83 84
113 112 110
124 124 125
144 143 148
118 118 122
54 54 58
2 2 2
0 0 0
0 0 0
5 5 6
68 68 71
130 130 134
144 143 148
122 122 126
113 112 110
90 90 92
59 64 62
82 82 81
94 95 98
113 112 110
139 138 142
149 150 146
116 116 120
84 83 84
28 28 27
0 0 0
1 1 1
0 0 0
0 0 0
0 0 0
0 0 0
0 0 0
0 0 0
0 0 0
0 0 0
0 0 0
0 0 0
0 0 0
0 0 0
0 0 0
0 0 0
0 0 0
0 0 0
0 0 0
0 0 0
0 0 0
0 0 0
0 0 0
0 0 0
0 0 0
0 0 0
0 0 0
0 0 0
0 0 0
0 0 0
0 0 0
0 0 0
0 0 0
0 0 0
0 0 0
0 0 0
0 0 0
0 0 0
0 0 0
0 0 0
0 0 0
0 0 0
0 0 0
0 0 0
0 0 0
0 0 0
0 0 0
0 0 0
0 0 0
0 0 0
0 0 0
0 0 0
0 0 0
0 0 0
0 0 0
0 0 0
0 0 0
0 0 0
0 0 0
0 0 0
0 0 0
0 0 0
0 0 0
0 0 0
0 0 0
0 0 0
0 0 0
0 0 0
0 0 0
0 0 0
0 0 0
0 0 0
0 0 0
0 0 0
0 0 0
0 0 0
0 0 0
0 0 0
0 0 0
0 0 0
0 0 0
0 0 0
0 0 0
0 0 0
0 0 0
0 0 0
0 0 0
0 0 0
0 0 0
0 0 0
0 0 0
0 0 0
0 0 0
0 0 0
0 0 0
0 0 0
0 0 0
0 0 0
0 0 0
0 0 0
0 0 0
0 0 0
0 0 0
0 0 0
0 0 0
0 0 0
0 0 0
0 0 0
0 0 0
0 0 0
0 0 0
0 0 0
0 0 0
0 0 0
0 0 0
0 0 0
0 0 0
0 0 0
0 0 0
0 0 0
0 0 0
0 0 0
0 0 0
0 0 0
0 0 0
0 0 0
0 0 0
0 0 0
0 0 0
0 0 0
0 0 0
0 0 0
0 0 0
0 0 0
0 0 0
0 0 0
0 0 0
0 0 0
0 0 0
0 0 0
0 0 0
0 0 0
0 0 0
0 0 0
0 0 0
0 0 0
0 0 0
0 0 0
0 0 0
0 0 0
0 0 0
0 0 0
0 0 0
0 0 0
0 0 0
0 0 0
0 0 0
0 0 0
0 0 0
0 0 0
0 0 0
0 0 0
0 0 0
0 0 0
0 0 0
0 0 0
0 0 0
0 0 0
0 0 0
0 0 0
0 0 0
0 0 0
0 0 0
0 0 0
0 0 0
0 0 0
0 0 0
0 0 0
0 0 0
0 0 0
0 0 0
0 0 0
0 0 0
0 0 0
0 0 0
0 0 0
0 0 0
0 0 0
0 0 0
0 0 0
0 0 0
0 0 0
0 0 0
0 0 0
0 0 0
0 0 0
0 0 0
0 0 0
0 0 0
0 0 0
0 0 0
0 0 0
0 0 0
0 0 0
0 0 0
0 0 0
0 0 0
0 0 0
0 0 0
0 0 0
0 0 0
0 0 0
0 0 0
0 0 0
0 0 0
0 0 0
0 0 0
0 0 0
0 0 0
0 0 0
0 0 0
0 0 0
0 0 0
0 0 0
0 0 0
0 0 0
0 0 0
0 0 0
0 0 0
0 0 0
0 0 0
0 0 0
0 0 0
0 0 0
0 0 0
0 0 0
0 0 0
0 0 0
0 0 0
0 0 0
0 0 0
0 0 0
0 0 0
0 0 0
0 0 0
0 0 0
0 0 0
0 0 0
0 0 0
0 0 0
0 0 0
0 0 0
0 0 0
0 0 0
0 0 0
0 0 0
0 0 0
0 0 0
0 0 0
0 0 0
0 0 0
0 0 0
0 0 0
0 0 0
0 0 0
0 0 0
0 0 0
0 0 0
0 0 0
0 0 0
0 0 0
0 0 0
0 0 0
0 0 0
0 0 0
0 0 0
0 0 0
0 0 0
0 0 0
0 0 0
0 0 0
0 0 0
0 0 0
1 1 1
0 0 0
59 64 62
144 143 148
116 116 120
91 91 95
48 48 50
19 19 18
0 0 0
0 0 0
0 0 0
0 0 0
0 0 0
0 0 0
4 3 3
44 42 44
94 95 98
144 143 148
113 112 110
17 16 16
23 23 23
122 122 126
149 150 146
90 90 92
39 39 41
0 0 0
0 0 0
0 0 0
0 0 0
0 0 0
0 0 0
0 0 0
18 18 18
59 58 59
102 102 105
116 116 120
139 138 142
44 42 44
0 0 0
1 1 1
0 0 0
0 0 0
0 0 0
0 0 0
0 0 0
0 0 0
0 0 0
0 0 0
0 0 0
0 0 0
0 0 0
0 0 0
0 0 0
0 0 0
0 0 0
0 0 0
0 0 0
0 0 0
0 0 0
0 0 0
0 0 0
0 0 0
0 0 0
0 0 0
0 0 0
0 0 0
0 0 0
0 0 0
0 0 0
0 0 0
0 0 0
0 0 0
0 0 0
0 0 0
0 0 0
0 0 0
0 0 0
0 0 0
0 0 0
0 0 0
0 0 0
0 0 0
0 0 0
0 0 0
0 0 0
0 0 0
0 0 0
0 0 0
0 0 0
0 0 0
0 0 0
0 0 0
0 0 0
0 0 0
0 0 0
0 0 0
0 0 0
0 0 0
0 0 0
0 0 0
0 0 0
0 0 0
0 0 0
0 0 0
0 0 0
0 0 0
0 0 0
0 0 0
0 0 0
0 0 0
0 0 0
0 0 0
0 0 0
0 0 0
0 0 0
0 0 0
0 0 0
0 0 0
0 0 0
0 0 0
0 0 0
0 0 0
0 0 0
0 0 0
0 0 0
0 0 0
0 0 0
0 0 0
0 0 0
0 0 0
0 0 0
0 0 0
0 0 0
0 0 0
0 0 0
0 0 0
0 0 0
0 0 0
0 0 0
0 0 0
0 0 0
0 0 0
0 0 0
0 0 0
0 0 0
0 0 0
0 0 0
0 0 0
0 0 0
0 0 0
0 0 0
0 0 0
0 0 0
0 0 0
0 0 0
0 0 0
0 0 0
0 0 0
0 0 0
0 0 0
0 0 0
0 0 0
0 0 0
0 0 0
0 0 0
0 0 0
0 0 0
0 0 0
0 0 0
0 0 0
0 0 0
0 0 0
0 0 0
0 0 0
0 0 0
0 0 0
0 0 0
0 0 0
0 0 0
0 0 0
0 0 0
0 0 0
0 0 0
0 0 0
0 0 0
0 0 0
0 0 0
0 0 0
0 0 0
0 0 0
0 0 0
0 0 0
0 0 0
0 0 0
0 0 0
0 0 0
0 0 0
0 0 0
0 0 0
0 0 0
0 0 0
0 0 0
0 0 0
0 0 0
0 0 0
0 0 0
0 0 0
0 0 0
0 0 0
0 0 0
0 0 0
0 0 0
0 0 0
0 0 0
0 0 0
0 0 0
0 0 0
0 0 0
0 0 0
0 0 0
0 0 0
0 0 0
0 0 0
0 0 0
0 0 0
0 0 0
0 0 0
0 0 0
0 0 0
0 0 0
0 0 0
0 0 0
0 0 0
0 0 0
0 0 0
0 0 0
0 0 0
0 0 0
0 0 0
0 0 0
0 0 0
0 0 0
0 0 0
0 0 0
0 0 0
0 0 0
0 0 0
0 0 0
0 0 0
0 0 0
0 0 0
0 0 0
0 0 0
0 0 0
0 0 0
0 0 0
0 0 0
0 0 0
0 0 0
0 0 0
0 0 0
0 0 0
0 0 0
0 0 0
0 0 0
0 0 0
0 0 0
0 0 0
0 0 0
0 0 0
0 0 0
0 0 0
0 0 0
0 0 0
0 0 0
0 0 0
0 0 0
0 0 0
0 0 0
0 0 0
0 0 0
0 0 0
0 0 0
0 0 0
0 0 0
0 0 0
0 0 0
0 0 0
0 0 0
0 0 0
0 0 0
0 0 0
0 0 0
0 0 0
0 0 0
0 0 0
0 0 0
0 0 0
0 0 0
0 0 0
0 0 0
0 0 0
0 0 0
0 0 0
0 0 0
0 0 0
0 0 0
0 0 0
0 0 0
0 0 0
0 0 0
0 0 0
0 0 0
0 0 0
0 0 0
0 0 0
0 0 0
0 0 0
0 0 0
0 0 0
0 0 0
10 10 10
144 143 148
90 90 92
0 0 0
0 0 0
0 0 0
0 0 0
18 17 5
24 23 7
55 51 10
60 58 14
29 82 35
24 23 7
10 11 5
0 0 0
0 0 0
28 31 34
122 122 126
130 130 134
139 138 142
116 116 120
22 22 23
0 0 0
0 0 0
10 11 5
24 23 7
60 58 14
55 51 10
46 42 3
24 23 7
18 17 5
0 0 0
0 0 0
0 0 0
1 0 0
102 102 105
130 130 134
2 2 2
0 0 0
0 0 0
0 0 0
0 0 0
0 0 0
0 0 0
0 0 0
0 0 0
0 0 0
0 0 0
0 0 0
0 0 0
0 0 0
0 0 0
0 0 0
0 0 0
0 0 0
0 0 0
0 0 0
0 0 0
0 0 0
0 0 0
0 0 0
0 0 0
0 0 0
0 0 0
0 0 0
0 0 0
0 0 0
0 0 0
0 0 0
0 0 0
0 0 0
0 0 0
0 0 0
0 0 0
0 0 0
0 0 0
0 0 0
0 0 0
0 0 0
0 0 0
0 0 0
0 0 0
0 0 0
0 0 0
0 0 0
0 0 0
0 0 0
0 0 0
0 0 0
0 0 0
0 0 0
0 0 0
0 0 0
0 0 0
0 0 0
0 0 0
0 0 0
0 0 0
0 0 0
0 0 0
0 0 0
0 0 0
0 0 0
0 0 0
0 0 0
0 0 0
0 0 0
0 0 0
0 0 0
0 0 0
0 0 0
0 0 0
0 0 0
0 0 0
0 0 0
0 0 0
0 0 0
0 0 0
0 0 0
0 0 0
0 0 0
0 0 0
0 0 0
0 0 0
0 0 0
0 0 0
0 0 0
0 0 0
0 0 0
0 0 0
0 0 0
0 0 0
0 0 0
0 0 0
0 0 0
0 0 0
0 0 0
0 0 0
0 0 0
0 0 0
0 0 0
0 0 0
0 0 0
0 0 0
0 0 0
0 0 0
0 0 0
0 0 0
0 0 0
0 0 0
0 0 0
0 0 0
0 0 0
0 0 0
0 0 0
0 0 0
0 0 0
0 0 0
0 0 0
0 0 0
0 0 0
0 0 0
0 0 0
0 0 0
0 0 0
0 0 0
0 0 0
0 0 0
0 0 0
0 0 0
0 0 0
0 0 0
0 0 0
0 0 0
0 0 0
0 0 0
0 0 0
0 0 0
0 0 0
0 0 0
0 0 0
0 0 0
0 0 0
0 0 0
0 0 0
0 0 0
0 0 0
0 0 0
0 0 0
0 0 0
0 0 0
0 0 0
0 0 0
0 0 0
0 0 0
0 0 0
0 0 0
0 0 0
0 0 0
0 0 0
0 0 0
0 0 0
0 0 0
0 0 0
0 0 0
0 0 0
0 0 0
0 0 0
0 0 0
0 0 0
0 0 0
0 0 0
0 0 0
0 0 0
0 0 0
0 0 0
0 0 0
0 0 0
0 0 0
0 0 0
0 0 0
0 0 0
0 0 0
0 0 0
0 0 0
0 0 0
0 0 0
0 0 0
0 0 0
0 0 0
0 0 0
0 0 0
0 0 0
0 0 0
0 0 0
0 0 0
0 0 0
0 0 0
0 0 0
0 0 0
0 0 0
0 0 0
0 0 0
0 0 0
0 0 0
0 0 0
0 0 0
0 0 0
0 0 0
0 0 0
0 0 0
0 0 0
0 0 0
0 0 0
0 0 0
0 0 0
0 0 0
0 0 0
0 0 0
0 0 0
0 0 0
0 0 0
0 0 0
0 0 0
0 0 0
0 0 0
0 0 0
0 0 0
0 0 0
0 0 0
0 0 0
0 0 0
0 0 0
0 0 0
0 0 0
0 0 0
0 0 0
0 0 0
0 0 0
0 0 0
0 0 0
0 0 0
0 0 0
1 1 1
2 2 2
2 2 2
2 2 2
2 2 2
2 1 2
2 1 2
2 2 2
2 2 2
2 2 2
2 2 2
2 2 2
2 2 2
2 2 2
2 2 2
2 2 2
2 2 2
2 2 2
2 2 2
2 2 2
2 2 2
2 2 2
2 2 2
2 2 2
2 2 2
2 2 2
2 2 2
2 2 2
2 2 2
2 2 2
2 2 2
2 2 2
2 2 2
2 2 2
2 2 2
3 3 3
2 2 2
32 32 35
149 150 146
48 48 50
0 0 0
24 23 7
25 41 26
64 167 23
93 188 35
93 188 35
93 188 35
93 188 35
93 188 35
93 188 35
93 188 35
29 82 35
10 11 5
0 0 0
17 16 16
144 143 148
130 130 134
7 7 7
0 0 0
10 11 5
29 82 35
93 188 35
93 188 35
93 188 35
93 188 35
93 188 35
93 188 35
93 188 35
64 167 23
25 41 26
22 20 11
0 0 0
68 68 71
149 150 146
18 18 18
2 2 2
3 3 3
2 2 2
2 2 2
2 2 2
2 2 2
2 2 2
2 2 2
2 2 2
2 2 2
2 2 2
2 2 2
2 1 2
2 1 2
2 2 2
2 2 2
2 2 2
2 2 2
2 2 2
2 2 2
2 2 2
2 2 2
2 2 2
2 2 2
2 2 2
2 2 2
2 2 2
2 2 2
2 2 2
2 2 2
2 2 2
2 2 2
2 2 2
2 2 2
2 2 2
1 1 1
1 1 1
0 0 0
0 0 0
0 0 0
0 0 0
0 0 0
0 0 0
0 0 0
0 0 0
0 0 0
0 0 0
0 0 0
0 0 0
0 0 0
0 0 0
0 0 0
0 0 0
0 0 0
0 0 0
0 0 0
0 0 0
0 0 0
0 0 0
0 0 0
0 0 0
0 0 0
0 0 0
0 0 0
0 0 0
0 0 0
0 0 0
0 0 0
0 0 0
0 0 0
0 0 0
0 0 0
0 0 0
0 0 0
0 0 0
0 0 0
0 0 0
0 0 0
0 0 0
0 0 0
0 0 0
0 0 0
0 0 0
0 0 0
0 0 0
0 0 0
0 0 0
0 0 0
0 0 0
0 0 0
0 0 0
0 0 0
0 0 0
0 0 0
0 0 0
0 0 0
0 0 0
0 0 0
0 0 0
0 0 0
0 0 0
0 0 0
0 0 0
0 0 0
0 0 0
0 0 0
0 0 0
0 0 0
0 0 0
0 0 0
0 0 0
0 0 0
0 0 0
0 0 0
0 0 0
0 0 0
0 0 0
0 0 0
0 0 0
0 0 0
0 0 0
0 0 0
0 0 0
0 0 0
0 0 0
0 0 0
0 0 0
0 0 0
0 0 0
0 0 0
0 0 0
0 0 0
0 0 0
0 0 0
0 0 0
0 0 0
0 0 0
0 0 0
0 0 0
0 0 0
0 0 0
0 0 0
0 0 0
0 0 0
0 0 0
0 0 0
0 0 0
0 0 0
0 0 0
0 0 0
0 0 0
0 0 0
0 0 0
0 0 0
0 0 0
0 0 0
0 0 0
0 0 0
0 0 0
0 0 0
0 0 0
0 0 0
0 0 0
0 0 0
0 0 0
0 0 0
0 0 0
0 0 0
0 0 0
0 0 0
0 0 0
0 0 0
0 0 0
0 0 0
0 0 0
0 0 0
0 0 0
0 0 0
0 0 0
0 0 0
0 0 0
0 0 0
0 0 0
0 0 0
0 0 0
0 0 0
0 0 0
0 0 0
0 0 0
0 0 0
0 0 0
0 0 0
0 0 0
0 0 0
0 0 0
0 0 0
0 0 0
0 0 0
0 0 0
0 0 0
0 0 0
0 0 0
0 0 0
0 0 0
0 0 0
0 0 0
0 0 0
0 0 0
0 0 0
0 0 0
0 0 0
0 0 0
0 0 0
0 0 0
0 0 0
0 0 0
0 0 0
0 0 0
0 0 0
0 0 0
0 0 0
0 0 0
0 0 0
0 0 0
0 0 0
0 0 0
0 0 0
0 0 0
0 0 0
0 0 0
0 0 0
0 0 0
0 0 0
0 0 0
0 0 0
0 0 0
0 0 0
0 0 0
0 0 0
0 0 0
0 0 0
0 0 0
0 0 0
0 0 0
2 2 1
0 0 0
0 0 0
0 0 0
0 0 0
0 0 0
0 0 0
0 0 0
0 0 0
0 0 0
0 0 0
0 0 0
0 0 0
0 0 0
0 0 0
0 0 0
0 0 0
0 0 0
0 0 0
0 0 0
0 0 0
0 0 0
0 0 0
0 0 0
0 0 0
0 0 0
0 0 0
0 0 0
0 0 0
0 0 0
0 0 0
0 0 0
0 0 0
0 0 0
0 0 0
0 0 0
0 0 0
0 0 0
48 48 50
149 150 146
34 34 31
0 0 0
55 51 10
93 188 35
93 188 35
93 188 35
93 188 35
93 188 35
93 188 35
93 188 35
93 188 35
93 188 35
93 188 35
93 188 35
60 58 14
0 0 0
43 43 48
32 32 35
0 0 0
60 58 14
93 188 35
93 188 35
93 188 35
93 188 35
93 188 35
93 188 35
93 188 35
93 188 35
93 188 35
93 188 35
93 188 35
46 42 3
0 0 0
44 42 44
144 143 148
34 34 31
0 0 0
0 0 0
0 0 0
0 0 0
0 0 0
0 0 0
0 0 0
0 0 0
0 0 0
0 0 0
0 0 0
0 0 0
0 0 0
0 0 0
0 0 0
0 0 0
0 0 0
0 0 0
0 0 0
0 0 0
0 0 0
0 0 0
0 0 0
0 0 0
0 0 0
0 0 0
0 0 0
0 0 0
0 0 0
0 0 0
0 0 0
0 0 0
0 0 0
0 0 0
0 0 0
0 0 0
0 0 0
2 2 2
0 0 0
0 0 0
0 0 0
0 0 0
0 0 0
0 0 0
0 0 0
0 0 0
0 0 0
0 0 0
0 0 0
0 0 0
0 0 0
0 0 0
0 0 0
0 0 0
0 0 0
0 0 0
0 0 0
0 0 0
0 0 0
0 0 0
0 0 0
0 0 0
0 0 0
0 0 0
0 0 0
0 0 0
0 0 0
0 0 0
0 0 0
0 0 0
0 0 0
0 0 0
0 0 0
0 0 0
0 0 0
0 0 0
0 0 0
0 0 0
0 0 0
0 0 0
0 0 0
0 0 0
0 0 0
0 0 0
0 0 0
0 0 0
0 0 0
0 0 0
0 0 0
0 0 0
0 0 0
0 0 0
0 0 0
0 0 0
0 0 0
0 0 0
0 0 0
0 0 0
0 0 0
0 0 0
0 0 0
0 0 0
0 0 0
0 0 0
0 0 0
0 0 0
0 0 0
0 0 0
0 0 0
0 0 0
0 0 0
0 0 0
0 0 0
0 0 0
0 0 0
0 0 0
0 0 0
0 0 0
0 0 0
0 0 0
0 0 0
0 0 0
0 0 0
0 0 0
0 0 0
0 0 0
0 0 0
0 0 0
0 0 0
0 0 0
0 0 0
0 0 0
0 0 0
0 0 0
0 0 0
0 0 0
0 0 0
0 0 0
0 0 0
0 0 0
0 0 0
0 0 0
0 0 0
0 0 0
0 0 0
0 0 0
0 0 0
0 0 0
0 0 0
0 0 0
0 0 0
0 0 0
0 0 0
0 0 0
0 0 0
0 0 0
0 0 0
0 0 0
0 0 0
0 0 0
0 0 0
0 0 0
0 0 0
0 0 0
0 0 0
0 0 0
0 0 0
0 0 0
0 0 0
0 0 0
0 0 0
0 0 0
0 0 0
0 0 0
0 0 0
0 0 0
0 0 0
0 0 0
0 0 0
0 0 0
0 0 0
0 0 0
0 0 0
0 0 0
0 0 0
0 0 0
0 0 0
0 0 0
0 0 0
0 0 0
0 0 0
0 0 0
0 0 0
0 0 0
0 0 0
0 0 0
0 0 0
0 0 0
0 0 0
0 0 0
0 0 0
0 0 0
0 0 0
0 0 0
0 0 0
0 0 0
0 0 0
0 0 0
0 0 0
0 0 0
0 0 0
0 0 0
0 0 0
0 0 0
0 0 0
0 0 0
0 0 0
0 0 0
0 0 0
0 0 0
0 0 0
0 0 0
0 0 0
0 0 0
0 0 0
0 0 0
0 0 0
0 0 0
0 0 0
0 0 0
0 0 0
0 0 0
0 0 0
0 0 0
0 0 0
0 0 0
0 0 0
0 0 0
0 0 0
0 0 0
0 0 0
0 0 0
1 0 0
0 0 0
0 0 0
13 13 13
37 37 37
44 42 44
44 42 44
39 39 41
39 39 41
39 39 41
39 39 41
44 42 44
44 42 44
44 42 44
44 42 44
39 39 41
44 42 44
44 42 44
44 42 44
44 42 44
44 42 44
44 42 44
44 42 44
44 42 44
44 42 44
44 42 44
44 42 44
44 42 44
44 42 44
44 42 44
44 42 44
44 42 44
44 42 44
44 42 44
44 42 44
44 42 44
44 42 44
44 42 44
45 45 44
44 42 44
88 87 91
149 150 146
27 27 24
0 0 0
60 58 14
93 188 35
93 188 35
93 188 35
93 188 35
93 188 35
93 188 35
93 188 35
93 188 35
93 188 35
93 188 35
93 188 35
93 188 35
24 23 7
0 0 0
0 0 0
25 41 26
93 188 35
93 188 35
93 188 35
93 188 35
93 188 35
93 188 35
93 188 35
93 188 35
93 188 35
93 188 35
93 188 35
93 188 35
25 41 26
0 0 0
34 34 31
144 143 148
68 68 71
39 39 41
44 42 44
44 42 44
44 42 44
44 42 44
44 42 44
44 42 44
44 42 44
39 39 41
39 39 41
39 39 41
39 39 41
37 37 37
39 39 41
39 39 41
44 42 44
44 42 44
44 42 44
44 42 44
44 42 44
44 42 44
44 42 44
44 42 44
44 42 44
44 42 44
44 42 44
44 42 44
44 42 44
39 39 41
44 42 44
44 42 44
39 39 41
44 42 44
39 39 41
44 42 44
32 32 35
6 5 6
0 0 0
1 1 1
0 0 0
0 0 0
0 0 0
0 0 0
0 0 0
0 0 0
0 0 0
0 0 0
0 0 0
0 0 0
0 0 0
0 0 0
0 0 0
0 0 0
0 0 0
0 0 0
0 0 0
0 0 0
0 0 0
0 0 0
0 0 0
0 0 0
0 0 0
0 0 0
0 0 0
0 0 0
0 0 0
0 0 0
0 0 0
0 0 0
0 0 0
0 0 0
0 0 0
0 0 0
0 0 0
0 0 0
0 0 0
0 0 0
0 0 0
0 0 0
0 0 0
0 0 0
0 0 0
0 0 0
0 0 0
0 0 0
0 0 0
0 0 0
0 0 0
0 0 0
0 0 0
0 0 0
0 0 0
0 0 0
0 0 0
0 0 0
0 0 0
0 0 0
0 0 0
0 0 0
0 0 0
0 0 0
0 0 0
0 0 0
0 0 0
0 0 0
0 0 0
0 0 0
0 0 0
0 0 0
0 0 0
0 0 0
0 0 0
0 0 0
0 0 0
0 0 0
0 0 0
0 0 0
0 0 0
0 0 0
0 0 0
0 0 0
0 0 0
0 0 0
0 0 0
0 0 0
0 0 0
0 0 0
0 0 0
0 0 0
0 0 0
0 0 0
0 0 0
0 0 0
0 0 0
0 0 0
0 0 0
0 0 0
0 0 0
0 0 0
0 0 0
0 0 0
0 0 0
0 0 0
0 0 0
0 0 0
0 0 0
0 0 0
0 0 0
0 0 0
0 0 0
0 0 0
0 0 0
0 0 0
0 0 0
0 0 0
0 0 0
0 0 0
0 0 0
0 0 0
0 0 0
0 0 0
0 0 0
0 0 0
0 0 0
0 0 0
0 0 0
0 0 0
0 0 0
0 0 0
0 0 0
0 0 0
0 0 0
0 0 0
0 0 0
0 0 0
0 0 0
0 0 0
0 0 0
0 0 0
0 0 0
0 0 0
0 0 0
0 0 0
0 0 0
0 0 0
0 0 0
0 0 0
0 0 0
0 0 0
0 0 0
0 0 0
0 0 0
0 0 0
0 0 0
0 0 0
0 0 0
0 0 0
0 0 0
0 0 0
0 0 0
0 0 0
0 0 0
0 0 0
0 0 0
0 0 0
0 0 0
0 0 0
0 0 0
0 0 0
0 0 0
0 0 0
0 0 0
0 0 0
0 0 0
0 0 0
0 0 0
0 0 0
0 0 0
0 0 0
0 0 0
0 0 0
0 0 0
0 0 0
0 0 0
0 0 0
0 0 0
0 0 0
0 0 0
0 0 0
0 0 0
0 0 0
0 0 0
0 0 0
0 0 0
0 0 0
0 0 0
0 0 0
0 0 0
0 0 0
0 0 0
0 0 0
1 1 1
0 0 0
1 0 0
84 83 84
144 143 148
144 143 148
144 143 148
149 150 146
149 150 146
144 143 148
144 143 148
144 143 148
144 143 148
144 143 148
144 143 148
144 143 148
144 143 148
144 143 148
144 143 148
144 143 148
144 143 148
149 150 146
149 150 146
149 150 146
144 143 148
144 143 148
144 143 148
144 143 148
144 143 148
144 143 148
144 143 148
144 143 148
144 143 148
144 143 148
144 143 148
144 143 148
144 143 148
144 143 148
144 143 148
144 143 148
144 143 148
139 138 142
144 143 148
48 48 50
0 0 0
60 58 14
93 188 35
93 188 35
93 188 35
93 188 35
64 167 23
29 82 35
64 167 23
93 188 35
93 188 35
93 188 35
93 188 35
93 188 35
99 92 38
1 1 1
2 2 1
64 167 23
93 188 35
93 188 35
93 188 35
93 188 35
93 188 35
64 167 23
80 78 44
64 167 23
93 188 35
93 188 35
93 188 35
93 188 35
25 41 26
1 0 0
68 68 71
144 143 148
139 138 142
144 143 148
144 143 148
149 150 146
149 150 146
149 150 146
149 150 146
149 150 146
144 143 148
144 143 148
144 143 148
144 143 148
144 143 148
144 143 148
144 143 148
144 143 148
144 143 148
144 143 148
144 143 148
144 143 148
144 143 148
144 143 148
144 143 148
144 143 148
144 143 148
144 143 148
144 143 148
144 143 148
144 143 148
149 150 146
144 143 148
144 143 148
144 143 148
144 143 148
144 143 148
144 143 148
144 143 148
135 135 137
59 58 59
0 0 0
2 1 1
0 0 0
0 0 0
0 0 0
0 0 0
0 0 0
0 0 0
0 0 0
0 0 0
0 0 0
0 0 0
0 0 0
0 0 0
0 0 0
0 0 0
0 0 0
0 0 0
0 0 0
0 0 0
0 0 0
0 0 0
0 0 0
0 0 0
0 0 0
0 0 0
0 0 0
0 0 0
0 0 0
0 0 0
0 0 0
0 0 0
0 0 0
0 0 0
0 0 0
0 0 0
0 0 0
0 0 0
0 0 0
0 0 0
0 0 0
0 0 0
0 0 0
0 0 0
0 0 0
0 0 0
0 0 0
0 0 0
0 0 0
0 0 0
0 0 0
0 0 0
0 0 0
0 0 0
0 0 0
0 0 0
0 0 0
0 0 0
0 0 0
0 0 0
0 0 0
0 0 0
0 0 0
0 0 0
0 0 0
0 0 0
0 0 0
0 0 0
0 0 0
0 0 0
0 0 0
0 0 0
0 0 0
0 0 0
0 0 0
0 0 0
0 0 0
0 0 0
0 0 0
0 0 0
0 0 0
0 0 0
0 0 0
0 0 0
0 0 0
0 0 0
0 0 0
0 0 0
0 0 0
0 0 0
0 0 0
0 0 0
0 0 0
0 0 0
0 0 0
0 0 0
0 0 0
0 0 0
0 0 0
0 0 0
0 0 0
0 0 0
0 0 0
0 0 0
0 0 0
0 0 0
0 0 0
0 0 0
0 0 0
0 0 0
0 0 0
0 0 0
0 0 0
0 0 0
0 0 0
0 0 0
0 0 0
0 0 0
0 0 0
0 0 0
0 0 0
0 0 0
0 0 0
0 0 0
0 0 0
0 0 0
0 0 0
0 0 0
0 0 0
0 0 0
0 0 0
0 0 0
0 0 0
0 0 0
0 0 0
0 0 0
0 0 0
0 0 0
0 0 0
0 0 0
0 0 0
0 0 0
0 0 0
0 0 0
0 0 0
0 0 0
0 0 0
0 0 0
0 0 0
0 0 0
0 0 0
0 0 0
0 0 0
0 0 0
0 0 0
0 0 0
0 0 0
0 0 0
0 0 0
0 0 0
0 0 0
0 0 0
0 0 0
0 0 0
0 0 0
0 0 0
0 0 0
0 0 0
0 0 0
0 0 0
0 0 0
0 0 0
0 0 0
0 0 0
0 0 0
0 0 0
0 0 0
0 0 0
0 0 0
0 0 0
0 0 0
0 0 0
0 0 0
0 0 0
0 0 0
0 0 0
0 0 0
0 0 0
0 0 0
0 0 0
0 0 0
0 0 0
0 0 0
0 0 0
0 0 0
0 0 0
0 0 0
0 0 0
0 0 0
0 0 0
0 0 0
0 0 0
1 1 1
0 0 0
2 1 2
102 102 105
149 150 146
68 68 71
16 17 21
6 15 11
6 15 11
7 19 14
7 19 14
7 19 14
6 15 11
6 15 11
6 15 11
6 15 11
7 19 14
7 19 14
6 15 11
6 15 11
6 15 11
7 19 14
7 19 14
7 19 14
7 19 14
6 15 11
6 15 11
6 15 11
6 15 11
6 15 11
6 15 11
6 15 11
6 15 11
6 15 11
7 19 14
7 19 14
6 15 11
6 15 11
7 19 14
6 15 11
6 15 11
6 15 11
6 15 11
7 19 14
3 4 4
1 0 0
24 23 7
93 188 35
93 188 35
93 188 35
93 188 35
93 188 35
93 188 35
29 82 35
60 58 14
93 188 35
93 188 35
93 188 35
93 188 35
93 188 35
6 7 3
10 11 5
93 188 35
93 188 35
93 188 35
93 188 35
93 188 35
60 58 14
60 58 14
93 188 35
93 188 35
93 188 35
93 188 35
93 188 35
93 188 35
7 29 10
2 1 1
6 15 11
7 19 14
6 15 11
6 15 11
6 15 11
6 15 11
6 15 11
6 15 11
6 15 11
7 19 14
7 19 14
7 19 14
7 19 14
7 19 14
7 19 14
7 19 14
7 19 14
6 15 11
6 15 11
6 15 11
6 15 11
6 15 11
6 15 11
7 19 14
7 19 14
6 15 11
6 15 11
6 15 11
7 19 14
6 15 11
6 15 11
7 19 14
7 19 14
6 15 11
6 15 11
6 15 11
6 15 11
6 15 11
23 23 23
84 83 84
149 150 146
68 68 71
0 0 0
0 1 1
1 1 1
0 0 0
0 0 0
0 0 0
0 0 0
0 0 0
0 0 0
0 0 0
0 0 0
0 0 0
0 0 0
0 0 0
0 0 0
0 0 0
0 0 0
0 0 0
0 0 0
0 0 0
0 0 0
0 0 0
0 0 0
0 0 0
0 0 0
0 0 0
0 0 0
0 0 0
0 0 0
0 0 0
0 0 0
0 0 0
0 0 0
0 0 0
0 0 0
0 0 0
0 0 0
0 0 0
0 0 0
0 0 0
0 0 0
0 0 0
0 0 0
0 0 0
0 0 0
0 0 0
0 0 0
0 0 0
0 0 0
0 0 0
0 0 0
0 0 0
0 0 0
0 0 0
0 0 0
0 0 0
0 0 0
0 0 0
0 0 0
0 0 0
0 0 0
0 0 0
0 0 0
0 0 0
0 0 0
0 0 0
0 0 0
0 0 0
0 0 0
0 0 0
0 0 0
0 0 0
0 0 0
0 0 0
0 0 0
0 0 0
0 0 0
0 0 0
0 0 0
0 0 0
0 0 0
0 0 0
0 0 0
0 0 0
0 0 0
0 0 0
0 0 0
0 0 0
0 0 0
0 0 0
0 0 0
0 0 0
0 0 0
0 0 0
0 0 0
0 0 0
0 0 0
0 0 0
0 0 0
0 0 0
0 0 0
0 0 0
0 0 0
0 0 0
0 0 0
0 0 0
0 0 0
0 0 0
0 0 0
0 0 0
0 0 0
0 0 0
0 0 0
0 0 0
0 0 0
0 0 0
0 0 0
0 0 0
0 0 0
0 0 0
0 0 0
0 0 0
0 0 0
0 0 0
0 0 0
0 0 0
0 0 0
0 0 0
0 0 0
0 0 0
0 0 0
0 0 0
0 0 0
0 0 0
0 0 0
0 0 0
0 0 0
0 0 0
0 0 0
0 0 0
0 0 0
0 0 0
0 0 0
0 0 0
0 0 0
0 0 0
0 0 0
0 0 0
0 0 0
0 0 0
0 0 0
0 0 0
0 0 0
0 0 0
0 0 0
0 0 0
0 0 0
0 0 0
0 0 0
0 0 0
0 0 0
0 0 0
0 0 0
0 0 0
0 0 0
0 0 0
0 0 0
0 0 0
0 0 0
0 0 0
0 0 0
0 0 0
0 0 0
0 0 0
0 0 0
0 0 0
0 0 0
0 0 0
0 0 0
0 0 0
0 0 0
0 0 0
0 0 0
0 0 0
0 0 0
0 0 0
0 0 0
0 0 0
0 0 0
0 0 0
0 0 0
0 0 0
0 0 0
0 0 0
0 0 0
0 0 0
0 0 0
0 0 0
0 0 0
0 0 0
1 1 1
0 0 0
10 8 10
113 112 110
139 138 142
36 36 40
0 0 0
21 3 8
51 1 16
51 1 16
51 1 16
51 1 16
51 1 16
51 1 16
51 1 16
51 1 16
51 1 16
51 1 16
51 1 16
51 1 16
51 1 16
51 1 16
51 1 16
51 1 16
51 1 16
51 1 16
51 1 16
51 1 16
51 1 16
51 1 16
51 1 16
51 1 16
51 1 16
51 1 16
51 1 16
51 1 16
51 1 16
51 1 16
51 1 16
51 1 16
51 1 16
51 1 16
51 1 16
51 1 16
51 1 16
51 1 16
7 2 3
10 11 5
64 167 23
93 188 35
93 188 35
93 188 35
93 188 35
93 188 35
93 188 35
99 92 38
18 17 5
99 92 38
93 188 35
93 188 35
64 167 23
2 2 1
10 11 5
93 188 35
93 188 35
93 188 35
99 92 38
24 23 7
99 92 38
93 188 35
93 188 35
93 188 35
93 188 35
93 188 35
93 188 35
99 92 38
6 7 3
7 2 3
51 1 16
51 1 16
51 1 16
51 1 16
51 1 16
51 1 16
51 1 16
51 1 16
51 1 16
51 1 16
51 1 16
51 1 16
51 1 16
51 1 16
51 1 16
51 1 16
51 1 16
51 1 16
51 1 16
51 1 16
51 1 16
51 1 16
51 1 16
51 1 16
51 1 16
51 1 16
51 1 16
51 1 16
51 1 16
51 1 16
51 1 16
51 1 16
51 1 16
51 1 16
51 1 16
51 1 16
51 1 16
51 1 16
10 0 2
0 0 0
59 58 59
149 150 146
84 83 84
1 0 0
1 1 1
1 1 1
0 0 0
0 0 0
0 0 0
0 0 0
0 0 0
0 0 0
0 0 0
0 0 0
0 0 0
0 0 0
0 0 0
0 0 0
0 0 0
0 0 0
0 0 0
0 0 0
0 0 0
0 0 0
0 0 0
0 0 0
0 0 0
0 0 0
0 0 0
0 0 0
0 0 0
0 0 0
0 0 0
0 0 0
0 0 0
0 0 0
0 0 0
0 0 0
0 0 0
0 0 0
0 0 0
0 0 0
0 0 0
0 0 0
0 0 0
0 0 0
0 0 0
0 0 0
0 0 0
0 0 0
0 0 0
0 0 0
0 0 0
0 0 0
0 0 0
0 0 0
0 0 0
0 0 0
0 0 0
0 0 0
0 0 0
0 0 0
0 0 0
0 0 0
0 0 0
0 0 0
0 0 0
0 0 0
0 0 0
0 0 0
0 0 0
0 0 0
0 0 0
0 0 0
0 0 0
0 0 0
0 0 0
0 0 0
0 0 0
0 0 0
0 0 0
0 0 0
0 0 0
0 0 0
0 0 0
0 0 0
0 0 0
0 0 0
0 0 0
0 0 0
0 0 0
0 0 0
0 0 0
0 0 0
0 0 0
0 0 0
0 0 0
0 0 0
0 0 0
0 0 0
0 0 0
0 0 0
0 0 0
0 0 0
0 0 0
0 0 0
0 0 0
0 0 0
0 0 0
0 0 0
0 0 0
0 0 0
0 0 0
0 0 0
0 0 0
0 0 0
0 0 0
0 0 0
0 0 0
0 0 0
0 0 0
0 0 0
0 0 0
0 0 0
0 0 0
0 0 0
0 0 0
0 0 0
0 0 0
0 0 0
0 0 0
0 0 0
0 0 0
0 0 0
0 0 0
0 0 0
0 0 0
0 0 0
0 0 0
0 0 0
0 0 0
0 0 0
0 0 0
0 0 0
0 0 0
0 0 0
0 0 0
0 0 0
0 0 0
0 0 0
0 0 0
0 0 0
0 0 0
0 0 0
0 0 0
0 0 0
0 0 0
0 0 0
0 0 0
0 0 0
0 0 0
0 0 0
0 0 0
0 0 0
0 0 0
0 0 0
0 0 0
0 0 0
0 0 0
0 0 0
0 0 0
0 0 0
0 0 0
0 0 0
0 0 0
0 0 0
0 0 0
0 0 0
0 0 0
0 0 0
0 0 0
0 0 0
0 0 0
0 0 0
0 0 0
0 0 0
0 0 0
0 0 0
0 0 0
0 0 0
0 0 0
0 0 0
0 0 0
0 0 0
0 0 0
0 0 0
0 0 0
0 0 0
0 0 0
0 0 0
0 0 0
1 1 1
0 0 0
9 9 9
122 122 126
135 135 140
23 23 23
0 0 0
56 0 15
250 21 94
250 21 94
250 21 94
250 21 94
250 21 94
250 21 94
250 21 94
250 21 94
250 21 94
250 21 94
250 21 94
250 21 94
250 21 94
250 21 94
250 21 94
250 21 94
250 21 94
250 21 94
250 21 94
250 21 94
250 21 94
250 21 94
250 21 94
250 21 94
250 21 94
250 21 94
250 21 94
250 21 94
250 21 94
250 21 94
250 21 94
250 21 94
250 21 94
250 21 94
250 21 94
250 21 94
250 21 94
250 21 94
250 21 94
43 22 21
0 0 0
60 58 14
93 188 35
93 188 35
93 188 35
93 188 35
93 188 35
93 188 35
93 188 35
64 167 23
6 7 3
29 82 35
93 188 35
25 41 26
0 0 0
0 0 0
60 58 14
93 188 35
60 58 14
10 11 5
64 167 23
93 188 35
93 188 35
93 188 35
93 188 35
93 188 35
93 188 35
93 188 35
25 41 26
0 0 0
43 22 21
250 21 94
250 21 94
250 21 94
250 21 94
250 21 94
250 21 94
250 21 94
250 21 94
250 21 94
250 21 94
250 21 94
250 21 94
250 21 94
250 21 94
250 21 94
250 21 94
250 21 94
250 21 94
250 21 94
250 21 94
250 21 94
250 21 94
250 21 94
250 21 94
250 21 94
250 21 94
250 21 94
250 21 94
250 21 94
250 21 94
250 21 94
250 21 94
250 21 94
250 21 94
250 21 94
250 21 94
250 21 94
250 21 94
208 7 67
21 3 8
0 0 0
48 48 50
149 150 146
94 95 98
0 0 0
0 1 1
1 1 1
0 0 0
0 0 0
0 0 0
0 0 0
0 0 0
0 0 0
0 0 0
0 0 0
0 0 0
0 0 0
0 0 0
0 0 0
0 0 0
0 0 0
0 0 0
0 0 0
0 0 0
0 0 0
0 0 0
0 0 0
0 0 0
0 0 0
0 0 0
0 0 0
0 0 0
0 0 0
0 0 0
0 0 0
0 0 0
0 0 0
0 0 0
0 0 0
0 0 0
0 0 0
0 0 0
0 0 0
0 0 0
0 0 0
0 0 0
0 0 0
0 0 0
0 0 0
0 0 0
0 0 0
0 0 0
0 0 0
0 0 0
0 0 0
0 0 0
0 0 0
0 0 0
0 0 0
0 0 0
0 0 0
0 0 0
0 0 0
0 0 0
0 0 0
0 0 0
0 0 0
0 0 0
0 0 0
0 0 0
0 0 0
0 0 0
0 0 0
0 0 0
0 0 0
0 0 0
0 0 0
0 0 0
0 0 0
0 0 0
0 0 0
0 0 0
0 0 0
0 0 0
0 0 0
0 0 0
0 0 0
0 0 0
0 0 0
0 0 0
0 0 0
0 0 0
0 0 0
0 0 0
0 0 0
0 0 0
0 0 0
0 0 0
0 0 0
0 0 0
0 0 0
0 0 0
0 0 0
0 0 0
0 0 0
0 0 0
0 0 0
0 0 0
0 0 0
0 0 0
0 0 0
0 0 0
0 0 0
0 0 0
0 0 0
0 0 0
0 0 0
0 0 0
0 0 0
0 0 0
0 0 0
0 0 0
0 0 0
0 0 0
0 0 0
0 0 0
0 0 0
0 0 0
0 0 0
0 0 0
0 0 0
0 0 0
0 0 0
0 0 0
0 0 0
0 0 0
0 0 0
0 0 0
0 0 0
0 0 0
0 0 0
0 0 0
0 0 0
0 0 0
0 0 0
0 0 0
0 0 0
0 0 0
0 0 0
0 0 0
0 0 0
0 0 0
0 0 0
0 0 0
0 0 0
0 0 0
0 0 0
0 0 0
0 0 0
0 0 0
0 0 0
0 0 0
0 0 0
0 0 0
0 0 0
0 0 0
0 0 0
0 0 0
0 0 0
0 0 0
0 0 0
0 0 0
0 0 0
0 0 0
0 0 0
0 0 0
0 0 0
0 0 0
0 0 0
0 0 0
0 0 0
0 0 0
0 0 0
0 0 0
0 0 0
0 0 0
0 0 0
0 0 0
0 0 0
0 0 0
0 0 0
0 0 0
0 0 0
0 0 0
0 0 0
0 0 0
0 0 0
0 0 0
0 0 0
0 0 0
1 1 1
0 0 0
14 14 14
118 118 122
130 130 134
22 22 23
0 0 0
90 1 28
250 21 94
250 21 94
250 21 94
250 21 94
250 21 94
250 21 94
250 21 94
250 21 94
250 21 94
250 21 94
250 21 94
250 21 94
250 21 94
250 21 94
250 21 94
250 21 94
250 21 94
250 21 94
250 21 94
250 21 94
250 21 94
250 21 94
250 21 94
250 21 94
250 21 94
250 21 94
250 21 94
250 21 94
250 21 94
250 21 94
250 21 94
250 21 94
250 21 94
250 21 94
250 21 94
250 21 94
250 21 94
250 21 94
250 21 94
250 21 94
125 5 39
0 1 0
1 0 0
99 92 38
93 188 35
93 188 35
93 188 35
93 188 35
93 188 35
93 188 35
93 188 35
93 188 35
10 11 5
10 11 5
0 0 0
1 1 0
1 1 0
1 0 0
10 11 5
18 17 5
93 188 35
93 188 35
93 188 35
93 188 35
93 188 35
93 188 35
93 188 35
93 188 35
29 82 35
1 0 0
0 1 0
165 6 52
250 21 94
250 21 94
250 21 94
250 21 94
250 21 94
250 21 94
250 21 94
250 21 94
250 21 94
250 21 94
250 21 94
250 21 94
250 21 94
250 21 94
250 21 94
250 21 94
250 21 94
250 21 94
250 21 94
250 21 94
250 21 94
250 21 94
250 21 94
250 21 94
250 21 94
250 21 94
250 21 94
250 21 94
250 21 94
250 21 94
250 21 94
250 21 94
250 21 94
250 21 94
250 21 94
250 21 94
250 21 94
250 21 94
250 21 94
250 21 94
51 1 16
0 0 0
44 42 44
149 150 146
94 95 98
2 1 1
1 1 1
0 0 0
0 0 0
0 0 0
0 0 0
0 0 0
0 0 0
0 0 0
0 0 0
0 0 0
0 0 0
0 0 0
0 0 0
0 0 0
0 0 0
0 0 0
0 0 0
0 0 0
0 0 0
0 0 0
0 0 0
0 0 0
0 0 0
0 0 0
0 0 0
0 0 0
0 0 0
0 0 0
0 0 0
0 0 0
0 0 0
0 0 0
0 0 0
0 0 0
0 0 0
0 0 0
0 0 0
0 0 0
0 0 0
0 0 0
0 0 0
0 0 0
0 0 0
0 0 0
0 0 0
0 0 0
0 0 0
0 0 0
0 0 0
0 0 0
0 0 0
0 0 0
0 0 0
0 0 0
0 0 0
0 0 0
0 0 0
0 0 0
0 0 0
0 0 0
0 0 0
0 0 0
0 0 0
0 0 0
0 0 0
0 0 0
0 0 0
0 0 0
0 0 0
0 0 0
0 0 0
0 0 0
0 0 0
0 0 0
0 0 0
0 0 0
0 0 0
0 0 0
0 0 0
0 0 0
0 0 0
0 0 0
0 0 0
0 0 0
0 0 0
0 0 0
0 0 0
0 0 0
0 0 0
0 0 0
0 0 0
0 0 0
0 0 0
0 0 0
0 0 0
0 0 0
0 0 0
0 0 0
0 0 0
0 0 0
0 0 0
0 0 0
0 0 0
0 0 0
0 0 0
0 0 0
0 0 0
0 0 0
0 0 0
0 0 0
0 0 0
0 0 0
0 0 0
0 0 0
0 0 0
0 0 0
0 0 0
0 0 0
0 0 0
0 0 0
0 0 0
0 0 0
0 0 0
0 0 0
0 0 0
0 0 0
0 0 0
0 0 0
0 0 0
0 0 0
0 0 0
0 0 0
0 0 0
0 0 0
0 0 0
0 0 0
0 0 0
0 0 0
0 0 0
0 0 0
0 0 0
0 0 0
0 0 0
0 0 0
0 0 0
0 0 0
0 0 0
0 0 0
0 0 0
0 0 0
0 0 0
0 0 0
0 0 0
0 0 0
0 0 0
0 0 0
0 0 0
0 0 0
0 0 0
0 0 0
0 0 0
0 0 0
0 0 0
0 0 0
0 0 0
0 0 0
0 0 0
0 0 0
0 0 0
0 0 0
0 0 0
0 0 0
0 0 0
0 0 0
0 0 0
0 0 0
0 0 0
0 0 0
0 0 0
0 0 0
0 0 0
0 0 0
0 0 0
0 0 0
0 0 0
0 0 0
0 0 0
0 0 0
0 0 0
0 0 0
0 0 0
0 0 0
0 0 0
1 1 1
1 1 1
17 16 17
124 124 125
118 118 122
14 14 14
0 0 0
90 1 28
250 21 94
250 21 94
210 2 67
211 3 68
211 3 68
211 3 68
211 3 68
211 3 68
210 2 67
210 2 67
210 2 67
211 3 68
210 2 67
210 2 67
210 2 67
211 3 68
211 3 68
211 3 68
211 3 68
211 3 68
211 3 68
211 3 68
211 3 68
211 3 68
210 2 67
211 3 68
210 2 67
210 2 67
211 3 68
211 3 68
211 3 68
210 2 67
210 2 67
210 2 67
211 3 68
211 3 68
227 2 72
227 2 72
227 2 72
211 3 68
210 2 67
210 2 67
51 1 16
0 2 0
24 23 7
64 167 23
93 188 35
93 188 35
93 188 35
93 188 35
93 188 35
93 188 35
87 201 32
29 82 35
0 0 0
2 4 2
3 2 0
2 1 1
2 4 2
0 0 0
29 82 35
87 201 32
93 188 35
93 188 35
93 188 35
93 188 35
93 188 35
93 188 35
99 92 38
18 17 5
0 1 0
56 0 15
227 2 72
210 2 67
210 2 67
210 2 67
210 2 67
210 2 67
210 2 67
210 2 67
210 2 67
210 2 67
210 2 67
210 2 67
210 2 67
210 2 67
210 2 67
210 2 67
211 3 68
211 3 68
211 3 68
211 3 68
210 2 67
210 2 67
211 3 68
211 3 68
227 2 72
211 3 68
211 3 68
210 2 67
210 2 67
210 2 67
210 2 67
210 2 67
210 2 67
211 3 68
211 3 68
211 3 68
211 3 68
211 3 68
210 2 67
210 2 67
250 21 94
250 21 94
51 1 16
0 0 0
34 34 31
144 143 148
102 102 105
3 3 3
1 1 1
0 0 0
0 0 0
0 0 0
0 0 0
0 0 0
0 0 0
0 0 0
0 0 0
0 0 0
0 0 0
0 0 0
0 0 0
0 0 0
0 0 0
0 0 0
0 0 0
0 0 0
0 0 0
0 0 0
0 0 0
0 0 0
0 0 0
0 0 0
0 0 0
0 0 0
0 0 0
0 0 0
0 0 0
0 0 0
0 0 0
0 0 0
0 0 0
0 0 0
0 0 0
0 0 0
0 0 0
0 0 0
0 0 0
0 0 0
0 0 0
0 0 0
0 0 0
0 0 0
0 0 0
0 0 0
0 0 0
0 0 0
0 0 0
0 0 0
0 0 0
0 0 0
0 0 0
0 0 0
0 0 0
0 0 0
0 0 0
0 0 0
0 0 0
0 0 0
0 0 0
0 0 0
0 0 0
0 0 0
0 0 0
0 0 0
0 0 0
0 0 0
0 0 0
0 0 0
0 0 0
0 0 0
0 0 0
0 0 0
0 0 0
0 0 0
0 0 0
0 0 0
0 0 0
0 0 0
0 0 0
0 0 0
0 0 0
0 0 0
0 0 0
0 0 0
0 0 0
0 0 0
0 0 0
0 0 0
0 0 0
0 0 0
0 0 0
0 0 0
0 0 0
0 0 0
0 0 0
0 0 0
0 0 0
0 0 0
0 0 0
0 0 0
0 0 0
0 0 0
0 0 0
0 0 0
0 0 0
0 0 0
0 0 0
0 0 0
0 0 0
0 0 0
0 0 0
0 0 0
0 0 0
0 0 0
0 0 0
0 0 0
0 0 0
0 0 0
0 0 0
0 0 0
0 0 0
0 0 0
0 0 0
0 0 0
0 0 0
0 0 0
0 0 0
0 0 0
0 0 0
0 0 0
0 0 0
0 0 0
0 0 0
0 0 0
0 0 0
0 0 0
0 0 0
0 0 0
0 0 0
0 0 0
0 0 0
0 0 0
0 0 0
0 0 0
0 0 0
0 0 0
0 0 0
0 0 0
0 0 0
0 0 0
0 0 0
0 0 0
0 0 0
0 0 0
0 0 0
0 0 0
0 0 0
0 0 0
0 0 0
0 0 0
0 0 0
0 0 0
0 0 0
0 0 0
0 0 0
0 0 0
0 0 0
0 0 0
0 0 0
0 0 0
0 0 0
0 0 0
0 0 0
0 0 0
0 0 0
0 0 0
0 0 0
0 0 0
0 0 0
0 0 0
0 0 0
0 0 0
0 0 0
0 0 0
0 0 0
0 0 0
0 0 0
0 0 0
0 0 0
0 0 0
2 2 2
0 0 0
84 83 84
132 132 135
7 7 7
0 0 0
125 5 39
250 21 94
250 21 94
210 2 67
227 2 72
211 3 68
211 3 68
227 2 72
227 2 72
211 3 68
211 3 68
211 3 68
211 3 68
211 3 68
211 3 68
211 3 68
211 3 68
211 3 68
211 3 68
227 2 72
211 3 68
211 3 68
211 3 68
211 3 68
211 3 68
211 3 68
211 3 68
211 3 68
211 3 68
211 3 68
211 3 68
211 3 68
211 3 68
211 3 68
211 3 68
211 3 68
211 3 68
211 3 68
211 3 68
211 3 68
211 3 68
211 3 68
211 3 68
227 2 72
208 7 67
21 3 8
0 0 0
10 11 5
99 92 38
93 188 35
93 188 35
93 188 35
93 188 35
93 188 35
93 188 35
18 17 5
4 3 0
1 1 0
0 0 0
0 0 0
1 1 0
4 3 0
24 23 7
93 188 35
93 188 35
93 188 35
93 188 35
93 188 35
93 188 35
80 78 44
6 7 3
0 0 0
21 3 8
208 7 67
227 2 72
211 3 68
211 3 68
211 3 68
211 3 68
211 3 68
211 3 68
211 3 68
211 3 68
211 3 68
211 3 68
211 3 68
211 3 68
211 3 68
211 3 68
211 3 68
211 3 68
211 3 68
211 3 68
211 3 68
211 3 68
211 3 68
211 3 68
227 2 72
211 3 68
211 3 68
211 3 68
211 3 68
211 3 68
211 3 68
211 3 68
211 3 68
211 3 68
211 3 68
227 2 72
227 2 72
227 2 72
211 3 68
211 3 68
211 3 68
210 2 67
250 21 94
250 21 94
89 6 27
0 0 0
32 32 35
149 150 146
44 42 44
0 0 0
2 2 2
0 0 0
0 0 0
0 0 0
0 0 0
0 0 0
0 0 0
0 0 0
0 0 0
0 0 0
0 0 0
0 0 0
0 0 0
0 0 0
0 0 0
0 0 0
0 0 0
0 0 0
0 0 0
0 0 0
0 0 0
0 0 0
0 0 0
0 0 0
0 0 0
0 0 0
0 0 0
0 0 0
0 0 0
0 0 0
0 0 0
0 0 0
0 0 0
0 0 0
0 0 0
0 0 0
0 0 0
0 0 0
0 0 0
0 0 0
0 0 0
0 0 0
0 0 0
0 0 0
0 0 0
0 0 0
0 0 0
0 0 0
0 0 0
0 0 0
0 0 0
0 0 0
0 0 0
0 0 0
0 0 0
0 0 0
0 0 0
0 0 0
0 0 0
0 0 0
0 0 0
0 0 0
0 0 0
0 0 0
0 0 0
0 0 0
0 0 0
0 0 0
0 0 0
0 0 0
0 0 0
0 0 0
0 0 0
0 0 0
0 0 0
0 0 0
0 0 0
0 0 0
0 0 0
0 0 0
0 0 0
0 0 0
0 0 0
0 0 0
0 0 0
0 0 0
0 0 0
0 0 0
0 0 0
0 0 0
0 0 0
0 0 0
0 0 0
0 0 0
0 0 0
0 0 0
0 0 0
0 0 0
0 0 0
0 0 0
0 0 0
0 0 0
0 0 0
0 0 0
0 0 0
0 0 0
0 0 0
0 0 0
0 0 0
0 0 0
0 0 0
0 0 0
0 0 0
0 0 0
0 0 0
0 0 0
0 0 0
0 0 0
0 0 0
0 0 0
0 0 0
0 0 0
0 0 0
0 0 0
0 0 0
0 0 0
0 0 0
0 0 0
0 0 0
0 0 0
0 0 0
0 0 0
0 0 0
0 0 0
0 0 0
0 0 0
0 0 0
0 0 0
0 0 0
0 0 0
0 0 0
0 0 0
0 0 0
0 0 0
0 0 0
0 0 0
0 0 0
0 0 0
0 0 0
0 0 0
0 0 0
0 0 0
0 0 0
0 0 0
0 0 0
0 0 0
0 0 0
0 0 0
0 0 0
0 0 0
0 0 0
0 0 0
0 0 0
0 0 0
0 0 0
0 0 0
0 0 0
0 0 0
0 0 0
0 0 0
0 0 0
0 0 0
0 0 0
0 0 0
0 0 0
0 0 0
0 0 0
0 0 0
0 0 0
0 0 0
0 0 0
0 0 0
0 0 0
0 0 0
0 0 0
0 0 0
0 0 0
0 0 0
0 0 0
0 0 0
0 0 0
0 0 0
0 0 0
122 122 126
88 87 91
0 0 0
125 5 39
250 21 94
250 21 94
210 2 67
227 2 72
227 2 72
235 2 74
235 2 74
235 2 74
235 2 74
235 2 74
235 2 74
235 2 74
235 2 74
235 2 74
235 2 74
235 2 74
235 2 74
235 2 74
235 2 74
235 2 74
235 2 74
235 2 74
235 2 74
235 2 74
235 2 74
235 2 74
235 2 74
235 2 74
235 2 74
235 2 74
235 2 74
235 2 74
235 2 74
235 2 74
235 2 74
235 2 74
235 2 74
235 2 74
235 2 74
235 2 74
235 2 74
235 2 74
235 2 74
229 3 74
248 3 80
208 7 67
21 3 8
0 0 0
0 0 0
25 41 26
107 102 43
93 188 35
64 167 23
29 82 35
10 11 5
0 0 0
0 1 0
0 0 0
21 3 8
21 3 8
0 1 0
0 1 0
0 0 0
10 11 5
80 78 44
64 167 23
93 188 35
80 78 44
25 41 26
2 0 0
2 1 2
51 1 16
208 7 67
235 2 74
229 3 74
235 2 74
235 2 74
235 2 74
235 2 74
235 2 74
235 2 74
227 2 72
227 2 72
227 2 72
235 2 74
235 2 74
235 2 74
235 2 74
235 2 74
235 2 74
235 2 74
235 2 74
235 2 74
235 2 74
235 2 74
235 2 74
235 2 74
235 2 74
235 2 74
235 2 74
235 2 74
235 2 74
235 2 74
235 2 74
235 2 74
235 2 74
235 2 74
235 2 74
235 2 74
235 2 74
235 2 74
235 2 74
235 2 74
227 2 72
227 2 72
227 2 72
250 21 94
250 21 94
56 0 15
0 0 0
118 118 122
84 83 84
0 0 0
2 2 2
0 0 0
0 0 0
0 0 0
0 0 0
0 0 0
0 0 0
0 0 0
0 0 0
0 0 0
0 0 0
0 0 0
0 0 0
0 0 0
0 0 0
0 0 0
0 0 0
0 0 0
0 0 0
0 0 0
0 0 0
0 0 0
0 0 0
0 0 0
0 0 0
0 0 0
0 0 0
0 0 0
0 0 0
0 0 0
0 0 0
0 0 0
0 0 0
0 0 0
0 0 0
0 0 0
0 0 0
0 0 0
0 0 0
0 0 0
0 0 0
0 0 0
0 0 0
0 0 0
0 0 0
0 0 0
0 0 0
0 0 0
0 0 0
0 0 0
0 0 0
0 0 0
0 0 0
0 0 0
0 0 0
0 0 0
0 0 0
0 0 0
0 0 0
0 0 0
0 0 0
0 0 0
0 0 0
0 0 0
0 0 0
0 0 0
0 0 0
0 0 0
0 0 0
0 0 0
0 0 0
0 0 0
0 0 0
0 0 0
0 0 0
0 0 0
0 0 0
0 0 0
0 0 0
0 0 0
0 0 0
0 0 0
0 0 0
0 0 0
0 0 0
0 0 0
0 0 0
0 0 0
0 0 0
0 0 0
0 0 0
0 0 0
0 0 0
0 0 0
0 0 0
0 0 0
0 0 0
0 0 0
0 0 0
0 0 0
0 0 0
0 0 0
0 0 0
0 0 0
0 0 0
0 0 0
0 0 0
0 0 0
0 0 0
0 0 0
0 0 0
0 0 0
0 0 0
0 0 0
0 0 0
0 0 0
0 0 0
0 0 0
0 0 0
0 0 0
0 0 0
0 0 0
0 0 0
0 0 0
0 0 0
0 0 0
0 0 0
0 0 0
0 0 0
0 0 0
0 0 0
0 0 0
0 0 0
0 0 0
0 0 0
0 0 0
0 0 0
0 0 0
0 0 0
0 0 0
0 0 0
0 0 0
0 0 0
0 0 0
0 0 0
0 0 0
0 0 0
0 0 0
0 0 0
0 0 0
0 0 0
0 0 0
0 0 0
0 0 0
0 0 0
0 0 0
0 0 0
0 0 0
0 0 0
0 0 0
0 0 0
0 0 0
0 0 0
0 0 0
0 0 0
0 0 0
0 0 0
0 0 0
0 0 0
0 0 0
0 0 0
0 0 0
0 0 0
0 0 0
0 0 0
0 0 0
0 0 0
0 0 0
0 0 0
0 0 0
0 0 0
0 0 0
0 0 0
0 0 0
0 0 0
0 0 0
0 0 0
0 0 0
0 0 0
0 0 0
0 0 0
0 0 0
0 0 0
130 130 134
84 83 84
1 1 1
188 71 77
250 21 94
210 2 67
211 3 68
227 2 72
227 2 72
125 1 38
90 1 28
90 1 28
90 1 28
90 1 28
90 1 28
90 1 28
90 1 28
90 1 28
90 1 28
90 1 28
90 1 28
90 1 28
90 1 28
90 1 28
90 1 28
90 1 28
90 1 28
90 1 28
90 1 28
90 1 28
90 1 28
90 1 28
90 1 28
90 1 28
90 1 28
90 1 28
90 1 28
90 1 28
90 1 28
90 1 28
90 1 28
90 1 28
90 1 28
90 1 28
90 1 28
90 1 28
90 1 28
90 1 28
90 1 28
125 1 38
56 0 15
2 1 1
2 2 1
0 0 0
0 2 0
10 11 5
0 0 0
0 0 0
0 0 0
1 1 0
90 1 28
169 0 49
208 7 67
208 7 67
169 0 49
90 1 28
0 1 0
0 0 0
0 0 0
2 1 2
10 9 4
0 0 0
0 0 0
2 2 1
7 2 3
89 6 27
125 1 38
90 1 28
90 1 28
90 1 28
90 1 28
90 1 28
90 1 28
90 1 28
90 1 28
90 1 28
90 1 28
90 1 28
90 1 28
90 1 28
90 1 28
90 1 28
90 1 28
90 1 28
90 1 28
90 1 28
90 1 28
90 1 28
90 1 28
90 1 28
90 1 28
90 1 28
90 1 28
90 1 28
90 1 28
90 1 28
90 1 28
90 1 28
90 1 28
90 1 28
90 1 28
90 1 28
90 1 28
90 1 28
90 1 28
90 1 28
125 1 38
227 2 72
227 2 72
227 2 72
210 2 67
250 21 94
125 5 39
0 0 0
118 118 122
90 90 92
0 0 0
2 2 2
0 0 0
0 0 0
0 0 0
0 0 0
0 0 0
0 0 0
0 0 0
0 0 0
0 0 0
0 0 0
0 0 0
0 0 0
0 0 0
0 0 0
0 0 0
0 0 0
0 0 0
0 0 0
0 0 0
0 0 0
0 0 0
0 0 0
0 0 0
0 0 0
0 0 0
0 0 0
0 0 0
0 0 0
0 0 0
0 0 0
0 0 0
0 0 0
0 0 0
0 0 0
0 0 0
0 0 0
0 0 0
0 0 0
0 0 0
0 0 0
0 0 0
0 0 0
0 0 0
0 0 0
0 0 0
0 0 0
0 0 0
0 0 0
0 0 0
0 0 0
0 0 0
0 0 0
0 0 0
0 0 0
0 0 0
0 0 0
0 0 0
0 0 0
0 0 0
0 0 0
0 0 0
0 0 0
0 0 0
0 0 0
0 0 0
0 0 0
0 0 0
0 0 0
0 0 0
0 0 0
0 0 0
0 0 0
0 0 0
0 0 0
0 0 0
0 0 0
0 0 0
0 0 0
0 0 0
0 0 0
0 0 0
0 0 0
0 0 0
0 0 0
0 0 0
0 0 0
0 0 0
0 0 0
0 0 0
0 0 0
0 0 0
0 0 0
0 0 0
0 0 0
0 0 0
0 0 0
0 0 0
0 0 0
0 0 0
0 0 0
0 0 0
0 0 0
0 0 0
0 0 0
0 0 0
0 0 0
0 0 0
0 0 0
0 0 0
0 0 0
0 0 0
0 0 0
0 0 0
0 0 0
0 0 0
0 0 0
0 0 0
0 0 0
0 0 0
0 0 0
0 0 0
0 0 0
0 0 0
0 0 0
0 0 0
0 0 0
0 0 0
0 0 0
0 0 0
0 0 0
0 0 0
0 0 0
0 0 0
0 0 0
0 0 0
0 0 0
0 0 0
0 0 0
0 0 0
0 0 0
0 0 0
0 0 0
0 0 0
0 0 0
0 0 0
0 0 0
0 0 0
0 0 0
0 0 0
0 0 0
0 0 0
0 0 0
0 0 0
0 0 0
0 0 0
0 0 0
0 0 0
0 0 0
0 0 0
0 0 0
0 0 0
0 0 0
0 0 0
0 0 0
0 0 0
0 0 0
0 0 0
0 0 0
0 0 0
0 0 0
0 0 0
0 0 0
0 0 0
0 0 0
0 0 0
0 0 0
0 0 0
0 0 0
0 0 0
0 0 0
0 0 0
0 0 0
0 0 0
0 0 0
0 0 0
0 0 0
0 0 0
0 0 0
0 0 0
0 0 0
0 0 0
0 0 0
124 124 125
79 79 83
0 0 0
165 6 52
235 2 74
211 3 68
227 2 72
210 2 67
56 0 15
0 2 0
0 3 1
0 3 1
0 3 1
0 3 1
0 3 1
0 2 0
0 3 1
0 2 0
0 3 1
0 3 1
0 3 1
0 3 1
0 3 1
0 3 1
0 3 1
0 2 0
0 3 1
0 3 1
0 3 1
0 3 1
0 3 1
0 3 1
0 3 1
0 3 1
0 3 1
0 3 1
0 3 1
0 2 0
0 3 1
0 3 1
0 3 1
0 3 1
0 3 1
0 3 1
0 3 1
0 3 1
0 3 1
0 3 1
0 3 1
0 2 0
0 0 0
0 0 0
7 2 3
90 1 28
162 2 52
169 0 49
169 0 49
51 1 16
4 3 0
162 2 52
247 2 78
235 2 74
227 2 72
229 3 74
235 2 74
248 3 80
162 2 52
2 2 1
89 6 27
208 7 67
169 0 49
162 2 52
89 6 27
2 0 0
0 0 0
0 2 0
0 3 1
2 4 2
0 3 1
0 3 1
0 2 0
0 3 1
0 3 1
0 3 1
0 3 1
0 2 0
0 3 1
0 3 1
0 3 1
0 3 1
0 3 1
0 3 1
0 3 1
0 3 1
0 3 1
0 3 1
0 3 1
0 3 1
0 3 1
0 3 1
0 3 1
0 2 0
0 2 0
0 3 1
0 3 1
0 3 1
0 2 0
0 3 1
0 3 1
0 3 1
0 3 1
0 2 0
0 2 0
0 2 0
0 2 0
0 2 0
0 2 0
90 1 28
211 3 68
227 2 72
211 3 68
229 3 74
90 1 28
0 0 0
118 118 122
88 87 91
0 0 0
2 2 2
0 0 0
0 0 0
0 0 0
0 0 0
0 0 0
0 0 0
0 0 0
0 0 0
0 0 0
0 0 0
0 0 0
0 0 0
0 0 0
0 0 0
0 0 0
0 0 0
0 0 0
0 0 0
0 0 0
0 0 0
0 0 0
0 0 0
0 0 0
0 0 0
0 0 0
0 0 0
0 0 0
0 0 0
0 0 0
0 0 0
0 0 0
0 0 0
0 0 0
0 0 0
0 0 0
0 0 0
0 0 0
0 0 0
0 0 0
0 0 0
0 0 0
0 0 0
0 0 0
0 0 0
0 0 0
0 0 0
0 0 0
0 0 0
0 0 0
0 0 0
0 0 0
0 0 0
0 0 0
0 0 0
0 0 0
0 0 0
0 0 0
0 0 0
0 0 0
0 0 0
0 0 0
0 0 0
0 0 0
0 0 0
0 0 0
0 0 0
0 0 0
0 0 0
0 0 0
0 0 0
0 0 0
0 0 0
0 0 0
0 0 0
0 0 0
0 0 0
0 0 0
0 0 0
0 0 0
0 0 0
0 0 0
0 0 0
0 0 0
0 0 0
0 0 0
0 0 0
0 0 0
0 0 0
0 0 0
0 0 0
0 0 0
0 0 0
0 0 0
0 0 0
0 0 0
0 0 0
0 0 0
0 0 0
0 0 0
0 0 0
0 0 0
0 0 0
0 0 0
0 0 0
0 0 0
0 0 0
0 0 0
0 0 0
0 0 0
0 0 0
0 0 0
0 0 0
0 0 0
0 0 0
0 0 0
0 0 0
0 0 0
0 0 0
0 0 0
0 0 0
0 0 0
0 0 0
0 0 0
0 0 0
0 0 0
0 0 0
0 0 0
0 0 0
0 0 0
0 0 0
0 0 0
0 0 0
0 0 0
0 0 0
0 0 0
0 0 0
0 0 0
0 0 0
0 0 0
0 0 0
0 0 0
0 0 0
0 0 0
0 0 0
0 0 0
0 0 0
0 0 0
0 0 0
0 0 0
0 0 0
0 0 0
0 0 0
0 0 0
0 0 0
0 0 0
0 0 0
0 0 0
0 0 0
0 0 0
0 0 0
0 0 0
0 0 0
0 0 0
0 0 0
0 0 0
0 0 0
0 0 0
0 0 0
0 0 0
0 0 0
0 0 0
0 0 0
0 0 0
0 0 0
0 0 0
0 0 0
0 0 0
0 0 0
0 0 0
0 0 0
0 0 0
0 0 0
0 0 0
0 0 0
0 0 0
0 0 0
0 0 0
0 0 0
0 0 0
0 0 0
0 0 0
0 0 0
122 122 126
79 79 83
0 0 0
165 6 52
246 4 78
227 2 72
210 2 67
51 1 16
0 1 0
10 10 12
10 10 12
9 6 9
9 6 9
9 6 9
9 6 9
9 6 9
9 6 9
9 6 9
9 6 9
9 6 9
9 6 9
9 6 9
9 6 9
9 6 9
9 6 9
9 6 9
9 6 9
9 6 9
9 6 9
9 6 9
9 6 9
9 6 9
9 6 9
9 6 9
9 6 9
9 6 9
9 6 9
9 6 9
9 6 9
9 6 9
9 6 9
9 6 9
9 6 9
9 6 9
9 6 9
9 6 9
9 6 9
9 6 9
9 6 9
7 2 3
1 0 0
21 3 8
208 7 67
247 2 78
235 2 74
248 3 80
162 2 52
10 0 2
89 6 27
235 2 74
211 3 68
227 2 72
227 2 72
227 2 72
227 2 72
227 2 72
235 2 74
56 0 15
21 3 8
208 7 67
248 3 80
235 2 74
248 3 80
165 6 52
21 3 8
2 1 1
7 2 3
9 6 9
9 6 9
9 6 9
9 6 9
9 6 9
9 6 9
9 6 9
9 6 9
9 6 9
9 6 9
9 6 9
9 6 9
9 6 9
9 6 9
9 6 9
9 6 9
9 6 9
9 6 9
9 6 9
9 6 9
9 6 9
9 6 9
9 6 9
9 6 9
9 6 9
9 6 9
9 6 9
9 6 9
9 6 9
9 6 9
9 6 9
9 6 9
9 6 9
9 6 9
9 6 9
9 6 9
9 6 9
9 6 9
10 10 12
10 8 10
0 1 0
56 0 15
210 2 67
211 3 68
235 2 74
90 1 28
0 0 0
122 122 126
88 87 91
0 0 0
2 2 2
0 0 0
0 0 0
0 0 0
0 0 0
0 0 0
0 0 0
0 0 0
0 0 0
0 0 0
0 0 0
0 0 0
0 0 0
0 0 0
0 0 0
0 0 0
0 0 0
0 0 0
0 0 0
0 0 0
0 0 0
0 0 0
0 0 0
0 0 0
0 0 0
0 0 0
0 0 0
0 0 0
0 0 0
0 0 0
0 0 0
0 0 0
0 0 0
0 0 0
0 0 0
0 0 0
0 0 0
0 0 0
0 0 0
0 0 0
0 0 0
0 0 0
0 0 0
0 0 0
0 0 0
0 0 0
0 0 0
0 0 0
0 0 0
0 0 0
0 0 0
0 0 0
0 0 0
0 0 0
0 0 0
0 0 0
0 0 0
0 0 0
0 0 0
0 0 0
0 0 0
0 0 0
0 0 0
0 0 0
0 0 0
0 0 0
0 0 0
0 0 0
0 0 0
0 0 0
0 0 0
0 0 0
0 0 0
0 0 0
0 0 0
0 0 0
0 0 0
0 0 0
0 0 0
0 0 0
0 0 0
0 0 0
0 0 0
0 0 0
0 0 0
0 0 0
0 0 0
0 0 0
0 0 0
0 0 0
0 0 0
0 0 0
0 0 0
0 0 0
0 0 0
0 0 0
0 0 0
0 0 0
0 0 0
0 0 0
0 0 0
0 0 0
0 0 0
0 0 0
0 0 0
0 0 0
0 0 0
0 0 0
0 0 0
0 0 0
0 0 0
0 0 0
0 0 0
0 0 0
0 0 0
0 0 0
0 0 0
0 0 0
0 0 0
0 0 0
0 0 0
0 0 0
0 0 0
0 0 0
0 0 0
0 0 0
0 0 0
0 0 0
0 0 0
0 0 0
0 0 0
0 0 0
0 0 0
0 0 0
0 0 0
0 0 0
0 0 0
0 0 0
0 0 0
0 0 0
0 0 0
0 0 0
0 0 0
0 0 0
0 0 0
0 0 0
0 0 0
0 0 0
0 0 0
0 0 0
0 0 0
0 0 0
0 0 0
0 0 0
0 0 0
0 0 0
0 0 0
0 0 0
0 0 0
0 0 0
0 0 0
0 0 0
0 0 0
0 0 0
0 0 0
0 0 0
0 0 0
0 0 0
0 0 0
0 0 0
0 0 0
0 0 0
0 0 0
0 0 0
0 0 0
0 0 0
0 0 0
0 0 0
0 0 0
0 0 0
0 0 0
0 0 0
0 0 0
0 0 0
0 0 0
0 0 0
0 0 0
0 0 0
0 0 0
0 0 0
0 0 0
0 0 0
0 0 0
118 118 122
82 82 81
0 0 0
162 2 52
235 2 74
235 2 74
90 1 28
0 2 0
10 8 10
10 10 12
7 8 10
0 0 0
0 0 0
0 0 0
0 0 0
0 0 0
0 0 0
0 0 0
0 0 0
0 0 0
0 0 0
0 0 0
0 0 0
0 0 0
0 0 0
0 0 0
0 0 0
0 0 0
0 0 0
0 0 0
0 0 0
0 0 0
0 0 0
0 0 0
0 0 0
0 0 0
0 0 0
0 0 0
0 0 0
0 0 0
0 0 0
0 0 0
0 0 0
0 0 0
0 0 0
0 0 0
0 0 0
0 0 0
0 0 0
1 0 0
10 0 2
169 0 49
247 2 78
227 2 72
235 2 74
162 2 52
10 0 2
1 0 0
56 0 15
235 2 74
235 2 74
227 2 72
227 2 72
227 2 72
227 2 72
235 2 74
227 2 72
56 0 15
0 0 0
21 3 8
208 7 67
235 2 74
211 3 68
246 4 78
162 2 52
0 0 0
2 0 0
0 0 0
0 0 0
0 0 0
0 0 0
0 0 0
0 0 0
0 0 0
0 0 0
0 0 0
0 0 0
0 0 0
0 0 0
0 0 0
0 0 0
0 0 0
0 0 0
0 0 0
0 0 0
0 0 0
0 0 0
0 0 0
0 0 0
0 0 0
0 0 0
0 0 0
0 0 0
0 0 0
0 0 0
0 0 0
0 0 0
0 0 0
0 0 0
0 0 0
0 0 0
0 0 0
0 0 0
0 0 0
2 1 1
6 6 7
7 8 10
9 6 9
0 1 0
125 1 38
229 3 74
227 2 72
90 1 28
0 0 0
122 122 126
88 87 91
0 0 0
2 2 2
0 0 0
0 0 0
0 0 0
0 0 0
0 0 0
0 0 0
0 0 0
0 0 0
0 0 0
0 0 0
0 0 0
0 0 0
0 0 0
0 0 0
0 0 0
0 0 0
0 0 0
0 0 0
0 0 0
0 0 0
0 0 0
0 0 0
0 0 0
0 0 0
0 0 0
0 0 0
0 0 0
0 0 0
0 0 0
0 0 0
0 0 0
0 0 0
0 0 0
0 0 0
0 0 0
0 0 0
0 0 0
0 0 0
0 0 0
0 0 0
0 0 0
0 0 0
0 0 0
0 0 0
0 0 0
0 0 0
0 0 0
0 0 0
0 0 0
0 0 0
0 0 0
0 0 0
0 0 0
0 0 0
0 0 0
0 0 0
0 0 0
0 0 0
0 0 0
0 0 0
0 0 0
0 0 0
0 0 0
0 0 0
0 0 0
0 0 0
0 0 0
0 0 0
0 0 0
0 0 0
0 0 0
0 0 0
0 0 0
0 0 0
0 0 0
0 0 0
0 0 0
0 0 0
0 0 0
0 0 0
0 0 0
0 0 0
0 0 0
0 0 0
0 0 0
0 0 0
0 0 0
0 0 0
0 0 0
0 0 0
0 0 0
0 0 0
0 0 0
0 0 0
0 0 0
0 0 0
0 0 0
0 0 0
0 0 0
0 0 0
0 0 0
0 0 0
0 0 0
0 0 0
0 0 0
0 0 0
0 0 0
0 0 0
0 0 0
0 0 0
0 0 0
0 0 0
0 0 0
0 0 0
0 0 0
0 0 0
0 0 0
0 0 0
0 0 0
0 0 0
0 0 0
0 0 0
0 0 0
0 0 0
0 0 0
0 0 0
0 0 0
0 0 0
0 0 0
0 0 0
0 0 0
0 0 0
0 0 0
0 0 0
0 0 0
0 0 0
0 0 0
0 0 0
0 0 0
0 0 0
0 0 0
0 0 0
0 0 0
0 0 0
0 0 0
0 0 0
0 0 0
0 0 0
0 0 0
0 0 0
0 0 0
0 0 0
0 0 0
0 0 0
0 0 0
0 0 0
0 0 0
0 0 0
0 0 0
0 0 0
0 0 0
0 0 0
0 0 0
0 0 0
0 0 0
0 0 0
0 0 0
0 0 0
0 0 0
0 0 0
0 0 0
0 0 0
0 0 0
0 0 0
0 0 0
0 0 0
0 0 0
0 0 0
0 0 0
0 0 0
0 0 0
0 0 0
0 0 0
0 0 0
0 0 0
0 0 0
0 0 0
0 0 0
0 0 0
0 0 0
0 0 0
0 0 0
118 118 122
84 83 84
0 0 0
162 2 52
235 2 74
235 2 74
90 1 28
2 4 2
10 10 12
5 4 7
0 0 0
6 6 7
85 86 83
102 102 105
102 102 105
102 102 105
102 102 105
102 102 105
102 102 105
102 102 105
102 102 105
102 102 105
102 102 105
102 102 105
102 102 105
102 102 105
102 102 105
102 102 105
102 102 105
102 102 105
102 102 105
102 102 105
102 102 105
102 102 105
102 102 105
113 112 110
102 102 105
102 102 105
102 102 105
102 102 105
102 102 105
102 102 105
102 102 105
102 102 105
102 102 105
102 102 105
94 95 98
94 95 98
27 27 24
0 0 0
90 1 28
235 2 74
227 2 72
235 2 74
125 1 38
7 2 3
0 0 0
0 0 0
0 1 0
56 0 15
169 0 49
227 2 72
227 2 72
227 2 72
211 3 68
169 0 49
56 0 15
0 1 0
0 0 0
0 0 0
21 3 8
169 0 49
235 2 74
227 2 72
229 3 74
56 0 15
0 0 0
37 37 37
94 95 98
94 95 98
102 102 105
102 102 105
102 102 105
102 102 105
102 102 105
102 102 105
102 102 105
102 102 105
102 102 105
102 102 105
102 102 105
102 102 105
102 102 105
102 102 105
102 102 105
102 102 105
102 102 105
102 102 105
102 102 105
102 102 105
102 102 105
102 102 105
102 102 105
102 102 105
102 102 105
102 102 105
102 102 105
102 102 105
102 102 105
102 102 105
113 112 110
113 112 110
113 112 110
74 74 77
0 0 0
0 0 0
4 4 6
10 10 12
2 3 2
125 1 38
227 2 72
227 2 72
90 1 28
0 0 0
122 122 126
88 87 91
0 0 0
2 2 2
0 0 0
0 0 0
0 0 0
0 0 0
0 0 0
0 0 0
0 0 0
0 0 0
0 0 0
0 0 0
0 0 0
0 0 0
0 0 0
0 0 0
0 0 0
0 0 0
0 0 0
0 0 0
0 0 0
0 0 0
0 0 0
0 0 0
0 0 0
0 0 0
0 0 0
0 0 0
0 0 0
0 0 0
0 0 0
0 0 0
0 0 0
0 0 0
0 0 0
0 0 0
0 0 0
0 0 0
0 0 0
0 0 0
0 0 0
0 0 0
0 0 0
0 0 0
0 0 0
0 0 0
0 0 0
0 0 0
0 0 0
0 0 0
0 0 0
0 0 0
0 0 0
0 0 0
0 0 0
0 0 0
0 0 0
0 0 0
0 0 0
0 0 0
0 0 0
0 0 0
0 0 0
0 0 0
0 0 0
0 0 0
0 0 0
0 0 0
0 0 0
0 0 0
0 0 0
0 0 0
0 0 0
0 0 0
0 0 0
0 0 0
0 0 0
0 0 0
0 0 0
0 0 0
0 0 0
0 0 0
0 0 0
0 0 0
0 0 0
0 0 0
0 0 0
0 0 0
0 0 0
0 0 0
0 0 0
0 0 0
0 0 0
0 0 0
0 0 0
0 0 0
0 0 0
0 0 0
0 0 0
0 0 0
0 0 0
0 0 0
0 0 0
0 0 0
0 0 0
0 0 0
0 0 0
0 0 0
0 0 0
0 0 0
0 0 0
0 0 0
0 0 0
0 0 0
0 0 0
0 0 0
0 0 0
0 0 0
0 0 0
0 0 0
0 0 0
0 0 0
0 0 0
0 0 0
0 0 0
0 0 0
0 0 0
0 0 0
0 0 0
0 0 0
0 0 0
0 0 0
0 0 0
0 0 0
0 0 0
0 0 0
0 0 0
0 0 0
0 0 0
0 0 0
0 0 0
0 0 0
0 0 0
0 0 0
0 0 0
0 0 0
0 0 0
0 0 0
0 0 0
0 0 0
0 0 0
0 0 0
0 0 0
0 0 0
0 0 0
0 0 0
0 0 0
0 0 0
0 0 0
0 0 0
0 0 0
0 0 0
0 0 0
0 0 0
0 0 0
0 0 0
0 0 0
0 0 0
0 0 0
0 0 0
0 0 0
0 0 0
0 0 0
0 0 0
0 0 0
0 0 0
0 0 0
0 0 0
0 0 0
0 0 0
0 0 0
0 0 0
0 0 0
0 0 0
0 0 0
0 0 0
0 0 0
0 0 0
0 0 0
0 0 0
0 0 0
0 0 0
0 0 0
0 0 0
118 118 122
88 87 91
0 0 0
162 2 52
235 2 74
235 2 74
89 6 27
2 4 2
10 10 12
1 1 1
12 12 13
113 112 110
139 138 142
90 90 92
88 87 91
88 87 91
88 87 91
88 87 91
90 90 92
90 90 92
90 90 92
90 90 92
90 90 92
88 87 91
90 90 92
91 91 95
90 90 92
88 87 91
88 87 91
90 90 92
90 90 92
90 90 92
90 90 92
88 87 91
90 90 92
91 91 95
90 90 92
90 90 92
88 87 91
88 87 91
90 90 92
88 87 91
84 83 84
84 83 84
90 90 92
84 83 84
130 130 134
144 143 148
14 14 14
0 0 0
165 6 52
248 3 80
211 3 68
90 1 28
0 0 0
0 0 0
21 3 8
56 0 15
51 1 16
0 0 0
0 0 0
21 3 8
56 0 15
56 0 15
21 3 8
0 0 0
0 0 0
56 0 15
56 0 15
21 3 8
0 0 0
2 0 0
125 5 39
229 3 74
248 3 80
125 5 39
0 0 0
28 28 27
149 150 146
122 122 126
84 83 84
90 90 92
88 87 91
88 87 91
88 87 91
90 90 92
88 87 91
88 87 91
88 87 91
88 87 91
88 87 91
88 87 91
88 87 91
88 87 91
88 87 91
88 87 91
88 87 91
88 87 91
88 87 91
88 87 91
90 90 92
90 90 92
88 87 91
88 87 91
88 87 91
88 87 91
88 87 91
90 90 92
90 90 92
90 90 92
91 91 95
91 91 95
94 95 98
144 143 148
91 91 95
6 6 7
1 1 1
10 8 10
0 3 1
125 1 38
227 2 72
227 2 72
90 1 28
0 0 0
124 124 125
84 83 84
0 0 0
2 2 2
0 0 0
0 0 0
0 0 0
0 0 0
0 0 0
0 0 0
0 0 0
0 0 0
0 0 0
0 0 0
0 0 0
0 0 0
0 0 0
0 0 0
0 0 0
0 0 0
0 0 0
0 0 0
0 0 0
0 0 0
0 0 0
0 0 0
0 0 0
0 0 0
0 0 0
0 0 0
0 0 0
0 0 0
0 0 0
0 0 0
0 0 0
0 0 0
0 0 0
0 0 0
0 0 0
0 0 0
0 0 0
0 0 0
0 0 0
0 0 0
0 0 0
0 0 0
0 0 0
0 0 0
0 0 0
0 0 0
0 0 0
0 0 0
0 0 0
0 0 0
0 0 0
0 0 0
0 0 0
0 0 0
0 0 0
0 0 0
0 0 0
0 0 0
0 0 0
0 0 0
0 0 0
0 0 0
0 0 0
0 0 0
0 0 0
0 0 0
0 0 0
0 0 0
0 0 0
0 0 0
0 0 0
0 0 0
0 0 0
0 0 0
0 0 0
0 0 0
0 0 0
0 0 0
0 0 0
0 0 0
0 0 0
0 0 0
0 0 0
0 0 0
0 0 0
0 0 0
0 0 0
0 0 0
0 0 0
0 0 0
0 0 0
0 0 0
0 0 0
0 0 0
0 0 0
0 0 0
0 0 0
0 0 0
0 0 0
0 0 0
0 0 0
0 0 0
0 0 0
0 0 0
0 0 0
0 0 0
0 0 0
0 0 0
0 0 0
0 0 0
0 0 0
0 0 0
0 0 0
0 0 0
0 0 0
0 0 0
0 0 0
0 0 0
0 0 0
0 0 0
0 0 0
0 0 0
0 0 0
0 0 0
0 0 0
0 0 0
0 0 0
0 0 0
0 0 0
0 0 0
0 0 0
0 0 0
0 0 0
0 0 0
0 0 0
0 0 0
0 0 0
0 0 0
0 0 0
0 0 0
0 0 0
0 0 0
0 0 0
0 0 0
0 0 0
0 0 0
0 0 0
0 0 0
0 0 0
0 0 0
0 0 0
0 0 0
0 0 0
0 0 0
0 0 0
0 0 0
0 0 0
0 0 0
0 0 0
0 0 0
0 0 0
0 0 0
0 0 0
0 0 0
0 0 0
0 0 0
0 0 0
0 0 0
0 0 0
0 0 0
0 0 0
0 0 0
0 0 0
0 0 0
0 0 0
0 0 0
0 0 0
0 0 0
0 0 0
0 0 0
0 0 0
0 0 0
0 0 0
0 0 0
0 0 0
0 0 0
0 0 0
0 0 0
0 0 0
0 0 0
0 0 0
0 0 0
118 118 122
88 87 91
0 0 0
162 2 52
235 2 74
235 2 74
89 6 27
0 3 1
10 10 12
0 0 0
84 83 84
144 143 148
32 32 35
0 0 0
0 0 0
0 0 0
0 0 0
0 0 0
0 0 0
0 0 0
0 0 0
0 0 0
0 0 0
0 0 0
0 0 0
0 0 0
0 0 0
0 0 0
0 0 0
0 0 0
0 0 0
0 0 0
0 0 0
0 0 0
0 0 0
0 0 0
0 0 0
0 0 0
0 0 0
0 0 0
0 0 0
0 0 0
0 0 0
0 0 0
0 0 0
22 22 23
130 130 134
102 102 105
2 1 2
2 1 1
125 1 38
162 2 52
51 1 16
0 0 0
21 3 8
162 2 52
211 3 68
229 3 74
229 3 74
169 0 49
51 1 16
0 0 0
0 1 0
0 0 0
0 0 0
56 0 15
208 7 67
229 3 74
229 3 74
227 2 72
162 2 52
21 3 8
0 0 0
51 1 16
162 2 52
90 1 28
2 1 1
9 6 9
118 118 122
132 132 135
17 16 17
0 0 0
0 0 0
0 0 0
0 0 0
0 0 0
0 0 0
0 0 0
0 0 0
0 0 0
0 0 0
0 0 0
0 0 0
0 0 0
0 0 0
0 0 0
0 0 0
0 0 0
0 0 0
0 0 0
0 0 0
0 0 0
0 0 0
0 0 0
0 0 0
0 0 0
0 0 0
0 0 0
0 0 0
0 0 0
0 0 0
0 0 0
0 0 0
39 39 41
144 143 148
59 64 62
0 0 0
12 12 13
0 3 1
125 1 38
227 2 72
227 2 72
90 1 28
0 1 0
130 130 134
79 79 83
0 0 0
2 2 2
0 0 0
0 0 0
0 0 0
0 0 0
0 0 0
0 0 0
0 0 0
0 0 0
0 0 0
0 0 0
0 0 0
0 0 0
0 0 0
0 0 0
0 0 0
0 0 0
0 0 0
0 0 0
0 0 0
0 0 0
0 0 0
0 0 0
0 0 0
0 0 0
0 0 0
0 0 0
0 0 0
0 0 0
0 0 0
0 0 0
0 0 0
0 0 0
0 0 0
0 0 0
0 0 0
0 0 0
0 0 0
0 0 0
0 0 0
0 0 0
0 0 0
0 0 0
0 0 0
0 0 0
0 0 0
0 0 0
0 0 0
0 0 0
0 0 0
0 0 0
0 0 0
0 0 0
0 0 0
0 0 0
0 0 0
0 0 0
0 0 0
0 0 0
0 0 0
0 0 0
0 0 0
0 0 0
0 0 0
0 0 0
0 0 0
0 0 0
0 0 0
0 0 0
0 0 0
0 0 0
0 0 0
0 0 0
0 0 0
0 0 0
0 0 0
0 0 0
0 0 0
0 0 0
0 0 0
0 0 0
0 0 0
0 0 0
0 0 0
0 0 0
0 0 0
0 0 0
0 0 0
0 0 0
0 0 0
0 0 0
0 0 0
0 0 0
0 0 0
0 0 0
0 0 0
0 0 0
0 0 0
0 0 0
0 0 0
0 0 0
0 0 0
0 0 0
0 0 0
0 0 0
0 0 0
0 0 0
0 0 0
0 0 0
0 0 0
0 0 0
0 0 0
0 0 0
0 0 0
0 0 0
0 0 0
0 0 0
0 0 0
0 0 0
0 0 0
0 0 0
0 0 0
0 0 0
0 0 0
0 0 0
0 0 0
0 0 0
0 0 0
0 0 0
0 0 0
0 0 0
0 0 0
0 0 0
0 0 0
0 0 0
0 0 0
0 0 0
0 0 0
0 0 0
0 0 0
0 0 0
0 0 0
0 0 0
0 0 0
0 0 0
0 0 0
0 0 0
0 0 0
0 0 0
0 0 0
0 0 0
0 0 0
0 0 0
0 0 0
0 0 0
0 0 0
0 0 0
0 0 0
0 0 0
0 0 0
0 0 0
0 0 0
0 0 0
0 0 0
0 0 0
0 0 0
0 0 0
0 0 0
0 0 0
0 0 0
0 0 0
0 0 0
0 0 0
0 0 0
0 0 0
0 0 0
0 0 0
0 0 0
0 0 0
0 0 0
0 0 0
0 0 0
0 0 0
0 0 0
0 0 0
0 0 0
0 0 0
0 0 0
0 0 0
0 0 0
0 0 0
0 0 0
0 0 0
118 118 122
88 87 91
0 0 0
162 2 52
235 2 74
235 2 74
89 6 27
0 3 1
10 10 12
0 0 0
94 95 98
113 112 110
0 0 0
3 4 4
3 3 3
3 3 3
3 3 3
3 3 3
3 3 3
3 2 3
2 2 2
2 2 2
2 2 2
2 2 2
2 2 2
2 2 2
2 2 2
2 2 2
2 2 2
2 2 2
2 2 2
2 2 2
2 2 2
2 2 2
2 2 2
2 2 2
2 2 2
2 2 2
2 2 2
3 3 3
3 3 3
3 3 3
3 4 4
1 1 1
32 32 35
149 150 146
102 102 105
13 13 13
2 4 2
0 2 0
0 0 0
0 0 0
0 1 0
51 1 16
210 2 67
235 2 74
227 2 72
227 2 72
227 2 72
235 2 74
211 3 68
51 1 16
3 2 0
3 2 0
51 1 16
227 2 72
235 2 74
227 2 72
227 2 72
227 2 72
235 2 74
210 2 67
21 3 8
0 1 0
0 0 0
0 0 0
0 0 0
0 1 0
16 15 16
113 112 110
139 138 142
27 27 24
2 2 2
3 4 4
3 3 3
2 2 2
2 2 2
2 2 2
2 2 2
2 2 2
2 2 2
2 2 2
2 2 2
2 2 2
2 2 2
2 2 2
2 2 2
2 2 2
2 2 2
2 2 2
2 2 2
2 2 2
2 2 2
2 2 2
2 2 2
2 2 2
2 2 2
3 2 3
3 3 3
3 3 3
3 3 3
3 3 3
3 3 3
0 0 0
122 122 126
79 79 83
0 0 0
16 15 16
0 3 1
125 1 38
227 2 72
227 2 72
56 0 15
0 2 0
130 130 134
79 79 83
0 0 0
2 2 2
0 0 0
0 0 0
0 0 0
0 0 0
0 0 0
0 0 0
0 0 0
0 0 0
0 0 0
0 0 0
0 0 0
0 0 0
0 0 0
0 0 0
0 0 0
0 0 0
0 0 0
0 0 0
0 0 0
0 0 0
0 0 0
0 0 0
0 0 0
0 0 0
0 0 0
0 0 0
0 0 0
0 0 0
0 0 0
0 0 0
0 0 0
0 0 0
0 0 0
0 0 0
0 0 0
0 0 0
0 0 0
0 0 0
0 0 0
0 0 0
0 0 0
0 0 0
0 0 0
0 0 0
0 0 0
0 0 0
0 0 0
0 0 0
0 0 0
0 0 0
0 0 0
0 0 0
0 0 0
0 0 0
0 0 0
0 0 0
0 0 0
0 0 0
0 0 0
0 0 0
0 0 0
0 0 0
0 0 0
0 0 0
0 0 0
0 0 0
0 0 0
0 0 0
0 0 0
0 0 0
0 0 0
0 0 0
0 0 0
0 0 0
0 0 0
0 0 0
0 0 0
0 0 0
0 0 0
0 0 0
0 0 0
0 0 0
0 0 0
0 0 0
0 0 0
0 0 0
0 0 0
0 0 0
0 0 0
0 0 0
0 0 0
0 0 0
0 0 0
0 0 0
0 0 0
0 0 0
0 0 0
0 0 0
0 0 0
0 0 0
0 0 0
0 0 0
0 0 0
0 0 0
0 0 0
0 0 0
0 0 0
0 0 0
0 0 0
0 0 0
0 0 0
0 0 0
0 0 0
0 0 0
0 0 0
0 0 0
0 0 0
0 0 0
0 0 0
0 0 0
0 0 0
0 0 0
0 0 0
0 0 0
0 0 0
0 0 0
0 0 0
0 0 0
0 0 0
0 0 0
0 0 0
0 0 0
0 0 0
0 0 0
0 0 0
0 0 0
0 0 0
0 0 0
0 0 0
0 0 0
0 0 0
0 0 0
0 0 0
0 0 0
0 0 0
0 0 0
0 0 0
0 0 0
0 0 0
0 0 0
0 0 0
0 0 0
0 0 0
0 0 0
0 0 0
0 0 0
0 0 0
0 0 0
0 0 0
0 0 0
0 0 0
0 0 0
0 0 0
0 0 0
0 0 0
0 0 0
0 0 0
0 0 0
0 0 0
0 0 0
0 0 0
0 0 0
0 0 0
0 0 0
1 1 1
2 2 2
1 1 1
1 1 1
1 1 1
1 1 1
1 1 1
1 1 1
1 1 1
1 1 1
1 1 1
1 1 1
1 1 1
1 1 1
1 1 1
1 1 1
1 1 1
1 1 1
122 122 126
91 91 95
0 0 0
125 5 39
235 2 74
235 2 74
89 6 27
2 4 2
10 10 12
0 0 0
91 91 95
116 116 120
2 2 2
3 3 3
2 2 2
2 2 2
2 2 2
2 2 2
1 1 1
1 1 1
1 1 1
1 1 1
1 1 1
1 1 1
1 1 1
1 1 1
1 1 1
1 1 1
1 1 1
1 1 1
1 1 1
1 1 1
1 1 1
1 1 1
1 1 1
1 1 1
1 1 1
1 1 1
1 1 1
1 1 1
2 2 2
3 3 3
2 2 2
7 7 7
130 130 134
122 122 126
5 5 6
0 0 0
21 3 8
125 5 39
56 0 15
2 1 1
10 0 2
165 6 52
235 2 74
227 2 72
227 2 72
227 2 72
227 2 72
211 3 68
246 4 78
125 1 38
0 0 0
0 1 0
162 2 52
246 4 78
211 3 68
227 2 72
227 2 72
227 2 72
227 2 72
248 3 80
162 2 52
2 1 1
2 1 1
89 6 27
162 2 52
21 3 8
0 0 0
9 9 9
124 124 125
116 116 120
4 3 3
2 2 2
2 2 2
1 1 1
1 1 1
1 1 1
1 1 1
1 1 1
1 1 1
1 1 1
1 1 1
1 1 1
1 1 1
1 1 1
1 1 1
1 1 1
1 1 1
1 1 1
1 1 1
1 1 1
1 1 1
1 1 1
1 1 1
1 1 1
1 1 1
1 1 1
1 1 1
2 2 2
2 2 2
2 2 2
2 2 2
2 2 2
130 130 134
84 83 84
0 0 0
14 14 14
0 3 1
125 1 38
227 2 72
227 2 72
56 0 15
0 3 1
130 130 134
76 77 81
1 1 1
3 3 3
1 1 1
1 1 1
1 1 1
1 1 1
1 1 1
1 1 1
1 1 1
1 1 1
1 1 1
1 1 1
1 1 1
1 1 1
1 1 1
2 2 2
2 2 2
1 1 1
0 0 0
0 0 0
0 0 0
0 0 0
0 0 0
0 0 0
0 0 0
0 0 0
0 0 0
0 0 0
0 0 0
0 0 0
0 0 0
0 0 0
0 0 0
0 0 0
0 0 0
0 0 0
0 0 0
0 0 0
0 0 0
0 0 0
0 0 0
0 0 0
0 0 0
0 0 0
0 0 0
0 0 0
0 0 0
0 0 0
0 0 0
0 0 0
0 0 0
0 0 0
0 0 0
0 0 0
0 0 0
0 0 0
0 0 0
0 0 0
0 0 0
0 0 0
0 0 0
0 0 0
0 0 0
0 0 0
0 0 0
0 0 0
0 0 0
0 0 0
0 0 0
0 0 0
0 0 0
0 0 0
0 0 0
0 0 0
0 0 0
0 0 0
0 0 0
0 0 0
0 0 0
0 0 0
0 0 0
0 0 0
0 0 0
0 0 0
0 0 0
0 0 0
0 0 0
0 0 0
0 0 0
0 0 0
0 0 0
0 0 0
0 0 0
0 0 0
0 0 0
0 0 0
0 0 0
0 0 0
0 0 0
0 0 0
0 0 0
0 0 0
0 0 0
0 0 0
0 0 0
0 0 0
0 0 0
0 0 0
0 0 0
0 0 0
0 0 0
0 0 0
0 0 0
0 0 0
0 0 0
0 0 0
0 0 0
0 0 0
0 0 0
0 0 0
0 0 0
0 0 0
0 0 0
0 0 0
0 0 0
0 0 0
0 0 0
0 0 0
0 0 0
0 0 0
0 0 0
0 0 0
0 0 0
0 0 0
0 0 0
0 0 0
0 0 0
0 0 0
0 0 0
0 0 0
0 0 0
0 0 0
0 0 0
0 0 0
0 0 0
0 0 0
0 0 0
0 0 0
0 0 0
0 0 0
0 0 0
0 0 0
0 0 0
0 0 0
0 0 0
0 0 0
0 0 0
0 0 0
0 0 0
0 0 0
0 0 0
0 0 0
0 0 0
0 0 0
0 0 0
0 0 0
0 0 0
0 0 0
0 0 0
0 0 0
0 0 0
0 0 0
0 0 0
0 0 0
1 1 1
1 1 1
0 0 0
0 0 0
0 0 0
0 0 0
0 0 0
0 0 0
0 0 0
0 0 0
0 0 0
0 0 0
0 0 0
0 0 0
0 0 0
0 0 0
0 0 0
0 0 0
0 0 0
0 0 0
116 116 120
90 90 92
0 0 0
125 5 39
235 2 74
235 2 74
89 6 27
2 4 2
10 10 12
0 0 0
90 90 92
113 112 110
0 0 0
0 0 0
0 0 0
0 0 0
0 0 0
0 0 0
0 0 0
0 0 0
0 0 0
0 0 0
0 0 0
0 0 0
0 0 0
0 0 0
0 0 0
0 0 0
0 0 0
0 0 0
0 0 0
0 0 0
0 0 0
0 0 0
0 0 0
0 0 0
0 0 0
0 0 0
0 0 0
0 0 0
0 0 0
0 0 0
0 0 0
51 51 55
144 143 148
28 28 27
0 0 0
51 1 16
208 7 67
248 3 80
162 2 52
0 1 0
56 0 15
229 3 74
227 2 72
227 2 72
227 2 72
227 2 72
227 2 72
227 2 72
229 3 74
169 0 49
2 0 0
10 0 2
208 7 67
227 2 72
227 2 72
227 2 72
227 2 72
227 2 72
227 2 72
227 2 72
227 2 72
51 1 16
0 0 0
169 0 49
248 3 80
210 2 67
21 3 8
0 0 0
32 32 35
144 143 148
44 42 44
0 0 0
0 0 0
0 0 0
0 0 0
0 0 0
0 0 0
0 0 0
0 0 0
0 0 0
0 0 0
0 0 0
0 0 0
0 0 0
0 0 0
0 0 0
0 0 0
0 0 0
0 0 0
0 0 0
0 0 0
0 0 0
0 0 0
0 0 0
0 0 0
0 0 0
0 0 0
0 0 0
0 0 0
0 0 0
0 0 0
0 0 0
124 124 125
76 77 81
0 0 0
10 10 12
0 3 1
125 1 38
227 2 72
227 2 72
56 0 15
2 4 2
132 132 135
74 74 77
0 0 0
0 0 0
0 0 0
0 0 0
0 0 0
0 0 0
0 0 0
0 0 0
0 0 0
0 0 0
0 0 0
0 0 0
0 0 0
0 0 0
0 0 0
0 0 0
0 0 0
0 0 0
2 2 2
1 1 1
0 0 0
0 0 0
0 0 0
0 0 0
0 0 0
0 0 0
0 0 0
0 0 0
0 0 0
0 0 0
0 0 0
0 0 0
0 0 0
0 0 0
0 0 0
0 0 0
0 0 0
0 0 0
0 0 0
0 0 0
0 0 0
0 0 0
0 0 0
0 0 0
0 0 0
0 0 0
0 0 0
0 0 0
0 0 0
0 0 0
0 0 0
0 0 0
0 0 0
0 0 0
0 0 0
0 0 0
0 0 0
0 0 0
0 0 0
0 0 0
0 0 0
0 0 0
0 0 0
0 0 0
0 0 0
0 0 0
0 0 0
0 0 0
0 0 0
0 0 0
0 0 0
0 0 0
0 0 0
0 0 0
0 0 0
0 0 0
0 0 0
0 0 0
0 0 0
0 0 0
0 0 0
0 0 0
0 0 0
0 0 0
0 0 0
0 0 0
0 0 0
0 0 0
0 0 0
0 0 0
0 0 0
0 0 0
0 0 0
0 0 0
0 0 0
0 0 0
0 0 0
0 0 0
0 0 0
0 0 0
0 0 0
0 0 0
0 0 0
0 0 0
0 0 0
0 0 0
0 0 0
0 0 0
0 0 0
0 0 0
0 0 0
0 0 0
0 0 0
0 0 0
0 0 0
0 0 0
0 0 0
0 0 0
0 0 0
0 0 0
0 0 0
0 0 0
0 0 0
0 0 0
0 0 0
0 0 0
0 0 0
0 0 0
0 0 0
0 0 0
0 0 0
0 0 0
0 0 0
0 0 0
0 0 0
0 0 0
0 0 0
0 0 0
0 0 0
0 0 0
0 0 0
0 0 0
0 0 0
0 0 0
0 0 0
0 0 0
0 0 0
0 0 0
0 0 0
0 0 0
0 0 0
0 0 0
0 0 0
0 0 0
0 0 0
0 0 0
0 0 0
0 0 0
0 0 0
0 0 0
0 0 0
0 0 0
0 0 0
0 0 0
0 0 0
0 0 0
0 0 0
0 0 0
0 0 0
0 0 0
0 0 0
0 0 0
0 0 0
1 1 1
0 0 0
0 0 0
26 26 29
74 74 77
94 95 98
102 102 105
102 102 105
102 102 105
102 102 105
102 102 105
102 102 105
102 102 105
102 102 105
102 102 105
102 102 105
102 102 105
102 102 105
102 102 105
113 112 110
102 102 105
144 143 148
91 91 95
0 0 0
125 5 39
235 2 74
235 2 74
90 1 28
2 4 2
10 10 12
0 0 0
91 91 95
139 138 142
91 91 95
94 95 98
102 102 105
102 102 105
102 102 105
102 102 105
102 102 105
102 102 105
102 102 105
102 102 105
102 102 105
102 102 105
102 102 105
102 102 105
102 102 105
102 102 105
102 102 105
102 102 105
102 102 105
102 102 105
102 102 105
102 102 105
102 102 105
102 102 105
102 102 105
102 102 105
102 102 105
102 102 105
102 102 105
102 102 105
102 102 105
135 135 140
102 102 105
0 0 0
7 2 3
165 6 52
229 3 74
227 2 72
169 0 49
0 1 0
125 1 38
235 2 74
227 2 72
227 2 72
227 2 72
227 2 72
227 2 72
227 2 72
229 3 74
208 7 67
4 3 0
10 0 2
208 7 67
227 2 72
227 2 72
227 2 72
227 2 72
227 2 72
227 2 72
211 3 68
235 2 74
90 1 28
0 0 0
210 2 67
227 2 72
229 3 74
162 2 52
1 1 1
2 1 2
122 122 126
144 143 148
102 102 105
102 102 105
102 102 105
102 102 105
102 102 105
102 102 105
102 102 105
102 102 105
102 102 105
102 102 105
102 102 105
102 102 105
102 102 105
102 102 105
102 102 105
102 102 105
102 102 105
102 102 105
102 102 105
102 102 105
102 102 105
102 102 105
102 102 105
102 102 105
102 102 105
102 102 105
102 102 105
102 102 105
102 102 105
113 112 110
102 102 105
144 143 148
71 72 76
0 0 0
10 10 12
0 3 1
125 1 38
227 2 72
227 2 72
56 0 15
7 8 10
139 138 142
135 135 137
102 102 105
102 102 105
102 102 105
102 102 105
102 102 105
102 102 105
102 102 105
102 102 105
102 102 105
102 102 105
102 102 105
102 102 105
102 102 105
102 102 105
113 112 110
91 91 95
59 58 59
14 14 14
0 0 0
0 0 0
1 1 1
0 0 0
0 0 0
0 0 0
0 0 0
0 0 0
0 0 0
0 0 0
0 0 0
0 0 0
0 0 0
0 0 0
0 0 0
0 0 0
0 0 0
0 0 0
0 0 0
0 0 0
0 0 0
0 0 0
0 0 0
0 0 0
0 0 0
0 0 0
0 0 0
0 0 0
0 0 0
0 0 0
0 0 0
0 0 0
0 0 0
0 0 0
0 0 0
0 0 0
0 0 0
0 0 0
0 0 0
0 0 0
0 0 0
0 0 0
0 0 0
0 0 0
0 0 0
0 0 0
0 0 0
0 0 0
0 0 0
0 0 0
0 0 0
0 0 0
0 0 0
0 0 0
0 0 0
0 0 0
0 0 0
0 0 0
0 0 0
0 0 0
0 0 0
0 0 0
0 0 0
0 0 0
0 0 0
0 0 0
0 0 0
0 0 0
0 0 0
0 0 0
0 0 0
0 0 0
0 0 0
0 0 0
0 0 0
0 0 0
0 0 0
0 0 0
0 0 0
0 0 0
0 0 0
0 0 0
0 0 0
0 0 0
0 0 0
0 0 0
0 0 0
0 0 0
0 0 0
0 0 0
0 0 0
0 0 0
0 0 0
0 0 0
0 0 0
0 0 0
0 0 0
0 0 0
0 0 0
0 0 0
0 0 0
0 0 0
0 0 0
0 0 0
0 0 0
0 0 0
0 0 0
0 0 0
0 0 0
0 0 0
0 0 0
0 0 0
0 0 0
0 0 0
0 0 0
0 0 0
0 0 0
0 0 0
0 0 0
0 0 0
0 0 0
0 0 0
0 0 0
0 0 0
0 0 0
0 0 0
0 0 0
0 0 0
0 0 0
0 0 0
0 0 0
0 0 0
0 0 0
0 0 0
0 0 0
0 0 0
0 0 0
0 0 0
0 0 0
0 0 0
0 0 0
0 0 0
0 0 0
0 0 0
0 0 0
0 0 0
0 0 0
0 0 0
0 0 0
0 0 0
0 0 0
0 0 0
0 0 0
0 0 0
2 2 1
0 0 0
18 18 18
102 102 105
139 138 142
118 118 122
94 95 98
91 91 95
91 91 95
91 91 95
91 91 95
91 91 95
91 91 95
94 95 98
94 95 98
94 95 98
91 91 95
91 91 95
91 91 95
91 91 95
91 91 95
94 95 98
94 95 98
59 58 59
0 0 0
125 5 39
235 2 74
229 3 74
89 6 27
2 4 2
10 10 12
0 0 0
48 48 50
79 79 83
76 77 81
79 79 83
88 87 91
94 95 98
94 95 98
94 95 98
90 90 92
90 90 92
88 87 91
88 87 91
88 87 91
84 83 84
88 87 91
91 91 95
90 90 92
88 87 91
88 87 91
88 87 91
88 87 91
88 87 91
88 87 91
88 87 91
90 90 92
90 90 92
88 87 91
88 87 91
90 90 92
90 90 92
90 90 92
88 87 91
88 87 91
91 91 95
48 48 50
0 1 0
56 0 15
235 2 74
227 2 72
235 2 74
169 0 49
0 0 0
125 1 38
235 2 74
227 2 72
227 2 72
227 2 72
227 2 72
227 2 72
211 3 68
235 2 74
162 2 52
0 1 0
1 0 0
162 2 52
235 2 74
227 2 72
227 2 72
227 2 72
227 2 72
227 2 72
211 3 68
235 2 74
90 1 28
0 0 0
208 7 67
227 2 72
211 3 68
211 3 68
51 1 16
0 1 0
59 58 59
94 95 98
90 90 92
88 87 91
88 87 91
88 87 91
90 90 92
90 90 92
88 87 91
88 87 91
88 87 91
90 90 92
90 90 92
88 87 91
88 87 91
88 87 91
88 87 91
90 90 92
90 90 92
90 90 92
90 90 92
90 90 92
88 87 91
88 87 91
88 87 91
88 87 91
88 87 91
94 95 98
94 95 98
90 90 92
90 90 92
90 90 92
88 87 91
84 83 84
37 37 37
2 1 1
10 10 12
0 2 0
125 5 39
227 2 72
227 2 72
56 0 15
6 6 7
82 82 81
90 90 92
88 87 91
90 90 92
91 91 95
91 91 95
90 90 92
88 87 91
88 87 91
88 87 91
90 90 92
90 90 92
90 90 92
90 90 92
90 90 92
90 90 92
88 87 91
102 102 105
135 135 140
144 143 148
79 79 83
5 5 6
0 0 0
1 1 1
0 0 0
0 0 0
0 0 0
0 0 0
0 0 0
0 0 0
0 0 0
0 0 0
0 0 0
0 0 0
0 0 0
0 0 0
0 0 0
0 0 0
0 0 0
0 0 0
0 0 0
0 0 0
0 0 0
0 0 0
0 0 0
0 0 0
0 0 0
0 0 0
0 0 0
0 0 0
0 0 0
0 0 0
0 0 0
0 0 0
0 0 0
0 0 0
0 0 0
0 0 0
0 0 0
0 0 0
0 0 0
0 0 0
0 0 0
0 0 0
0 0 0
0 0 0
0 0 0
0 0 0
0 0 0
0 0 0
0 0 0
0 0 0
0 0 0
0 0 0
0 0 0
0 0 0
0 0 0
0 0 0
0 0 0
0 0 0
0 0 0
0 0 0
0 0 0
0 0 0
0 0 0
0 0 0
0 0 0
0 0 0
0 0 0
0 0 0
0 0 0
0 0 0
0 0 0
0 0 0
0 0 0
0 0 0
0 0 0
0 0 0
0 0 0
0 0 0
0 0 0
0 0 0
0 0 0
0 0 0
0 0 0
0 0 0
0 0 0
0 0 0
0 0 0
0 0 0
0 0 0
0 0 0
0 0 0
0 0 0
0 0 0
0 0 0
0 0 0
0 0 0
0 0 0
0 0 0
0 0 0
0 0 0
0 0 0
0 0 0
0 0 0
0 0 0
0 0 0
0 0 0
0 0 0
0 0 0
0 0 0
0 0 0
0 0 0
0 0 0
0 0 0
0 0 0
0 0 0
0 0 0
0 0 0
0 0 0
0 0 0
0 0 0
0 0 0
0 0 0
0 0 0
0 0 0
0 0 0
0 0 0
0 0 0
0 0 0
0 0 0
0 0 0
0 0 0
0 0 0
0 0 0
0 0 0
0 0 0
0 0 0
0 0 0
0 0 0
0 0 0
0 0 0
0 0 0
0 0 0
0 0 0
0 0 0
0 0 0
0 0 0
0 0 0
0 0 0
0 0 0
0 0 0
0 0 0
2 2 2
0 0 0
27 27 24
135 135 137
122 122 126
37 37 37
0 0 0
0 0 0
0 0 0
0 0 0
0 0 0
0 0 0
0 0 0
0 0 0
0 0 0
0 0 0
0 0 0
0 0 0
0 0 0
0 0 0
0 0 0
0 0 0
0 0 0
0 0 0
0 0 0
0 1 0
125 1 38
229 3 74
227 2 72
56 0 15
3 4 4
10 8 10
0 0 0
0 0 0
0 0 0
0 0 0
0 0 0
0 0 0
0 0 0
0 0 0
0 0 0
0 0 0
0 0 0
0 0 0
0 0 0
0 0 0
0 0 0
0 0 0
0 0 0
0 0 0
0 0 0
0 0 0
0 0 0
0 0 0
0 0 0
0 0 0
0 0 0
0 0 0
0 0 0
0 0 0
0 0 0
0 0 0
0 0 0
0 0 0
0 0 0
0 0 0
0 0 0
1 0 0
0 2 0
90 1 28
246 4 78
227 2 72
235 2 74
162 2 52
0 0 0
89 6 27
246 4 78
227 2 72
227 2 72
227 2 72
227 2 72
227 2 72
227 2 72
229 3 74
56 0 15
2 0 0
1 0 0
56 0 15
235 2 74
227 2 72
227 2 72
227 2 72
227 2 72
227 2 72
227 2 72
229 3 74
51 1 16
0 0 0
169 0 49
227 2 72
211 3 68
246 4 78
56 0 15
0 3 1
0 0 0
0 0 0
0 0 0
0 0 0
0 0 0
0 0 0
0 0 0
0 0 0
0 0 0
0 0 0
0 0 0
0 0 0
0 0 0
0 0 0
0 0 0
0 0 0
0 0 0
0 0 0
0 0 0
0 0 0
0 0 0
0 0 0
0 0 0
0 0 0
0 0 0
0 0 0
0 0 0
0 0 0
0 0 0
0 0 0
0 0 0
0 0 0
0 0 0
0 0 0
2 0 0
4 3 3
10 8 10
0 2 0
125 5 39
229 3 74
227 2 72
56 0 15
0 0 0
0 0 0
0 0 0
0 0 0
0 0 0
0 0 0
0 0 0
0 0 0
0 0 0
0 0 0
0 0 0
0 0 0
0 0 0
0 0 0
0 0 0
0 0 0
0 0 0
0 0 0
0 0 0
2 2 2
74 74 77
149 150 146
116 116 120
6 6 7
1 1 1
1 1 1
0 0 0
0 0 0
0 0 0
0 0 0
0 0 0
0 0 0
0 0 0
0 0 0
0 0 0
0 0 0
0 0 0
0 0 0
0 0 0
0 0 0
0 0 0
0 0 0
0 0 0
0 0 0
0 0 0
0 0 0
0 0 0
0 0 0
0 0 0
0 0 0
0 0 0
0 0 0
0 0 0
0 0 0
0 0 0
0 0 0
0 0 0
0 0 0
0 0 0
0 0 0
0 0 0
0 0 0
0 0 0
0 0 0
0 0 0
0 0 0
0 0 0
0 0 0
0 0 0
0 0 0
0 0 0
0 0 0
0 0 0
0 0 0
0 0 0
0 0 0
0 0 0
0 0 0
0 0 0
0 0 0
0 0 0
0 0 0
0 0 0
0 0 0
0 0 0
0 0 0
0 0 0
0 0 0
0 0 0
0 0 0
0 0 0
0 0 0
0 0 0
0 0 0
0 0 0
0 0 0
0 0 0
0 0 0
0 0 0
0 0 0
0 0 0
0 0 0
0 0 0
0 0 0
0 0 0
0 0 0
0 0 0
0 0 0
0 0 0
0 0 0
0 0 0
0 0 0
0 0 0
0 0 0
0 0 0
0 0 0
0 0 0
0 0 0
0 0 0
0 0 0
0 0 0
0 0 0
0 0 0
0 0 0
0 0 0
0 0 0
0 0 0
0 0 0
0 0 0
0 0 0
0 0 0
0 0 0
0 0 0
0 0 0
0 0 0
0 0 0
0 0 0
0 0 0
0 0 0
0 0 0
0 0 0
0 0 0
0 0 0
0 0 0
0 0 0
0 0 0
0 0 0
0 0 0
0 0 0
0 0 0
0 0 0
0 0 0
0 0 0
0 0 0
0 0 0
0 0 0
0 0 0
0 0 0
0 0 0
0 0 0
0 0 0
0 0 0
0 0 0
0 0 0
0 0 0
0 0 0
0 0 0
0 0 0
0 0 0
0 0 0
0 0 0
0 0 0
0 0 0
1 1 1
0 0 0
14 14 14
135 135 137
113 112 110
2 2 2
0 0 0
82 82 81
149 150 146
149 150 146
149 150 146
149 150 146
149 150 146
149 150 146
149 150 146
149 150 146
149 150 146
149 150 146
149 150 146
149 150 146
149 150 146
146 145 141
139 138 142
146 145 141
149 150 146
102 102 105
0 0 0
125 5 39
246 4 78
246 4 78
90 1 28
2 4 2
9 6 9
0 0 0
0 0 0
6 6 5
124 124 125
149 150 146
146 145 141
139 138 142
135 135 137
135 135 137
135 135 137
135 135 137
139 138 142
139 138 142
146 145 141
139 138 142
135 135 137
135 135 137
135 135 137
135 135 137
139 138 142
139 138 142
139 138 142
139 138 142
135 135 137
135 135 137
135 135 137
139 138 142
139 138 142
139 138 142
135 135 137
139 138 142
139 138 142
139 138 142
139 138 142
149 150 146
74 74 77
0 0 0
89 6 27
235 2 74
211 3 68
235 2 74
125 1 38
0 0 0
10 0 2
169 0 49
246 4 78
227 2 72
227 2 72
227 2 72
229 3 74
246 4 78
125 1 38
0 0 0
0 0 0
0 0 0
0 0 0
125 1 38
235 2 74
227 2 72
227 2 72
227 2 72
227 2 72
247 2 78
125 5 39
1 0 0
0 0 0
162 2 52
235 2 74
227 2 72
246 4 78
56 0 15
0 0 0
74 74 77
139 138 142
132 132 135
139 138 142
139 138 142
139 138 142
139 138 142
139 138 142
139 138 142
139 138 142
135 135 137
135 135 137
135 135 137
135 135 137
135 135 137
139 138 142
139 138 142
139 138 142
139 138 142
139 138 142
139 138 142
139 138 142
139 138 142
139 138 142
146 145 141
146 145 141
146 145 141
149 150 146
149 150 146
146 145 141
146 145 141
139 138 142
149 150 146
59 58 59
1 0 0
4 3 3
10 8 10
2 4 2
162 2 52
246 4 78
227 2 72
51 1 16
6 15 11
130 130 134
149 150 146
149 150 146
144 143 148
144 143 148
146 145 141
144 143 148
149 150 146
149 150 146
149 150 146
146 145 141
144 143 148
144 143 148
146 145 141
139 138 142
139 138 142
149 150 146
130 130 134
45 45 44
0 0 0
28 28 27
144 143 148
102 102 105
0 0 0
2 2 2
1 1 1
0 0 0
0 0 0
0 0 0
0 0 0
0 0 0
0 0 0
0 0 0
0 0 0
0 0 0
0 0 0
0 0 0
0 0 0
0 0 0
0 0 0
0 0 0
0 0 0
0 0 0
0 0 0
0 0 0
0 0 0
0 0 0
0 0 0
0 0 0
0 0 0
0 0 0
0 0 0
0 0 0
0 0 0
0 0 0
0 0 0
0 0 0
0 0 0
0 0 0
0 0 0
0 0 0
0 0 0
0 0 0
0 0 0
0 0 0
0 0 0
0 0 0
0 0 0
0 0 0
0 0 0
0 0 0
0 0 0
0 0 0
0 0 0
0 0 0
0 0 0
0 0 0
0 0 0
0 0 0
0 0 0
0 0 0
0 0 0
0 0 0
0 0 0
0 0 0
0 0 0
0 0 0
0 0 0
0 0 0
0 0 0
0 0 0
0 0 0
0 0 0
0 0 0
0 0 0
0 0 0
0 0 0
0 0 0
0 0 0
0 0 0
0 0 0
0 0 0
0 0 0
0 0 0
0 0 0
0 0 0
0 0 0
0 0 0
0 0 0
0 0 0
0 0 0
0 0 0
0 0 0
0 0 0
0 0 0
0 0 0
0 0 0
0 0 0
0 0 0
0 0 0
0 0 0
0 0 0
0 0 0
0 0 0
0 0 0
0 0 0
0 0 0
0 0 0
0 0 0
0 0 0
0 0 0
0 0 0
0 0 0
0 0 0
0 0 0
0 0 0
0 0 0
0 0 0
0 0 0
0 0 0
0 0 0
0 0 0
0 0 0
0 0 0
0 0 0
0 0 0
0 0 0
0 0 0
0 0 0
0 0 0
0 0 0
0 0 0
0 0 0
0 0 0
0 0 0
0 0 0
0 0 0
0 0 0
0 0 0
0 0 0
0 0 0
0 0 0
0 0 0
0 0 0
0 0 0
0 0 0
0 0 0
0 0 0
0 0 0
0 0 0
0 0 0
2 2 2
0 0 0
3 4 4
116 116 120
118 118 122
3 3 3
9 9 9
149 150 146
192 194 187
149 150 146
94 95 98
85 86 83
85 86 83
85 86 83
85 86 83
88 87 91
88 87 91
88 87 91
90 90 92
88 87 91
88 87 91
113 112 110
149 150 146
149 150 146
149 150 146
149 150 146
102 102 105
2 2 2
125 5 39
211 3 68
210 2 67
56 0 15
2 3 2
4 3 3
4 3 3
16 15 16
54 54 58
135 135 140
149 150 146
144 143 148
139 138 142
139 138 142
139 138 142
144 143 148
144 143 148
144 143 148
144 143 148
144 143 148
139 138 142
139 138 142
144 143 148
144 143 148
139 138 142
139 138 142
139 138 142
139 138 142
139 138 142
135 135 140
135 135 140
139 138 142
139 138 142
139 138 142
139 138 142
139 138 142
144 143 148
149 150 146
144 143 148
139 138 142
144 143 148
76 77 81
0 0 0
21 3 8
211 3 68
227 2 72
246 4 78
89 6 27
0 1 0
1 0 0
21 3 8
162 2 52
227 2 72
235 2 74
235 2 74
208 7 67
90 1 28
0 1 0
7 2 3
51 1 16
21 3 8
2 0 0
0 0 0
90 1 28
208 7 67
235 2 74
235 2 74
211 3 68
125 5 39
7 2 3
2 1 1
1 0 0
125 1 38
235 2 74
227 2 72
210 2 67
21 3 8
0 0 0
88 87 91
139 138 142
130 130 134
139 138 142
139 138 142
139 138 142
139 138 142
139 138 142
139 138 142
135 135 140
135 135 140
139 138 142
139 138 142
135 135 140
135 135 140
139 138 142
139 138 142
135 135 140
135 135 137
135 135 140
135 135 140
135 135 140
139 138 142
139 138 142
139 138 142
139 138 142
139 138 142
139 138 142
135 135 140
139 138 142
144 143 148
149 150 146
149 150 146
76 77 81
4 4 6
0 0 0
6 5 6
3 4 4
125 1 38
210 2 67
169 0 49
21 3 8
6 15 11
130 130 134
144 143 148
144 143 148
144 143 148
144 143 148
144 143 148
149 150 146
149 150 146
149 150 146
144 143 148
144 143 148
149 150 146
149 150 146
149 150 146
149 150 146
149 150 146
149 150 146
183 187 147
192 194 187
94 95 98
0 0 0
28 28 27
144 143 148
79 79 83
0 0 0
0 0 0
1 1 1
0 0 0
0 0 0
0 0 0
0 0 0
0 0 0
0 0 0
0 0 0
0 0 0
0 0 0
0 0 0
0 0 0
0 0 0
0 0 0
0 0 0
0 0 0
0 0 0
0 0 0
0 0 0
0 0 0
0 0 0
0 0 0
0 0 0
0 0 0
0 0 0
0 0 0
0 0 0
0 0 0
0 0 0
0 0 0
0 0 0
0 0 0
0 0 0
0 0 0
0 0 0
0 0 0
0 0 0
0 0 0
0 0 0
0 0 0
0 0 0
0 0 0
0 0 0
0 0 0
0 0 0
0 0 0
0 0 0
0 0 0
0 0 0
0 0 0
0 0 0
0 0 0
0 0 0
0 0 0
0 0 0
0 0 0
0 0 0
0 0 0
0 0 0
0 0 0
0 0 0
0 0 0
0 0 0
0 0 0
0 0 0
0 0 0
0 0 0
0 0 0
0 0 0
0 0 0
0 0 0
0 0 0
0 0 0
0 0 0
0 0 0
0 0 0
0 0 0
0 0 0
0 0 0
0 0 0
0 0 0
0 0 0
0 0 0
0 0 0
0 0 0
0 0 0
0 0 0
0 0 0
0 0 0
0 0 0
0 0 0
0 0 0
0 0 0
0 0 0
0 0 0
0 0 0
0 0 0
0 0 0
0 0 0
0 0 0
0 0 0
0 0 0
0 0 0
0 0 0
0 0 0
0 0 0
0 0 0
0 0 0
0 0 0
0 0 0
0 0 0
0 0 0
0 0 0
0 0 0
0 0 0
0 0 0
0 0 0
0 0 0
0 0 0
0 0 0
0 0 0
0 0 0
0 0 0
0 0 0
0 0 0
0 0 0
0 0 0
0 0 0
0 0 0
0 0 0
0 0 0
0 0 0
0 0 0
0 0 0
0 0 0
0 0 0
0 0 0
0 0 0
0 0 0
0 0 0
0 0 0
0 0 0
0 0 0
0 0 0
2 1 2
0 0 0
1 1 1
91 91 95
135 135 137
14 14 14
14 14 14
192 194 187
192 194 187
71 72 76
3 2 3
0 0 0
22 22 23
10 11 12
2 2 5
0 1 1
1 1 1
6 5 6
9 9 9
12 12 13
16 15 16
0 0 0
0 0 0
26 26 29
37 37 37
32 32 35
34 35 40
20 21 23
0 0 0
10 0 2
10 0 2
3 2 0
0 0 0
0 0 0
0 0 0
6 5 6
39 39 41
102 102 105
94 95 98
88 87 91
88 87 91
88 87 91
90 90 92
94 95 98
94 95 98
94 95 98
91 91 95
88 87 91
88 87 91
88 87 91
88 87 91
88 87 91
91 91 95
90 90 92
88 87 91
88 87 91
88 87 91
84 83 84
84 83 84
84 83 84
84 83 84
84 83 84
84 83 84
84 83 84
88 87 91
88 87 91
90 90 92
88 87 91
84 83 84
84 83 84
71 72 76
6 5 6
0 1 0
125 5 39
248 3 80
208 7 67
10 0 2
0 1 0
2 0 0
0 0 0
0 0 0
51 1 16
89 6 27
56 0 15
10 0 2
0 0 0
90 1 28
208 7 67
227 2 72
211 3 68
169 0 49
90 1 28
0 0 0
10 0 2
56 0 15
56 0 15
21 3 8
0 0 0
2 0 0
0 0 0
0 0 0
51 1 16
211 3 68
235 2 74
90 1 28
0 1 0
12 11 11
79 79 83
84 83 84
79 79 83
84 83 84
88 87 91
88 87 91
88 87 91
84 83 84
84 83 84
84 83 84
84 83 84
88 87 91
84 83 84
84 83 84
84 83 84
88 87 91
84 83 84
79 79 83
79 79 83
84 83 84
84 83 84
84 83 84
88 87 91
88 87 91
84 83 84
84 83 84
84 83 84
84 83 84
88 87 91
88 87 91
90 90 92
91 91 95
91 91 95
102 102 105
76 77 81
28 31 34
4 3 3
0 0 0
4 3 0
10 0 2
10 0 2
0 0 0
12 12 13
84 83 84
88 87 91
88 87 91
88 87 91
90 90 92
91 91 95
91 91 95
90 90 92
88 87 91
91 91 95
91 91 95
91 91 95
90 90 92
90 90 92
94 95 98
94 95 98
94 95 98
94 95 98
118 118 122
192 194 187
88 87 91
0 0 0
48 48 50
149 150 146
68 68 71
2 1 2
0 0 0
1 1 1
0 0 0
0 0 0
0 0 0
0 0 0
0 0 0
0 0 0
0 0 0
0 0 0
0 0 0
0 0 0
0 0 0
0 0 0
0 0 0
0 0 0
0 0 0
0 0 0
0 0 0
0 0 0
0 0 0
0 0 0
0 0 0
0 0 0
0 0 0
0 0 0
0 0 0
0 0 0
0 0 0
0 0 0
0 0 0
0 0 0
0 0 0
0 0 0
0 0 0
0 0 0
0 0 0
0 0 0
0 0 0
0 0 0
0 0 0
0 0 0
0 0 0
0 0 0
0 0 0
0 0 0
0 0 0
0 0 0
0 0 0
0 0 0
0 0 0
0 0 0
0 0 0
0 0 0
0 0 0
0 0 0
0 0 0
0 0 0
0 0 0
0 0 0
0 0 0
0 0 0
0 0 0
0 0 0
0 0 0
0 0 0
0 0 0
0 0 0
0 0 0
0 0 0
0 0 0
0 0 0
0 0 0
0 0 0
0 0 0
0 0 0
0 0 0
0 0 0
0 0 0
0 0 0
0 0 0
0 0 0
0 0 0
0 0 0
0 0 0
0 0 0
0 0 0
0 0 0
0 0 0
0 0 0
0 0 0
0 0 0
0 0 0
0 0 0
0 0 0
0 0 0
0 0 0
0 0 0
0 0 0
0 0 0
0 0 0
0 0 0
0 0 0
0 0 0
0 0 0
0 0 0
0 0 0
0 0 0
0 0 0
0 0 0
0 0 0
0 0 0
0 0 0
0 0 0
0 0 0
0 0 0
0 0 0
0 0 0
0 0 0
0 0 0
0 0 0
0 0 0
0 0 0
0 0 0
0 0 0
0 0 0
0 0 0
0 0 0
0 0 0
0 0 0
0 0 0
0 0 0
0 0 0
0 0 0
0 0 0
0 0 0
0 0 0
0 0 0
0 0 0
0 0 0
0 0 0
0 0 0
0 0 0
1 1 1
0 0 0
32 32 35
122 122 126
149 150 146
39 39 41
0 0 0
59 64 62
94 95 98
17 16 17
23 23 23
39 39 41
51 51 55
39 39 41
18 17 18
17 16 17
20 21 23
23 23 23
18 18 18
28 31 34
26 26 29
10 8 10
2 2 2
54 54 58
68 68 71
54 54 58
54 54 58
54 54 58
59 64 62
68 68 71
59 64 62
59 64 62
59 64 62
59 58 59
59 64 62
76 77 81
34 34 31
0 0 0
44 42 44
94 95 98
88 87 91
79 79 83
76 77 81
84 83 84
71 72 76
59 58 59
54 54 58
44 44 49
36 36 40
33 33 38
34 35 40
36 36 40
39 39 41
41 41 46
45 45 50
48 48 50
68 68 71
84 83 84
76 77 81
74 74 77
76 77 81
79 79 83
76 77 81
76 77 81
76 77 81
79 79 83
76 77 81
74 74 77
74 74 77
74 74 77
74 74 77
76 77 81
19 18 19
0 0 0
21 3 8
162 2 52
56 0 15
0 0 0
7 2 3
0 0 0
0 1 0
4 3 0
0 0 0
0 0 0
0 0 0
1 1 0
162 2 52
248 3 80
229 3 74
227 2 72
227 2 72
229 3 74
248 3 80
125 5 39
0 0 0
0 0 0
0 0 0
0 0 0
1 0 0
0 1 0
10 0 2
21 3 8
0 0 0
90 1 28
125 1 38
3 2 3
0 0 0
33 33 38
88 87 91
79 79 83
76 77 81
71 72 76
59 64 62
59 58 59
48 48 50
44 44 49
43 43 48
43 43 48
43 43 48
41 41 46
39 39 41
39 39 41
41 41 46
45 45 50
51 51 55
54 54 58
59 64 62
71 72 76
74 74 77
74 74 77
54 54 58
45 45 50
41 41 46
36 36 40
39 39 41
41 41 46
51 51 55
74 74 77
76 77 81
76 77 81
84 83 84
91 91 95
102 102 105
102 102 105
71 72 76
48 48 50
45 45 50
48 48 50
54 54 58
59 58 59
82 82 81
102 102 105
94 95 98
94 95 98
94 95 98
94 95 98
94 95 98
94 95 98
94 95 98
94 95 98
94 95 98
102 102 105
94 95 98
94 95 98
94 95 98
94 95 98
102 102 105
102 102 105
102 102 105
94 95 98
102 102 105
135 135 140
34 34 31
0 0 0
84 83 84
149 150 146
130 130 134
28 28 27
0 0 0
1 1 1
0 0 0
0 0 0
0 0 0
0 0 0
0 0 0
0 0 0
0 0 0
0 0 0
0 0 0
0 0 0
0 0 0
0 0 0
0 0 0
0 0 0
0 0 0
0 0 0
0 0 0
0 0 0
0 0 0
0 0 0
0 0 0
0 0 0
0 0 0
0 0 0
0 0 0
0 0 0
0 0 0
0 0 0
0 0 0
0 0 0
0 0 0
0 0 0
0 0 0
0 0 0
0 0 0
0 0 0
0 0 0
0 0 0
0 0 0
0 0 0
0 0 0
0 0 0
0 0 0
0 0 0
0 0 0
0 0 0
0 0 0
0 0 0
0 0 0
0 0 0
0 0 0
0 0 0
0 0 0
0 0 0
0 0 0
0 0 0
0 0 0
0 0 0
0 0 0
0 0 0
0 0 0
0 0 0
0 0 0
0 0 0
0 0 0
0 0 0
0 0 0
0 0 0
0 0 0
0 0 0
0 0 0
0 0 0
0 0 0
0 0 0
0 0 0
0 0 0
0 0 0
0 0 0
0 0 0
0 0 0
0 0 0
0 0 0
0 0 0
0 0 0
0 0 0
0 0 0
0 0 0
0 0 0
0 0 0
0 0 0
0 0 0
0 0 0
0 0 0
0 0 0
0 0 0
0 0 0
0 0 0
0 0 0
0 0 0
0 0 0
0 0 0
0 0 0
0 0 0
0 0 0
0 0 0
0 0 0
0 0 0
0 0 0
0 0 0
0 0 0
0 0 0
0 0 0
0 0 0
0 0 0
0 0 0
0 0 0
0 0 0
0 0 0
0 0 0
0 0 0
0 0 0
0 0 0
0 0 0
0 0 0
0 0 0
0 0 0
0 0 0
0 0 0
0 0 0
0 0 0
0 0 0
0 0 0
0 0 0
0 0 0
0 0 0
0 0 0
0 0 0
0 0 0
0 0 0
1 1 1
0 0 0
48 48 50
144 143 148
91 91 95
23 23 23
1 1 1
15 15 14
37 37 37
51 51 55
84 83 84
90 90 92
59 64 62
32 32 35
24 24 28
33 33 38
39 39 41
32 32 35
41 41 46
54 54 58
32 32 35
5 5 6
59 58 59
149 150 146
192 194 187
149 150 146
149 150 146
149 150 146
149 150 146
149 150 146
149 150 146
149 150 146
149 150 146
149 150 146
149 150 146
144 143 148
71 72 76
39 39 41
28 28 27
1 1 1
94 95 98
82 82 81
54 54 58
54 54 58
51 51 55
48 48 50
48 48 50
48 48 50
48 48 50
45 45 44
45 45 44
45 45 44
45 45 44
45 45 44
48 48 50
48 48 50
48 48 50
48 48 50
51 51 55
48 48 50
48 48 50
51 51 55
51 51 55
51 51 55
48 48 50
48 48 50
48 48 50
48 48 50
48 48 50
48 48 50
51 51 55
54 54 58
54 54 58
59 58 59
17 16 16
2 2 1
0 1 0
0 0 0
125 1 38
208 7 67
169 0 49
90 1 28
7 2 3
0 0 0
7 2 3
2 0 0
90 1 28
247 2 78
227 2 72
227 2 72
227 2 72
227 2 72
227 2 72
227 2 72
246 4 78
90 1 28
2 0 0
7 2 3
0 0 0
21 3 8
125 1 38
208 7 67
210 2 67
125 1 38
0 0 0
0 0 0
0 0 0
17 16 16
59 58 59
54 54 58
54 54 58
54 54 58
48 48 50
45 45 44
45 45 44
45 45 44
45 45 44
45 45 44
45 45 44
48 48 50
45 45 44
45 45 44
48 48 50
48 48 50
48 48 50
48 48 50
48 48 50
48 48 50
48 48 50
48 48 50
45 45 44
44 42 44
45 45 44
45 45 44
45 45 44
45 45 44
45 45 44
45 45 44
45 45 44
48 48 50
54 54 58
59 58 59
88 87 91
94 95 98
37 37 37
10 10 12
18 18 18
17 16 17
19 18 19
20 20 18
20 21 23
18 17 18
15 15 14
17 16 17
16 15 16
14 14 14
13 13 13
13 13 13
14 14 14
13 13 13
14 14 14
23 23 23
19 19 18
17 16 17
10 10 10
3 3 3
5 5 6
12 11 11
17 16 16
23 23 23
28 28 27
10 11 12
9 9 9
9 9 9
1 0 0
0 0 0
23 23 23
102 102 105
139 138 142
32 32 35
0 0 0
1 1 1
0 0 0
0 0 0
0 0 0
0 0 0
0 0 0
0 0 0
0 0 0
0 0 0
0 0 0
0 0 0
0 0 0
0 0 0
0 0 0
0 0 0
0 0 0
0 0 0
0 0 0
0 0 0
0 0 0
0 0 0
0 0 0
0 0 0
0 0 0
0 0 0
0 0 0
0 0 0
0 0 0
0 0 0
0 0 0
0 0 0
0 0 0
0 0 0
0 0 0
0 0 0
0 0 0
0 0 0
0 0 0
0 0 0
0 0 0
0 0 0
0 0 0
0 0 0
0 0 0
0 0 0
0 0 0
0 0 0
0 0 0
0 0 0
0 0 0
0 0 0
0 0 0
0 0 0
0 0 0
0 0 0
0 0 0
0 0 0
0 0 0
0 0 0
0 0 0
0 0 0
0 0 0
0 0 0
0 0 0
0 0 0
0 0 0
0 0 0
0 0 0
0 0 0
0 0 0
0 0 0
0 0 0
0 0 0
0 0 0
0 0 0
0 0 0
0 0 0
0 0 0
0 0 0
0 0 0
0 0 0
0 0 0
0 0 0
0 0 0
0 0 0
0 0 0
0 0 0
0 0 0
0 0 0
0 0 0
0 0 0
0 0 0
0 0 0
0 0 0
0 0 0
0 0 0
0 0 0
0 0 0
0 0 0
0 0 0
0 0 0
0 0 0
0 0 0
0 0 0
0 0 0
0 0 0
0 0 0
0 0 0
0 0 0
0 0 0
0 0 0
0 0 0
0 0 0
0 0 0
0 0 0
0 0 0
0 0 0
0 0 0
0 0 0
0 0 0
0 0 0
0 0 0
0 0 0
0 0 0
0 0 0
0 0 0
0 0 0
0 0 0
0 0 0
0 0 0
0 0 0
0 0 0
0 0 0
0 0 0
0 0 0
0 0 0
0 0 0
0 0 0
1 1 1
0 0 0
18 18 18
144 143 148
84 83 84
0 0 0
0 0 0
0 0 0
23 23 23
44 42 44
39 39 41
26 26 29
23 23 23
28 31 34
28 31 34
26 26 29
26 26 29
33 33 38
74 74 77
59 64 62
18 17 18
0 0 0
76 77 81
149 150 146
124 124 125
113 112 110
113 112 110
102 102 105
102 102 105
102 102 105
113 112 110
113 112 110
113 112 110
113 112 110
118 118 122
118 118 122
37 37 37
43 43 48
74 74 77
10 10 12
16 15 16
192 194 187
192 194 187
192 194 187
192 194 187
192 194 187
192 194 187
192 194 187
192 194 187
192 194 187
192 194 187
192 194 187
192 194 187
192 194 187
192 194 187
192 194 187
192 194 187
192 194 187
192 194 187
192 194 187
192 194 187
192 194 187
192 194 187
192 194 187
192 194 187
192 194 187
192 194 187
192 194 187
192 194 187
192 194 187
192 194 187
192 194 187
192 194 187
192 194 187
192 194 187
132 132 135
2 1 2
2 1 1
56 0 15
235 2 74
235 2 74
235 2 74
235 2 74
162 2 52
21 3 8
1 0 0
0 2 0
162 2 52
235 2 74
211 3 68
227 2 72
227 2 72
227 2 72
227 2 72
227 2 72
235 2 74
162 2 52
0 0 0
0 0 0
21 3 8
208 7 67
235 2 74
229 3 74
229 3 74
235 2 74
56 0 15
2 1 1
12 11 11
149 150 146
192 194 187
192 194 187
192 194 187
192 194 187
192 194 187
192 194 187
192 194 187
192 194 187
192 194 187
192 194 187
192 194 187
192 194 187
192 194 187
192 194 187
192 194 187
192 194 187
192 194 187
192 194 187
192 194 187
192 194 187
192 194 187
192 194 187
192 194 187
192 194 187
192 194 187
192 194 187
192 194 187
192 194 187
192 194 187
192 194 187
192 194 187
192 194 187
192 194 187
192 194 187
192 194 187
34 34 31
3 3 3
130 130 134
149 150 146
149 150 146
149 150 146
149 150 146
149 150 146
149 150 146
149 150 146
149 150 146
149 150 146
149 150 146
149 150 146
149 150 146
149 150 146
183 187 147
149 150 146
68 68 71
2 2 1
0 0 0
22 22 23
54 54 58
51 51 55
26 26 29
2 2 1
6 5 6
88 87 91
149 150 146
149 150 146
149 150 146
149 150 146
113 112 110
9 9 9
0 0 0
102 102 105
124 124 125
5 5 6
1 1 1
1 1 1
0 0 0
0 0 0
0 0 0
0 0 0
0 0 0
0 0 0
0 0 0
0 0 0
0 0 0
0 0 0
0 0 0
0 0 0
0 0 0
0 0 0
0 0 0
0 0 0
0 0 0
0 0 0
0 0 0
0 0 0
0 0 0
0 0 0
0 0 0
0 0 0
0 0 0
0 0 0
0 0 0
0 0 0
0 0 0
0 0 0
0 0 0
0 0 0
0 0 0
0 0 0
0 0 0
0 0 0
0 0 0
0 0 0
0 0 0
0 0 0
0 0 0
0 0 0
0 0 0
0 0 0
0 0 0
0 0 0
0 0 0
0 0 0
0 0 0
0 0 0
0 0 0
0 0 0
0 0 0
0 0 0
0 0 0
0 0 0
0 0 0
0 0 0
0 0 0
0 0 0
0 0 0
0 0 0
0 0 0
0 0 0
0 0 0
0 0 0
0 0 0
0 0 0
0 0 0
0 0 0
0 0 0
0 0 0
0 0 0
0 0 0
0 0 0
0 0 0
0 0 0
0 0 0
0 0 0
0 0 0
0 0 0
0 0 0
0 0 0
0 0 0
0 0 0
0 0 0
0 0 0
0 0 0
0 0 0
0 0 0
0 0 0
0 0 0
0 0 0
0 0 0
0 0 0
0 0 0
0 0 0
0 0 0
0 0 0
0 0 0
0 0 0
0 0 0
0 0 0
0 0 0
0 0 0
0 0 0
0 0 0
0 0 0
0 0 0
0 0 0
0 0 0
0 0 0
0 0 0
0 0 0
0 0 0
0 0 0
0 0 0
0 0 0
0 0 0
0 0 0
0 0 0
0 0 0
0 0 0
0 0 0
0 0 0
0 0 0
0 0 0
0 0 0
0 0 0
0 0 0
0 0 0
0 0 0
0 0 0
0 0 0
0 0 0
0 0 0
2 2 2
0 0 0
74 74 77
139 138 142
9 9 9
13 13 13
144 143 148
149 150 146
149 150 146
149 150 146
146 145 141
146 145 141
149 150 146
149 150 146
149 150 146
149 150 146
192 194 187
99 98 93
18 18 18
20 21 23
0 0 0
48 48 50
68 68 71
54 54 58
59 58 59
59 64 62
59 64 62
59 58 59
59 58 59
59 58 59
51 51 55
54 54 58
52 57 52
59 58 59
44 42 44
22 22 23
102 102 105
102 102 105
54 54 58
0 0 0
10 10 12
102 102 105
118 118 122
116 116 120
118 118 122
122 122 126
118 118 122
113 112 110
102 102 105
113 112 110
116 116 120
118 118 122
118 118 122
122 122 126
124 124 125
124 124 125
116 116 120
113 112 110
118 118 122
124 124 125
122 122 126
118 118 122
116 116 120
116 116 120
113 112 110
113 112 110
116 116 120
116 116 120
116 116 120
116 116 120
116 116 120
122 122 126
122 122 126
118 118 122
116 116 120
102 102 105
12 11 11
0 0 0
125 1 38
246 4 78
227 2 72
227 2 72
211 3 68
246 4 78
169 0 49
7 2 3
1 0 0
162 2 52
229 3 74
211 3 68
227 2 72
227 2 72
227 2 72
227 2 72
227 2 72
229 3 74
162 2 52
0 0 0
21 3 8
208 7 67
246 4 78
211 3 68
227 2 72
211 3 68
246 4 78
90 1 28
0 0 0
28 28 27
118 118 122
113 112 110
116 116 120
116 116 120
116 116 120
116 116 120
116 116 120
116 116 120
116 116 120
116 116 120
116 116 120
116 116 120
116 116 120
113 112 110
113 112 110
113 112 110
116 116 120
116 116 120
113 112 110
116 116 120
116 116 120
118 118 122
116 116 120
113 112 110
113 112 110
113 112 110
116 116 120
116 116 120
118 118 122
118 118 122
116 116 120
116 116 120
113 112 110
113 112 110
113 112 110
102 102 105
0 0 0
94 95 98
192 194 187
149 150 146
149 150 146
149 150 146
149 150 146
149 150 146
149 150 146
149 150 146
149 150 146
149 150 146
149 150 146
149 150 146
149 150 146
149 150 146
149 150 146
71 72 76
2 2 2
14 14 14
116 116 120
149 150 146
144 143 148
102 102 105
84 83 84
68 68 71
28 28 27
4 3 3
85 86 83
183 187 147
183 187 147
149 150 146
192 194 187
144 143 148
10 10 10
23 23 23
149 150 146
45 45 44
0 0 0
2 2 2
0 0 0
0 0 0
0 0 0
0 0 0
0 0 0
0 0 0
0 0 0
0 0 0
0 0 0
0 0 0
0 0 0
0 0 0
0 0 0
0 0 0
0 0 0
0 0 0
0 0 0
0 0 0
0 0 0
0 0 0
0 0 0
0 0 0
0 0 0
0 0 0
0 0 0
0 0 0
0 0 0
0 0 0
0 0 0
0 0 0
0 0 0
0 0 0
0 0 0
0 0 0
0 0 0
0 0 0
0 0 0
0 0 0
0 0 0
0 0 0
0 0 0
0 0 0
0 0 0
0 0 0
0 0 0
0 0 0
0 0 0
0 0 0
0 0 0
0 0 0
0 0 0
0 0 0
0 0 0
0 0 0
0 0 0
0 0 0
0 0 0
0 0 0
0 0 0
0 0 0
0 0 0
0 0 0
0 0 0
0 0 0
0 0 0
0 0 0
0 0 0
0 0 0
0 0 0
0 0 0
0 0 0
0 0 0
0 0 0
0 0 0
0 0 0
0 0 0
0 0 0
0 0 0
0 0 0
0 0 0
0 0 0
0 0 0
0 0 0
0 0 0
0 0 0
0 0 0
0 0 0
0 0 0
0 0 0
0 0 0
0 0 0
0 0 0
0 0 0
0 0 0
0 0 0
0 0 0
0 0 0
0 0 0
0 0 0
0 0 0
0 0 0
0 0 0
0 0 0
0 0 0
0 0 0
0 0 0
0 0 0
0 0 0
0 0 0
0 0 0
0 0 0
0 0 0
0 0 0
0 0 0
0 0 0
0 0 0
0 0 0
0 0 0
0 0 0
0 0 0
0 0 0
0 0 0
0 0 0
0 0 0
0 0 0
0 0 0
0 0 0
0 0 0
0 0 0
0 0 0
0 0 0
0 0 0
0 0 0
0 0 0
0 0 0
0 0 0
1 1 1
0 0 0
102 102 105
102 102 105
0 0 0
113 112 110
192 194 187
88 87 91
94 95 98
90 90 92
88 87 91
85 86 83
90 90 92
90 90 92
88 87 91
90 90 92
102 102 105
192 194 187
37 37 37
0 0 0
23 23 23
192 194 187
192 194 187
192 194 187
192 194 187
192 194 187
192 194 187
192 194 187
183 187 147
192 194 187
192 194 187
192 194 187
192 194 187
192 194 187
149 150 146
16 15 16
88 87 91
84 83 84
59 64 62
6 6 7
9 9 9
74 74 77
79 79 83
79 79 83
84 83 84
68 68 71
59 64 62
71 72 76
76 77 81
71 72 76
54 54 58
68 68 71
88 87 91
88 87 91
68 68 71
68 68 71
84 83 84
79 79 83
59 58 59
59 64 62
84 83 84
84 83 84
59 64 62
54 54 58
76 77 81
84 83 84
84 83 84
84 83 84
84 83 84
84 83 84
84 83 84
88 87 91
88 87 91
88 87 91
88 87 91
91 91 95
32 32 35
0 1 0
90 1 28
235 2 74
227 2 72
227 2 72
227 2 72
227 2 72
235 2 74
90 1 28
0 0 0
125 5 39
235 2 74
211 3 68
227 2 72
227 2 72
227 2 72
227 2 72
227 2 72
235 2 74
125 1 38
0 0 0
125 1 38
235 2 74
211 3 68
227 2 72
227 2 72
227 2 72
246 4 78
89 6 27
0 0 0
39 39 41
88 87 91
79 79 83
84 83 84
88 87 91
88 87 91
84 83 84
84 83 84
84 83 84
84 83 84
84 83 84
84 83 84
84 83 84
79 79 83
79 79 83
79 79 83
79 79 83
84 83 84
84 83 84
88 87 91
88 87 91
90 90 92
91 91 95
88 87 91
84 83 84
84 83 84
79 79 83
79 79 83
79 79 83
84 83 84
88 87 91
88 87 91
84 83 84
79 79 83
79 79 83
79 79 83
74 74 77
0 0 0
91 91 95
124 124 125
91 91 95
88 87 91
79 79 83
79 79 83
84 83 84
88 87 91
88 87 91
84 83 84
84 83 84
88 87 91
84 83 84
79 79 83
74 74 77
10 11 12
0 0 0
26 26 29
116 116 120
132 132 135
44 42 44
3 4 4
0 0 1
4 3 3
17 16 17
34 35 40
28 31 34
0 0 0
32 32 35
102 102 105
91 91 95
88 87 91
124 124 125
47 45 50
0 0 0
135 135 140
76 77 81
0 0 0
2 2 2
0 0 0
0 0 0
0 0 0
0 0 0
0 0 0
0 0 0
0 0 0
0 0 0
0 0 0
0 0 0
0 0 0
0 0 0
0 0 0
0 0 0
0 0 0
0 0 0
0 0 0
0 0 0
0 0 0
0 0 0
0 0 0
0 0 0
0 0 0
0 0 0
0 0 0
0 0 0
0 0 0
0 0 0
0 0 0
0 0 0
0 0 0
0 0 0
0 0 0
0 0 0
0 0 0
0 0 0
0 0 0
0 0 0
0 0 0
0 0 0
0 0 0
0 0 0
0 0 0
0 0 0
0 0 0
0 0 0
0 0 0
0 0 0
0 0 0
0 0 0
0 0 0
0 0 0
0 0 0
0 0 0
0 0 0
0 0 0
0 0 0
0 0 0
0 0 0
0 0 0
0 0 0
0 0 0
0 0 0
0 0 0
0 0 0
0 0 0
0 0 0
0 0 0
0 0 0
0 0 0
0 0 0
0 0 0
0 0 0
0 0 0
0 0 0
0 0 0
0 0 0
0 0 0
0 0 0
0 0 0
0 0 0
0 0 0
0 0 0
0 0 0
0 0 0
0 0 0
0 0 0
0 0 0
0 0 0
0 0 0
0 0 0
0 0 0
0 0 0
0 0 0
0 0 0
0 0 0
0 0 0
0 0 0
0 0 0
0 0 0
0 0 0
0 0 0
0 0 0
0 0 0
0 0 0
0 0 0
0 0 0
0 0 0
0 0 0
0 0 0
0 0 0
0 0 0
0 0 0
0 0 0
0 0 0
0 0 0
0 0 0
0 0 0
0 0 0
0 0 0
0 0 0
0 0 0
0 0 0
0 0 0
0 0 0
0 0 0
0 0 0
0 0 0
0 0 0
0 0 0
0 0 0
0 0 0
0 0 0
0 0 0
0 0 0
0 0 0
1 1 1
0 0 0
102 102 105
102 102 105
0 0 0
132 132 135
102 102 105
0 0 0
28 31 34
43 43 48
34 35 40
43 43 48
34 35 40
34 35 40
34 35 40
34 35 40
0 0 0
132 132 135
48 48 50
0 0 4
32 32 35
192 194 187
192 194 187
192 194 187
192 194 187
91 91 95
0 0 0
6 6 5
0 0 0
14 14 14
149 150 146
192 194 187
192 194 187
192 194 187
135 135 137
16 15 16
79 79 83
84 83 84
54 54 58
6 6 7
10 10 10
79 79 83
84 83 84
84 83 84
68 68 71
7 7 7
0 0 0
44 42 44
102 102 105
47 45 50
0 0 0
19 18 19
94 95 98
59 64 62
0 0 0
3 2 3
79 79 83
71 72 76
2 2 2
2 3 2
79 79 83
88 87 91
7 8 10
0 0 0
68 68 71
90 90 92
88 87 91
88 87 91
90 90 92
94 95 98
102 102 105
94 95 98
91 91 95
91 91 95
91 91 95
102 102 105
59 58 59
0 0 0
51 1 16
211 3 68
227 2 72
227 2 72
227 2 72
227 2 72
229 3 74
169 0 49
4 3 0
51 1 16
211 3 68
229 3 74
211 3 68
211 3 68
211 3 68
227 2 72
235 2 74
211 3 68
21 3 8
10 0 2
210 2 67
229 3 74
227 2 72
227 2 72
227 2 72
227 2 72
227 2 72
51 1 16
0 0 0
54 54 58
94 95 98
88 87 91
90 90 92
90 90 92
90 90 92
91 91 95
91 91 95
91 91 95
91 91 95
90 90 92
91 91 95
91 91 95
90 90 92
88 87 91
88 87 91
91 91 95
88 87 91
84 83 84
88 87 91
90 90 92
91 91 95
94 95 98
91 91 95
88 87 91
84 83 84
84 83 84
79 79 83
71 72 76
68 68 71
68 68 71
74 74 77
88 87 91
91 91 95
88 87 91
91 91 95
84 83 84
0 0 0
68 68 71
118 118 122
94 95 98
84 83 84
84 83 84
88 87 91
84 83 84
79 79 83
79 79 83
84 83 84
91 91 95
91 91 95
90 90 92
94 95 98
44 44 49
1 1 1
23 23 23
88 87 91
113 112 110
10 11 12
16 15 16
34 35 40
36 36 40
33 33 38
7 19 14
162 2 52
125 5 39
16 17 21
0 0 0
59 58 59
102 102 105
102 102 105
102 102 105
45 45 44
1 1 1
130 130 134
79 79 83
0 0 0
2 2 2
0 0 0
0 0 0
0 0 0
0 0 0
0 0 0
0 0 0
0 0 0
0 0 0
0 0 0
0 0 0
0 0 0
0 0 0
0 0 0
0 0 0
0 0 0
0 0 0
0 0 0
0 0 0
0 0 0
0 0 0
0 0 0
0 0 0
0 0 0
0 0 0
0 0 0
0 0 0
0 0 0
0 0 0
0 0 0
0 0 0
0 0 0
0 0 0
0 0 0
0 0 0
0 0 0
0 0 0
0 0 0
0 0 0
0 0 0
0 0 0
0 0 0
0 0 0
0 0 0
0 0 0
0 0 0
0 0 0
0 0 0
0 0 0
0 0 0
0 0 0
0 0 0
0 0 0
0 0 0
0 0 0
0 0 0
0 0 0
0 0 0
0 0 0
0 0 0
0 0 0
0 0 0
0 0 0
0 0 0
0 0 0
0 0 0
0 0 0
0 0 0
0 0 0
0 0 0
0 0 0
0 0 0
0 0 0
0 0 0
0 0 0
0 0 0
0 0 0
0 0 0
0 0 0
0 0 0
0 0 0
0 0 0
0 0 0
0 0 0
0 0 0
0 0 0
0 0 0
0 0 0
0 0 0
0 0 0
0 0 0
0 0 0
0 0 0
0 0 0
0 0 0
0 0 0
0 0 0
0 0 0
0 0 0
0 0 0
0 0 0
0 0 0
0 0 0
0 0 0
0 0 0
0 0 0
0 0 0
0 0 0
0 0 0
0 0 0
0 0 0
0 0 0
0 0 0
0 0 0
0 0 0
0 0 0
0 0 0
0 0 0
0 0 0
0 0 0
0 0 0
0 0 0
0 0 0
0 0 0
0 0 0
0 0 0
0 0 0
0 0 0
0 0 0
0 0 0
0 0 0
0 0 0
0 0 0
0 0 0
0 0 0
0 0 0
0 0 0
1 1 1
1 1 1
102 102 105
102 102 105
0 0 0
130 130 134
118 118 122
4 4 8
28 31 34
10 11 12
16 17 21
24 24 28
16 17 21
24 24 28
24 24 28
16 17 21
4 4 8
146 145 141
45 45 44
0 0 4
34 34 31
192 194 187
135 135 137
124 124 125
113 112 110
9 9 9
0 0 0
3 2 3
4 3 3
0 0 0
59 58 59
135 135 137
124 124 125
149 150 146
144 143 148
12 11 11
76 77 81
84 83 84
59 58 59
6 6 7
9 9 9
76 77 81
84 83 84
88 87 91
51 51 55
16 15 16
0 0 0
59 58 59
102 102 105
43 43 48
2 2 5
28 28 27
113 112 110
51 51 55
0 0 0
13 13 13
102 102 105
59 64 62
2 1 2
12 11 11
102 102 105
84 83 84
7 8 10
6 6 7
94 95 98
88 87 91
84 83 84
88 87 91
76 77 81
54 54 58
51 51 55
68 68 71
94 95 98
94 95 98
90 90 92
94 95 98
74 74 77
3 2 3
0 1 0
162 2 52
246 4 78
227 2 72
227 2 72
227 2 72
227 2 72
211 3 68
21 3 8
0 0 0
56 0 15
210 2 67
246 4 78
235 2 74
235 2 74
246 4 78
210 2 67
56 0 15
0 0 0
51 1 16
229 3 74
227 2 72
227 2 72
227 2 72
227 2 72
246 4 78
162 2 52
0 0 0
6 5 6
74 74 77
90 90 92
88 87 91
88 87 91
88 87 91
84 83 84
48 48 50
23 23 23
24 24 28
22 22 23
22 22 23
23 23 23
23 23 23
24 24 28
24 24 28
24 24 28
36 36 40
71 72 76
76 77 81
84 83 84
88 87 91
90 90 92
91 91 95
90 90 92
79 79 83
84 83 84
68 68 71
10 11 12
0 0 0
0 0 0
10 0 2
0 0 0
3 4 4
51 51 55
90 90 92
90 90 92
84 83 84
0 0 0
68 68 71
116 116 120
79 79 83
84 83 84
71 72 76
20 21 23
0 0 0
21 3 8
21 3 8
2 2 2
33 33 38
79 79 83
88 87 91
88 87 91
12 11 11
17 16 17
48 48 50
113 112 110
16 17 21
16 17 21
39 39 41
34 35 40
39 39 41
24 24 28
125 5 39
235 2 74
89 6 27
24 24 28
5 5 6
14 14 14
94 95 98
102 102 105
113 112 110
44 42 44
0 0 0
122 122 126
84 83 84
2 1 2
2 2 2
0 0 0
0 0 0
0 0 0
0 0 0
0 0 0
0 0 0
0 0 0
0 0 0
0 0 0
0 0 0
0 0 0
0 0 0
0 0 0
0 0 0
0 0 0
0 0 0
0 0 0
0 0 0
0 0 0
0 0 0
0 0 0
0 0 0
0 0 0
0 0 0
0 0 0
0 0 0
0 0 0
0 0 0
0 0 0
0 0 0
0 0 0
0 0 0
0 0 0
0 0 0
0 0 0
0 0 0
0 0 0
0 0 0
0 0 0
0 0 0
0 0 0
0 0 0
0 0 0
0 0 0
0 0 0
0 0 0
0 0 0
0 0 0
0 0 0
0 0 0
0 0 0
0 0 0
0 0 0
0 0 0
0 0 0
0 0 0
0 0 0
0 0 0
0 0 0
0 0 0
0 0 0
0 0 0
0 0 0
0 0 0
0 0 0
0 0 0
0 0 0
0 0 0
0 0 0
0 0 0
0 0 0
0 0 0
0 0 0
0 0 0
0 0 0
0 0 0
0 0 0
0 0 0
0 0 0
0 0 0
0 0 0
0 0 0
0 0 0
0 0 0
0 0 0
0 0 0
0 0 0
0 0 0
0 0 0
0 0 0
0 0 0
0 0 0
0 0 0
0 0 0
0 0 0
0 0 0
0 0 0
0 0 0
0 0 0
0 0 0
0 0 0
0 0 0
0 0 0
0 0 0
0 0 0
0 0 0
0 0 0
0 0 0
0 0 0
0 0 0
0 0 0
0 0 0
0 0 0
0 0 0
0 0 0
0 0 0
0 0 0
0 0 0
0 0 0
0 0 0
0 0 0
0 0 0
0 0 0
0 0 0
0 0 0
0 0 0
0 0 0
0 0 0
0 0 0
0 0 0
0 0 0
0 0 0
0 0 0
0 0 0
0 0 0
1 1 1
2 2 2
0 0 0
113 112 110
102 102 105
0 0 0
130 130 134
113 112 110
28 31 34
76 77 81
71 72 76
76 77 81
76 77 81
76 77 81
76 77 81
71 72 76
76 77 81
45 45 50
132 132 135
48 48 50
0 0 0
28 28 27
192 194 187
28 28 27
0 0 0
0 0 0
0 0 0
0 0 0
1 1 0
0 0 0
1 1 1
0 0 0
0 0 0
0 0 0
102 102 105
149 150 146
4 4 6
76 77 81
84 83 84
59 58 59
6 6 7
7 7 7
74 74 77
84 83 84
88 87 91
48 48 50
16 15 16
0 0 0
68 68 71
94 95 98
39 39 41
0 0 1
37 37 37
113 112 110
51 51 55
0 0 0
23 23 23
116 116 120
59 64 62
1 2 4
19 18 19
113 112 110
74 74 77
6 6 7
14 14 14
102 102 105
84 83 84
90 90 92
51 51 55
24 24 28
48 48 50
32 32 35
14 14 14
26 26 29
84 83 84
88 87 91
88 87 91
90 90 92
28 28 27
0 0 0
21 3 8
208 7 67
235 2 74
227 2 72
211 3 68
227 2 72
227 2 72
51 1 16
1 0 0
0 1 0
21 3 8
90 1 28
125 5 39
125 1 38
90 1 28
21 3 8
0 2 0
1 0 0
56 0 15
229 3 74
211 3 68
211 3 68
227 2 72
247 2 78
208 7 67
21 3 8
0 0 0
37 37 37
91 91 95
88 87 91
88 87 91
88 87 91
88 87 91
59 58 59
2 1 2
19 18 19
12 12 13
12 11 11
9 6 9
9 6 9
15 13 11
17 16 17
17 16 16
17 16 16
0 0 0
32 32 35
79 79 83
79 79 83
88 87 91
88 87 91
91 91 95
90 90 92
79 79 83
79 79 83
15 15 14
39 39 41
84 83 84
74 74 77
208 7 67
74 74 77
59 58 59
4 3 3
59 64 62
91 91 95
88 87 91
0 1 1
68 68 71
113 112 110
76 77 81
90 90 92
28 28 27
28 28 27
79 79 83
165 6 52
165 6 52
59 64 62
10 10 10
43 43 48
94 95 98
59 58 59
0 0 0
18 18 18
59 64 62
76 77 81
10 10 12
39 39 41
36 36 40
39 39 41
28 31 34
125 5 39
235 2 74
51 1 16
20 21 23
33 33 38
6 6 7
1 1 1
76 77 81
102 102 105
113 112 110
45 45 44
0 0 0
130 130 134
94 95 98
0 0 0
3 3 3
0 0 0
0 0 0
0 0 0
0 0 0
0 0 0
0 0 0
0 0 0
0 0 0
0 0 0
0 0 0
0 0 0
0 0 0
0 0 0
0 0 0
0 0 0
0 0 0
0 0 0
0 0 0
0 0 0
0 0 0
0 0 0
0 0 0
0 0 0
0 0 0
0 0 0
0 0 0
0 0 0
0 0 0
0 0 0
0 0 0
0 0 0
0 0 0
0 0 0
0 0 0
0 0 0
0 0 0
0 0 0
0 0 0
0 0 0
0 0 0
0 0 0
0 0 0
0 0 0
0 0 0
0 0 0
0 0 0
0 0 0
0 0 0
0 0 0
0 0 0
0 0 0
0 0 0
0 0 0
0 0 0
0 0 0
0 0 0
0 0 0
0 0 0
0 0 0
0 0 0
0 0 0
0 0 0
0 0 0
0 0 0
0 0 0
0 0 0
0 0 0
0 0 0
0 0 0
0 0 0
0 0 0
0 0 0
0 0 0
0 0 0
0 0 0
0 0 0
0 0 0
0 0 0
0 0 0
0 0 0
0 0 0
0 0 0
0 0 0
0 0 0
0 0 0
0 0 0
0 0 0
0 0 0
0 0 0
0 0 0
0 0 0
0 0 0
0 0 0
0 0 0
0 0 0
0 0 0
0 0 0
0 0 0
0 0 0
0 0 0
0 0 0
0 0 0
0 0 0
0 0 0
0 0 0
0 0 0
0 0 0
0 0 0
0 0 0
0 0 0
0 0 0
0 0 0
0 0 0
0 0 0
0 0 0
0 0 0
0 0 0
0 0 0
0 0 0
0 0 0
0 0 0
0 0 0
0 0 0
0 0 0
0 0 0
0 0 0
0 0 0
0 0 0
0 0 0
0 0 0
0 0 0
0 0 0
0 0 0
0 0 0
1 1 1
1 1 1
0 0 0
74 74 77
149 150 146
68 68 71
0 0 0
124 124 125
102 102 105
16 17 21
71 72 76
71 72 76
45 45 50
45 45 50
51 51 55
45 45 50
45 45 50
59 64 62
16 17 21
135 135 137
48 48 50
0 0 0
34 34 31
192 194 187
37 37 37
1 1 1
3 2 3
0 0 0
0 0 0
0 0 0
0 0 0
0 0 0
2 1 1
6 5 6
1 1 1
113 112 110
149 150 146
5 5 6
76 77 81
88 87 91
59 64 62
6 6 7
7 7 7
74 74 77
79 79 83
88 87 91
44 44 49
16 17 21
0 0 0
79 79 83
94 95 98
28 31 34
0 0 0
39 39 41
113 112 110
47 45 50
0 0 0
28 28 27
116 116 120
59 64 62
2 1 2
27 27 24
116 116 120
68 68 71
1 2 4
18 18 18
102 102 105
84 83 84
59 64 62
12 12 13
54 54 58
51 51 55
24 24 28
48 48 50
22 22 23
23 23 23
88 87 91
84 83 84
88 87 91
74 74 77
7 7 7
0 0 0
21 3 8
162 2 52
229 3 74
246 4 78
248 3 80
169 0 49
10 0 2
3 2 0
0 0 0
0 0 0
0 0 0
0 0 0
0 0 0
0 0 0
0 0 0
0 1 0
2 1 1
21 3 8
208 7 67
247 2 78
235 2 74
227 2 72
162 2 52
21 3 8
0 0 0
12 12 13
79 79 83
88 87 91
88 87 91
88 87 91
88 87 91
88 87 91
44 42 44
7 8 10
99 98 93
250 21 94
208 7 67
208 7 67
208 7 67
208 7 67
250 21 94
250 21 94
188 71 77
6 15 11
26 26 29
79 79 83
84 83 84
88 87 91
88 87 91
90 90 92
88 87 91
79 79 83
74 74 77
10 10 10
54 54 58
68 68 71
47 45 50
208 7 67
53 52 44
34 35 40
4 3 3
45 45 44
91 91 95
84 83 84
1 1 1
71 72 76
113 112 110
79 79 83
90 90 92
19 18 19
51 51 55
51 51 55
89 6 27
165 6 52
34 35 40
12 12 13
37 37 37
113 112 110
48 48 50
1 1 1
16 17 21
59 58 59
32 32 35
17 16 17
36 36 40
39 39 41
28 31 34
89 6 27
247 2 78
89 6 27
7 19 14
16 15 16
32 32 35
7 8 10
0 0 0
59 64 62
113 112 110
113 112 110
48 48 50
0 0 0
88 87 91
149 150 146
59 64 62
0 0 0
1 1 1
1 1 1
0 0 0
0 0 0
0 0 0
0 0 0
0 0 0
0 0 0
0 0 0
0 0 0
0 0 0
0 0 0
0 0 0
0 0 0
0 0 0
0 0 0
0 0 0
0 0 0
0 0 0
0 0 0
0 0 0
0 0 0
0 0 0
0 0 0
0 0 0
0 0 0
0 0 0
0 0 0
0 0 0
0 0 0
0 0 0
0 0 0
0 0 0
0 0 0
0 0 0
0 0 0
0 0 0
0 0 0
0 0 0
0 0 0
0 0 0
0 0 0
0 0 0
0 0 0
0 0 0
0 0 0
0 0 0
0 0 0
0 0 0
0 0 0
0 0 0
0 0 0
0 0 0
0 0 0
0 0 0
0 0 0
0 0 0
0 0 0
0 0 0
0 0 0
0 0 0
0 0 0
0 0 0
0 0 0
0 0 0
0 0 0
0 0 0
0 0 0
0 0 0
0 0 0
0 0 0
0 0 0
0 0 0
0 0 0
0 0 0
0 0 0
0 0 0
0 0 0
0 0 0
0 0 0
0 0 0
0 0 0
0 0 0
0 0 0
0 0 0
0 0 0
0 0 0
0 0 0
0 0 0
0 0 0
0 0 0
0 0 0
0 0 0
0 0 0
0 0 0
0 0 0
0 0 0
0 0 0
0 0 0
0 0 0
0 0 0
0 0 0
0 0 0
0 0 0
0 0 0
0 0 0
0 0 0
0 0 0
0 0 0
0 0 0
0 0 0
0 0 0
0 0 0
0 0 0
0 0 0
0 0 0
0 0 0
0 0 0
0 0 0
0 0 0
0 0 0
0 0 0
0 0 0
0 0 0
0 0 0
0 0 0
0 0 0
0 0 0
0 0 0
0 0 0
0 0 0
0 0 0
0 0 0
1 1 1
0 0 0
0 0 0
88 87 91
149 150 146
68 68 71
0 0 0
0 0 0
122 122 126
116 116 120
85 86 83
99 98 93
53 52 44
74 74 77
113 112 110
99 98 93
74 74 77
68 68 71
70 68 47
53 52 44
135 135 137
48 48 50
0 0 0
37 37 37
192 194 187
39 39 41
0 0 0
3 2 3
0 0 0
0 0 0
0 0 0
0 0 0
0 0 0
1 0 0
4 3 3
0 0 0
118 118 122
149 150 146
7 7 7
76 77 81
84 83 84
59 58 59
6 6 7
7 7 7
74 74 77
79 79 83
84 83 84
41 41 46
20 21 23
0 0 0
90 90 92
91 91 95
24 24 28
0 0 0
48 48 50
102 102 105
39 39 41
0 0 0
37 37 37
118 118 122
54 54 58
0 0 0
28 28 27
116 116 120
59 58 59
0 0 0
26 26 29
113 112 110
90 90 92
32 32 35
6 6 7
51 51 55
188 71 77
162 2 52
51 1 16
28 31 34
12 12 13
71 72 76
90 90 92
84 83 84
88 87 91
68 68 71
12 12 13
0 0 0
0 0 0
51 1 16
125 1 38
125 1 38
21 3 8
0 0 0
0 1 0
51 1 16
125 1 38
162 2 52
208 7 67
208 7 67
162 2 52
125 1 38
56 0 15
0 0 0
0 0 0
21 3 8
125 1 38
125 1 38
51 1 16
0 0 0
0 0 0
17 16 17
74 74 77
88 87 91
84 83 84
88 87 91
88 87 91
88 87 91
88 87 91
47 45 50
3 4 4
188 71 77
235 2 74
227 2 72
227 2 72
211 3 68
211 3 68
211 3 68
235 2 74
208 7 67
3 4 4
26 26 29
79 79 83
84 83 84
90 90 92
90 90 92
90 90 92
88 87 91
79 79 83
74 74 77
14 14 14
28 31 34
24 24 28
21 3 8
210 2 67
32 22 13
16 17 21
2 0 0
44 44 49
88 87 91
84 83 84
0 0 1
71 72 76
116 116 120
79 79 83
88 87 91
19 18 19
32 32 35
7 19 14
56 0 15
162 2 52
7 19 14
4 3 3
37 37 37
113 112 110
48 48 50
5 5 6
16 17 21
41 41 46
22 22 23
20 21 23
39 39 41
28 31 34
43 22 21
235 2 74
89 6 27
7 19 14
9 6 9
22 22 23
41 41 46
10 10 12
0 0 0
59 58 59
113 112 110
102 102 105
48 48 50
0 0 0
0 0 0
74 74 77
149 150 146
74 74 77
0 0 0
0 0 0
1 1 1
0 0 0
0 0 0
0 0 0
0 0 0
0 0 0
0 0 0
0 0 0
0 0 0
0 0 0
0 0 0
0 0 0
0 0 0
0 0 0
0 0 0
0 0 0
0 0 0
0 0 0
0 0 0
0 0 0
0 0 0
0 0 0
0 0 0
0 0 0
0 0 0
0 0 0
0 0 0
0 0 0
0 0 0
0 0 0
0 0 0
0 0 0
0 0 0
0 0 0
0 0 0
0 0 0
0 0 0
0 0 0
0 0 0
0 0 0
0 0 0
0 0 0
0 0 0
0 0 0
0 0 0
0 0 0
0 0 0
0 0 0
0 0 0
0 0 0
0 0 0
0 0 0
0 0 0
0 0 0
0 0 0
0 0 0
0 0 0
0 0 0
0 0 0
0 0 0
0 0 0
0 0 0
0 0 0
0 0 0
0 0 0
0 0 0
0 0 0
0 0 0
0 0 0
0 0 0
0 0 0
0 0 0
0 0 0
0 0 0
0 0 0
0 0 0
0 0 0
0 0 0
0 0 0
0 0 0
0 0 0
0 0 0
0 0 0
0 0 0
0 0 0
0 0 0
0 0 0
0 0 0
0 0 0
0 0 0
0 0 0
0 0 0
0 0 0
0 0 0
0 0 0
0 0 0
0 0 0
0 0 0
0 0 0
0 0 0
0 0 0
0 0 0
0 0 0
0 0 0
0 0 0
0 0 0
0 0 0
0 0 0
0 0 0
0 0 0
0 0 0
0 0 0
0 0 0
0 0 0
0 0 0
0 0 0
0 0 0
0 0 0
0 0 0
0 0 0
0 0 0
0 0 0
0 0 0
0 0 0
0 0 0
0 0 0
0 0 0
0 0 0
0 0 0
0 0 0
1 1 1
0 0 0
1 1 1
94 95 98
149 150 146
51 51 55
0 0 0
16 15 16
0 0 0
116 116 120
192 194 187
192 194 187
192 194 187
149 150 146
192 194 187
192 194 187
192 194 187
149 150 146
149 150 146
149 150 146
192 194 187
192 194 187
37 37 37
0 0 0
34 34 31
192 194 187
34 34 31
3 2 0
5 5 2
1 0 0
0 0 0
0 0 0
0 0 0
0 0 0
0 0 0
7 6 3
2 3 1
124 124 125
149 150 146
7 7 7
76 77 81
84 83 84
54 54 58
4 4 6
9 9 9
76 77 81
84 83 84
84 83 84
36 36 40
20 21 23
4 3 3
94 95 98
88 87 91
19 18 19
0 0 0
54 54 58
102 102 105
33 33 38
0 0 0
45 45 44
122 122 126
48 48 50
0 0 0
37 37 37
116 116 120
54 54 58
0 0 0
37 37 37
118 118 122
91 91 95
19 19 18
19 18 19
250 21 94
250 21 94
248 3 80
169 0 49
5 5 6
7 7 7
59 64 62
88 87 91
84 83 84
79 79 83
68 68 71
36 36 40
10 10 12
3 2 3
0 0 0
0 1 0
0 1 0
0 0 0
2 1 1
125 5 39
227 2 72
229 3 74
229 3 74
229 3 74
229 3 74
229 3 74
229 3 74
227 2 72
125 1 38
2 1 1
0 0 0
0 1 0
0 1 0
0 0 0
2 1 2
10 10 12
39 39 41
68 68 71
84 83 84
84 83 84
88 87 91
88 87 91
88 87 91
88 87 91
47 45 50
6 15 11
188 71 77
248 3 80
246 4 78
247 6 78
246 4 78
235 2 74
235 2 74
248 3 80
208 7 67
2 4 2
24 24 28
79 79 83
84 83 84
88 87 91
88 87 91
88 87 91
88 87 91
79 79 83
79 79 83
17 16 16
36 36 40
34 35 40
21 3 8
210 2 67
43 22 21
26 26 29
2 1 2
48 48 50
91 91 95
88 87 91
1 1 1
68 68 71
116 116 120
84 83 84
88 87 91
19 18 19
32 32 35
24 24 28
89 6 27
169 0 49
16 17 21
7 7 7
32 32 35
102 102 105
54 54 58
2 1 2
17 16 17
26 26 29
28 31 34
20 21 23
43 43 48
32 32 35
169 0 49
125 5 39
7 19 14
9 6 9
7 8 10
33 33 38
42 41 47
7 7 7
0 0 0
68 68 71
102 102 105
102 102 105
47 45 50
0 0 0
17 16 16
0 0 0
54 54 58
149 150 146
91 91 95
0 0 0
0 0 0
1 1 1
0 0 0
0 0 0
0 0 0
0 0 0
0 0 0
0 0 0
0 0 0
0 0 0
0 0 0
0 0 0
0 0 0
0 0 0
0 0 0
0 0 0
0 0 0
0 0 0
0 0 0
0 0 0
0 0 0
0 0 0
0 0 0
0 0 0
0 0 0
0 0 0
0 0 0
0 0 0
0 0 0
0 0 0
0 0 0
0 0 0
0 0 0
0 0 0
0 0 0
0 0 0
0 0 0
0 0 0
0 0 0
0 0 0
0 0 0
0 0 0
0 0 0
0 0 0
0 0 0
0 0 0
0 0 0
0 0 0
0 0 0
0 0 0
0 0 0
0 0 0
0 0 0
0 0 0
0 0 0
0 0 0
0 0 0
0 0 0
0 0 0
0 0 0
0 0 0
0 0 0
0 0 0
0 0 0
0 0 0
0 0 0
0 0 0
0 0 0
0 0 0
0 0 0
0 0 0
0 0 0
0 0 0
0 0 0
0 0 0
0 0 0
0 0 0
0 0 0
0 0 0
0 0 0
0 0 0
0 0 0
0 0 0
0 0 0
0 0 0
0 0 0
0 0 0
0 0 0
0 0 0
0 0 0
0 0 0
0 0 0
0 0 0
0 0 0
0 0 0
0 0 0
0 0 0
0 0 0
0 0 0
0 0 0
0 0 0
0 0 0
0 0 0
0 0 0
0 0 0
0 0 0
0 0 0
0 0 0
0 0 0
0 0 0
0 0 0
0 0 0
0 0 0
0 0 0
0 0 0
0 0 0
0 0 0
0 0 0
0 0 0
0 0 0
0 0 0
0 0 0
0 0 0
0 0 0
0 0 0
0 0 0
0 0 0
0 0 0
0 0 0
1 1 1
0 0 0
9 9 9
113 112 110
144 143 148
39 39 41
0 0 0
71 72 76
127 128 122
0 0 0
124 124 125
192 194 187
124 124 125
130 130 134
130 130 134
124 124 125
116 116 120
118 118 122
130 130 134
132 132 135
135 135 137
139 138 142
192 194 187
39 39 41
0 0 0
28 28 27
192 194 187
26 26 29
0 0 0
0 0 1
1 1 0
0 0 0
0 0 0
0 0 0
0 0 0
0 0 1
0 0 4
0 0 0
118 118 122
149 150 146
5 5 6
71 72 76
79 79 83
54 54 58
4 4 6
9 9 9
79 79 83
88 87 91
84 83 84
28 28 27
14 14 14
7 7 7
102 102 105
79 79 83
16 17 21
1 1 1
59 64 62
102 102 105
26 26 29
1 1 1
54 54 58
124 124 125
45 45 50
1 1 1
48 48 50
122 122 126
54 54 58
1 1 1
45 45 44
118 118 122
90 90 92
14 14 14
43 22 21
250 21 94
227 2 72
235 2 74
210 2 67
10 0 2
0 0 0
68 68 71
84 83 84
84 83 84
43 43 48
16 17 21
24 24 28
24 24 28
16 17 21
10 8 10
7 2 3
2 1 1
2 0 0
2 1 2
165 6 52
235 2 74
211 3 68
227 2 72
227 2 72
227 2 72
227 2 72
211 3 68
248 3 80
169 0 49
2 0 0
2 1 1
2 0 0
7 2 3
10 8 10
16 17 21
22 22 23
16 17 21
10 10 12
45 45 50
88 87 91
84 83 84
84 83 84
88 87 91
88 87 91
39 39 41
6 15 11
62 61 53
125 1 38
125 5 39
125 5 39
125 5 39
125 1 38
125 1 38
125 5 39
89 6 27
1 2 4
23 23 23
76 77 81
84 83 84
88 87 91
88 87 91
88 87 91
90 90 92
84 83 84
84 83 84
20 21 23
32 32 35
28 31 34
21 3 8
162 2 52
32 22 13
20 21 23
2 1 2
51 51 55
94 95 98
84 83 84
0 0 0
71 72 76
116 116 120
79 79 83
88 87 91
20 21 23
22 22 23
24 24 28
56 0 15
125 1 38
24 24 28
7 7 7
32 32 35
102 102 105
74 74 77
4 3 3
12 12 13
16 15 16
34 35 40
24 24 28
39 39 41
125 5 39
89 6 27
7 19 14
9 6 9
22 22 23
33 33 38
54 54 58
32 32 35
1 1 1
4 3 3
79 79 83
94 95 98
102 102 105
51 51 55
0 0 0
132 132 135
71 72 76
0 0 0
45 45 44
149 150 146
113 112 110
7 7 7
0 0 0
1 1 1
0 0 0
0 0 0
0 0 0
0 0 0
0 0 0
0 0 0
0 0 0
0 0 0
0 0 0
0 0 0
0 0 0
0 0 0
0 0 0
0 0 0
0 0 0
0 0 0
0 0 0
0 0 0
0 0 0
0 0 0
0 0 0
0 0 0
0 0 0
0 0 0
0 0 0
0 0 0
0 0 0
0 0 0
0 0 0
0 0 0
0 0 0
0 0 0
0 0 0
0 0 0
0 0 0
0 0 0
0 0 0
0 0 0
0 0 0
0 0 0
0 0 0
0 0 0
0 0 0
0 0 0
0 0 0
0 0 0
0 0 0
0 0 0
0 0 0
0 0 0
0 0 0
0 0 0
0 0 0
0 0 0
0 0 0
0 0 0
0 0 0
0 0 0
0 0 0
0 0 0
0 0 0
0 0 0
0 0 0
0 0 0
0 0 0
0 0 0
0 0 0
0 0 0
0 0 0
0 0 0
0 0 0
0 0 0
0 0 0
0 0 0
0 0 0
0 0 0
0 0 0
0 0 0
0 0 0
0 0 0
0 0 0
0 0 0
0 0 0
0 0 0
0 0 0
0 0 0
0 0 0
0 0 0
0 0 0
0 0 0
0 0 0
0 0 0
0 0 0
0 0 0
0 0 0
0 0 0
0 0 0
0 0 0
0 0 0
0 0 0
0 0 0
0 0 0
0 0 0
0 0 0
0 0 0
0 0 0
0 0 0
0 0 0
0 0 0
0 0 0
0 0 0
0 0 0
0 0 0
0 0 0
0 0 0
0 0 0
0 0 0
0 0 0
0 0 0
0 0 0
0 0 0
0 0 0
0 0 0
0 0 0
0 0 0
1 1 1
0 0 0
14 14 14
124 124 125
139 138 142
28 28 27
0 0 0
90 90 92
192 194 187
113 112 110
0 0 0
135 135 137
118 118 122
0 0 0
0 0 0
0 0 0
0 0 0
4 4 8
2 2 5
4 4 8
10 10 12
16 17 21
0 0 0
139 138 142
48 48 50
0 0 0
37 37 37
192 194 187
60 58 14
161 149 0
119 114 45
10 9 4
3 3 3
4 3 3
5 5 2
1 1 1
18 17 5
119 114 45
99 92 38
101 101 93
149 150 146
7 7 7
71 72 76
76 77 81
32 32 35
0 0 0
28 28 27
94 95 98
94 95 98
94 95 98
26 26 29
7 8 10
3 2 3
94 95 98
71 72 76
16 15 16
0 0 0
74 74 77
102 102 105
24 24 28
0 0 0
59 58 59
118 118 122
36 36 40
0 0 0
51 51 55
122 122 126
47 45 50
0 0 0
39 39 41
102 102 105
88 87 91
43 43 48
2 0 0
162 2 52
235 2 74
247 2 78
125 1 38
0 0 0
26 26 29
88 87 91
88 87 91
94 95 98
71 72 76
28 31 34
16 17 21
16 15 16
16 17 21
20 21 23
16 17 21
6 6 7
2 0 0
0 0 0
51 1 16
208 7 67
248 3 80
235 2 74
227 2 72
227 2 72
235 2 74
248 3 80
208 7 67
51 1 16
0 0 0
3 2 0
10 8 10
16 17 21
20 21 23
16 17 21
14 14 14
14 14 14
26 26 29
68 68 71
90 90 92
88 87 91
88 87 91
84 83 84
90 90 92
48 48 50
12 12 13
39 39 41
6 15 11
6 15 11
6 15 11
7 19 14
7 19 14
6 15 11
6 15 11
6 15 11
0 0 0
28 28 27
88 87 91
88 87 91
88 87 91
90 90 92
90 90 92
90 90 92
88 87 91
90 90 92
20 20 18
32 32 35
32 32 35
28 31 34
6 5 6
26 26 29
20 21 23
0 0 0
59 58 59
91 91 95
94 95 98
28 28 27
71 72 76
116 116 120
76 77 81
79 79 83
19 18 19
16 17 21
26 26 29
28 31 34
13 13 13
45 45 50
10 10 12
37 37 37
94 95 98
90 90 92
22 22 23
2 1 2
3 3 3
16 15 16
28 31 34
28 28 27
43 22 21
20 21 23
16 15 16
28 31 34
36 36 40
51 51 55
54 54 58
10 10 12
0 0 0
24 24 28
94 95 98
94 95 98
102 102 105
59 64 62
0 0 0
118 118 122
192 194 187
82 82 81
0 0 0
28 31 34
139 138 142
122 122 126
15 15 14
0 0 0
1 1 1
0 0 0
0 0 0
0 0 0
0 0 0
0 0 0
0 0 0
0 0 0
0 0 0
0 0 0
0 0 0
0 0 0
0 0 0
0 0 0
0 0 0
0 0 0
0 0 0
0 0 0
0 0 0
0 0 0
0 0 0
0 0 0
0 0 0
0 0 0
0 0 0
0 0 0
0 0 0
0 0 0
0 0 0
0 0 0
0 0 0
0 0 0
0 0 0
0 0 0
0 0 0
0 0 0
0 0 0
0 0 0
0 0 0
0 0 0
0 0 0
0 0 0
0 0 0
0 0 0
0 0 0
0 0 0
0 0 0
0 0 0
0 0 0
0 0 0
0 0 0
0 0 0
0 0 0
0 0 0
0 0 0
0 0 0
0 0 0
0 0 0
0 0 0
0 0 0
0 0 0
0 0 0
0 0 0
0 0 0
0 0 0
0 0 0
0 0 0
0 0 0
0 0 0
0 0 0
0 0 0
0 0 0
0 0 0
0 0 0
0 0 0
0 0 0
0 0 0
0 0 0
0 0 0
0 0 0
0 0 0
0 0 0
0 0 0
0 0 0
0 0 0
0 0 0
0 0 0
0 0 0
0 0 0
0 0 0
0 0 0
0 0 0
0 0 0
0 0 0
0 0 0
0 0 0
0 0 0
0 0 0
0 0 0
0 0 0
0 0 0
0 0 0
0 0 0
0 0 0
0 0 0
0 0 0
0 0 0
0 0 0
0 0 0
0 0 0
0 0 0
0 0 0
0 0 0
0 0 0
0 0 0
0 0 0
0 0 0
0 0 0
0 0 0
0 0 0
0 0 0
0 0 0
0 0 0
0 0 0
0 0 0
1 1 1
3 2 3
116 116 120
130 130 134
17 16 17
0 0 0
102 102 105
192 194 187
130 130 134
59 58 59
0 0 0
124 124 125
123 122 110
16 17 21
76 77 81
71 72 76
71 72 76
76 77 81
71 72 76
71 72 76
71 72 76
71 72 76
24 24 28
135 135 137
45 45 44
0 0 0
38 38 35
192 194 187
60 58 2
210 195 0
161 149 0
18 17 5
0 0 0
0 0 0
0 0 0
2 2 5
22 20 11
64 167 23
64 167 23
82 82 81
149 150 146
10 10 12
79 79 83
36 36 40
0 0 0
20 21 23
88 87 91
94 95 98
94 95 98
102 102 105
28 28 27
10 10 12
39 39 41
102 102 105
68 68 71
10 10 12
23 23 23
102 102 105
102 102 105
32 32 35
17 16 17
84 83 84
113 112 110
36 36 40
17 16 17
74 74 77
102 102 105
44 44 49
10 10 12
54 54 58
94 95 98
84 83 84
84 83 84
12 12 13
1 0 0
56 0 15
56 0 15
0 0 0
0 0 0
68 68 71
91 91 95
88 87 91
91 91 95
94 95 98
88 87 91
59 58 59
34 35 40
20 21 23
16 15 16
14 14 14
16 15 16
12 12 13
4 3 3
0 0 0
10 0 2
125 1 38
169 0 49
211 3 68
210 2 67
169 0 49
125 1 38
10 0 2
0 0 0
4 3 3
17 16 17
16 17 21
16 15 16
16 15 16
20 21 23
33 33 38
54 54 58
79 79 83
90 90 92
88 87 91
88 87 91
88 87 91
84 83 84
90 90 92
48 48 50
4 4 6
33 33 38
26 26 29
26 26 29
24 24 28
26 26 29
26 26 29
26 26 29
24 24 28
22 22 23
0 0 0
28 28 27
91 91 95
88 87 91
88 87 91
90 90 92
91 91 95
90 90 92
88 87 91
88 87 91
15 15 14
26 26 29
28 31 34
42 41 47
33 33 38
41 41 46
20 21 23
0 0 0
51 51 55
91 91 95
94 95 98
79 79 83
90 90 92
113 112 110
74 74 77
84 83 84
20 21 23
16 15 16
26 26 29
41 41 46
32 32 35
43 43 48
9 6 9
37 37 37
94 95 98
88 87 91
68 68 71
0 0 0
0 0 0
0 0 0
16 15 16
34 35 40
39 39 41
28 31 34
33 33 38
42 41 47
45 45 50
41 41 46
10 11 12
0 0 0
3 4 4
79 79 83
102 102 105
94 95 98
102 102 105
59 64 62
0 0 0
68 68 71
139 138 142
192 194 187
91 91 95
0 0 0
18 18 18
135 135 137
116 116 120
3 3 3
1 1 1
0 0 0
0 0 0
0 0 0
0 0 0
0 0 0
0 0 0
0 0 0
0 0 0
0 0 0
0 0 0
0 0 0
0 0 0
0 0 0
0 0 0
0 0 0
0 0 0
0 0 0
0 0 0
0 0 0
0 0 0
0 0 0
0 0 0
0 0 0
0 0 0
0 0 0
0 0 0
0 0 0
0 0 0
0 0 0
0 0 0
0 0 0
0 0 0
0 0 0
0 0 0
0 0 0
0 0 0
0 0 0
0 0 0
0 0 0
0 0 0
0 0 0
0 0 0
0 0 0
0 0 0
0 0 0
0 0 0
0 0 0
0 0 0
0 0 0
0 0 0
0 0 0
0 0 0
0 0 0
0 0 0
0 0 0
0 0 0
0 0 0
0 0 0
0 0 0
0 0 0
0 0 0
0 0 0
0 0 0
0 0 0
0 0 0
0 0 0
0 0 0
0 0 0
0 0 0
0 0 0
0 0 0
0 0 0
0 0 0
0 0 0
0 0 0
0 0 0
0 0 0
0 0 0
0 0 0
0 0 0
0 0 0
0 0 0
0 0 0
0 0 0
0 0 0
0 0 0
0 0 0
0 0 0
0 0 0
0 0 0
0 0 0
0 0 0
0 0 0
0 0 0
0 0 0
0 0 0
0 0 0
0 0 0
0 0 0
0 0 0
0 0 0
0 0 0
0 0 0
0 0 0
0 0 0
0 0 0
0 0 0
0 0 0
0 0 0
0 0 0
0 0 0
0 0 0
0 0 0
0 0 0
0 0 0
0 0 0
0 0 0
0 0 0
0 0 0
0 0 0
0 0 0
0 0 0
0 0 0
2 2 2
0 0 0
59 58 59
149 150 146
23 23 23
0 0 0
124 124 125
192 194 187
113 112 110
91 91 95
68 68 71
1 1 1
132 132 135
113 112 110
28 31 34
76 77 81
54 54 58
71 72 76
71 72 76
71 72 76
71 72 76
71 72 76
76 77 81
28 31 34
135 135 137
51 51 55
1 1 1
39 39 41
192 194 187
84 83 84
74 74 77
82 82 81
82 82 81
71 72 76
68 68 71
68 68 71
74 74 77
99 98 93
84 83 84
71 72 76
124 124 125
139 138 142
7 7 7
28 28 27
0 0 0
37 37 37
94 95 98
94 95 98
94 95 98
94 95 98
102 102 105
90 90 92
94 95 98
116 116 120
91 91 95
88 87 91
84 83 84
102 102 105
102 102 105
94 95 98
94 95 98
113 112 110
116 116 120
94 95 98
88 87 91
102 102 105
113 112 110
91 91 95
88 87 91
91 91 95
102 102 105
91 91 95
91 91 95
94 95 98
54 54 58
7 8 10
0 2 0
0 3 1
9 6 9
32 32 35
88 87 91
91 91 95
91 91 95
91 91 95
91 91 95
91 91 95
94 95 98
94 95 98
79 79 83
68 68 71
51 51 55
41 41 46
33 33 38
26 26 29
10 10 12
0 0 0
0 0 0
2 0 0
21 3 8
21 3 8
0 0 0
0 0 0
0 0 0
12 11 11
28 31 34
36 36 40
41 41 46
51 51 55
59 64 62
76 77 81
88 87 91
91 91 95
88 87 91
88 87 91
88 87 91
88 87 91
90 90 92
90 90 92
94 95 98
74 74 77
6 6 7
0 0 0
0 0 0
0 0 0
0 0 0
0 0 0
0 0 0
1 0 0
2 0 0
1 0 0
1 1 1
54 54 58
94 95 98
90 90 92
90 90 92
91 91 95
91 91 95
91 91 95
90 90 92
91 91 95
32 32 35
0 0 0
3 3 3
9 9 9
12 12 13
12 12 13
6 6 7
1 0 0
68 68 71
91 91 95
91 91 95
94 95 98
113 112 110
102 102 105
94 95 98
102 102 105
48 48 50
0 0 0
6 6 7
7 8 10
6 6 7
3 2 3
0 0 0
48 48 50
102 102 105
94 95 98
102 102 105
59 64 62
2 2 2
0 0 0
4 3 0
16 14 12
26 26 29
33 33 38
32 32 35
26 26 29
20 21 23
7 7 7
0 0 0
3 4 4
68 68 71
102 102 105
102 102 105
102 102 105
102 102 105
59 64 62
1 1 1
71 72 76
102 102 105
116 116 120
192 194 187
116 116 120
0 0 0
32 32 35
149 150 146
59 64 62
0 0 0
2 2 2
0 0 0
0 0 0
0 0 0
0 0 0
0 0 0
0 0 0
0 0 0
0 0 0
0 0 0
0 0 0
0 0 0
0 0 0
0 0 0
0 0 0
0 0 0
0 0 0
0 0 0
0 0 0
0 0 0
0 0 0
0 0 0
0 0 0
0 0 0
0 0 0
0 0 0
0 0 0
0 0 0
0 0 0
0 0 0
0 0 0
0 0 0
0 0 0
0 0 0
0 0 0
0 0 0
0 0 0
0 0 0
0 0 0
0 0 0
0 0 0
0 0 0
0 0 0
0 0 0
0 0 0
0 0 0
0 0 0
0 0 0
0 0 0
0 0 0
0 0 0
0 0 0
0 0 0
0 0 0
0 0 0
0 0 0
0 0 0
0 0 0
0 0 0
0 0 0
0 0 0
0 0 0
0 0 0
0 0 0
0 0 0
0 0 0
0 0 0
0 0 0
0 0 0
0 0 0
0 0 0
0 0 0
0 0 0
0 0 0
0 0 0
0 0 0
0 0 0
0 0 0
0 0 0
0 0 0
0 0 0
0 0 0
0 0 0
0 0 0
0 0 0
0 0 0
0 0 0
0 0 0
0 0 0
0 0 0
0 0 0
0 0 0
0 0 0
0 0 0
0 0 0
0 0 0
0 0 0
0 0 0
0 0 0
0 0 0
0 0 0
0 0 0
0 0 0
0 0 0
0 0 0
0 0 0
0 0 0
0 0 0
0 0 0
0 0 0
0 0 0
0 0 0
0 0 0
0 0 0
0 0 0
0 0 0
0 0 0
0 0 0
0 0 0
0 0 0
0 0 0
0 0 0
1 1 1
0 0 0
5 5 6
130 130 134
88 87 91
0 0 0
88 87 91
192 194 187
113 112 110
90 90 92
94 95 98
54 54 58
0 0 0
59 58 59
90 90 92
17 16 16
45 45 44
45 45 44
37 37 37
23 23 23
17 16 16
33 33 38
20 20 18
20 20 18
34 35 40
85 86 83
12 12 13
0 0 0
7 7 7
37 37 37
44 42 44
39 39 41
39 39 41
39 39 41
39 39 41
37 37 37
37 37 37
37 37 37
45 45 44
45 45 44
40 40 37
37 37 37
19 18 19
0 0 0
0 0 0
32 32 35
91 91 95
94 95 98
91 91 95
88 87 91
84 83 84
84 83 84
90 90 92
91 91 95
88 87 91
88 87 91
84 83 84
84 83 84
79 79 83
84 83 84
88 87 91
88 87 91
88 87 91
84 83 84
84 83 84
88 87 91
88 87 91
84 83 84
84 83 84
84 83 84
84 83 84
84 83 84
88 87 91
88 87 91
88 87 91
84 83 84
54 54 58
36 36 40
42 41 47
59 58 59
79 79 83
90 90 92
88 87 91
84 83 84
79 79 83
79 79 83
79 79 83
84 83 84
84 83 84
84 83 84
84 83 84
84 83 84
84 83 84
84 83 84
79 79 83
74 74 77
54 54 58
23 23 23
7 7 7
0 1 0
0 0 0
7 7 7
23 23 23
51 51 55
68 68 71
74 74 77
76 77 81
76 77 81
79 79 83
84 83 84
79 79 83
76 77 81
74 74 77
74 74 77
74 74 77
76 77 81
79 79 83
84 83 84
84 83 84
84 83 84
84 83 84
68 68 71
41 41 46
44 42 44
45 45 44
43 43 48
44 42 44
44 42 44
45 45 44
48 48 50
47 45 50
59 58 59
88 87 91
90 90 92
88 87 91
84 83 84
84 83 84
79 79 83
84 83 84
88 87 91
88 87 91
79 79 83
39 39 41
19 19 18
12 12 13
12 12 13
17 16 17
23 23 23
59 58 59
88 87 91
84 83 84
84 83 84
79 79 83
79 79 83
88 87 91
94 95 98
94 95 98
88 87 91
48 48 50
23 23 23
18 18 18
19 19 18
20 21 23
37 37 37
88 87 91
94 95 98
94 95 98
91 91 95
94 95 98
68 68 71
17 16 16
0 0 0
0 0 0
0 0 0
0 0 0
0 0 0
0 0 0
0 0 0
0 0 0
19 18 19
74 74 77
102 102 105
90 90 92
91 91 95
91 91 95
94 95 98
54 54 58
0 0 0
59 64 62
102 102 105
88 87 91
102 102 105
192 194 187
68 68 71
0 0 0
94 95 98
132 132 135
4 3 3
0 0 0
1 1 1
0 0 0
0 0 0
0 0 0
0 0 0
0 0 0
0 0 0
0 0 0
0 0 0
0 0 0
0 0 0
0 0 0
0 0 0
0 0 0
0 0 0
0 0 0
0 0 0
0 0 0
0 0 0
0 0 0
0 0 0
0 0 0
0 0 0
0 0 0
0 0 0
0 0 0
0 0 0
0 0 0
0 0 0
0 0 0
0 0 0
0 0 0
0 0 0
0 0 0
0 0 0
0 0 0
0 0 0
0 0 0
0 0 0
0 0 0
0 0 0
0 0 0
0 0 0
0 0 0
0 0 0
0 0 0
0 0 0
0 0 0
0 0 0
0 0 0
0 0 0
0 0 0
0 0 0
0 0 0
0 0 0
0 0 0
0 0 0
0 0 0
0 0 0
0 0 0
0 0 0
0 0 0
0 0 0
0 0 0
0 0 0
0 0 0
0 0 0
0 0 0
0 0 0
0 0 0
0 0 0
0 0 0
0 0 0
0 0 0
0 0 0
0 0 0
0 0 0
0 0 0
0 0 0
0 0 0
0 0 0
0 0 0
0 0 0
0 0 0
0 0 0
0 0 0
0 0 0
0 0 0
0 0 0
0 0 0
0 0 0
0 0 0
0 0 0
0 0 0
0 0 0
0 0 0
0 0 0
0 0 0
0 0 0
0 0 0
0 0 0
0 0 0
0 0 0
0 0 0
0 0 0
0 0 0
0 0 0
0 0 0
0 0 0
0 0 0
0 0 0
0 0 0
0 0 0
0 0 0
0 0 0
0 0 0
0 0 0
0 0 0
0 0 0
0 0 0
0 0 0
2 1 1
0 0 0
39 39 41
144 143 148
20 21 23
12 12 13
149 150 146
116 116 120
68 68 71
59 58 59
39 39 41
28 28 27
20 21 23
15 15 14
34 34 31
39 39 41
59 58 59
59 58 59
51 51 55
44 44 49
39 39 41
44 44 49
37 37 37
39 39 41
44 44 49
23 23 23
20 21 23
27 27 24
23 23 23
20 20 18
20 21 23
20 20 18
17 16 16
16 15 16
17 16 16
18 18 18
18 18 18
19 19 18
18 18 18
20 20 18
18 18 18
17 16 17
20 21 23
27 27 24
23 23 23
37 37 37
37 37 37
37 37 37
39 39 41
37 37 37
37 37 37
37 37 37
34 34 31
32 32 35
37 37 37
37 37 37
37 37 37
37 37 37
39 39 41
39 39 41
37 37 37
34 34 31
32 32 35
37 37 37
37 37 37
37 37 37
37 37 37
37 37 37
32 32 35
34 34 31
34 34 31
34 34 31
32 32 35
37 37 37
37 37 37
37 37 37
39 39 41
37 37 37
37 37 37
39 39 41
32 32 35
32 32 35
37 37 37
34 34 31
32 32 35
32 32 35
34 34 31
34 34 31
37 37 37
37 37 37
37 37 37
37 37 37
34 34 31
32 32 35
32 32 35
37 37 37
39 39 41
39 39 41
28 31 34
22 22 23
22 22 23
34 34 31
39 39 41
39 39 41
33 33 38
34 34 31
32 32 35
34 34 31
34 34 31
37 37 37
34 34 31
32 32 35
32 32 35
32 32 35
32 32 35
32 32 35
34 34 31
34 34 31
34 34 31
34 34 31
32 32 35
37 37 37
39 39 41
39 39 41
39 39 41
39 39 41
39 39 41
37 37 37
37 37 37
39 39 41
39 39 41
39 39 41
37 37 37
39 39 41
39 39 41
39 39 41
37 37 37
32 32 35
32 32 35
32 32 35
37 37 37
39 39 41
44 42 44
37 37 37
34 34 31
32 32 35
32 32 35
39 39 41
45 45 44
44 42 44
39 39 41
37 37 37
37 37 37
34 34 31
37 37 37
39 39 41
37 37 37
37 37 37
39 39 41
37 37 37
37 37 37
37 37 37
37 37 37
44 42 44
39 39 41
37 37 37
37 37 37
37 37 37
37 37 37
44 42 44
39 39 41
27 27 24
27 27 24
23 23 23
23 23 23
23 23 23
27 27 24
28 28 27
26 26 29
39 39 41
44 42 44
37 37 37
39 39 41
37 37 37
37 37 37
37 37 37
32 32 35
27 27 24
37 37 37
47 45 50
59 64 62
79 79 83
113 112 110
146 145 141
7 7 7
28 28 27
149 150 146
37 37 37
0 0 0
1 1 1
0 0 0
0 0 0
0 0 0
0 0 0
0 0 0
0 0 0
0 0 0
0 0 0
0 0 0
0 0 0
0 0 0
0 0 0
0 0 0
0 0 0
0 0 0
0 0 0
0 0 0
0 0 0
0 0 0
0 0 0
0 0 0
0 0 0
0 0 0
0 0 0
0 0 0
0 0 0
0 0 0
0 0 0
0 0 0
0 0 0
0 0 0
0 0 0
0 0 0
0 0 0
0 0 0
0 0 0
0 0 0
0 0 0
0 0 0
0 0 0
0 0 0
0 0 0
0 0 0
0 0 0
0 0 0
0 0 0
0 0 0
0 0 0
0 0 0
0 0 0
0 0 0
0 0 0
0 0 0
0 0 0
0 0 0
0 0 0
0 0 0
0 0 0
0 0 0
0 0 0
0 0 0
0 0 0
0 0 0
0 0 0
0 0 0
0 0 0
0 0 0
0 0 0
0 0 0
0 0 0
0 0 0
0 0 0
0 0 0
0 0 0
0 0 0
0 0 0
0 0 0
0 0 0
0 0 0
0 0 0
0 0 0
0 0 0
0 0 0
0 0 0
0 0 0
0 0 0
0 0 0
0 0 0
0 0 0
0 0 0
0 0 0
0 0 0
0 0 0
0 0 0
0 0 0
0 0 0
0 0 0
0 0 0
0 0 0
0 0 0
0 0 0
0 0 0
0 0 0
0 0 0
0 0 0
0 0 0
0 0 0
0 0 0
0 0 0
0 0 0
0 0 0
0 0 0
0 0 0
0 0 0
0 0 0
0 0 0
0 0 0
0 0 0
0 0 0
0 0 0
2 2 2
0 0 0
79 79 83
124 124 125
0 0 0
68 68 71
192 194 187
192 194 187
192 194 187
192 194 187
192 194 187
192 194 187
192 194 187
192 194 187
192 194 187
192 194 187
192 194 187
192 194 187
192 194 187
192 194 187
192 194 187
192 194 187
192 194 187
192 194 187
192 194 187
192 194 187
192 194 187
192 194 187
192 194 187
192 194 187
192 194 187
192 194 187
192 194 187
192 194 187
192 194 187
192 194 187
192 194 187
192 194 187
192 194 187
192 194 187
192 194 187
192 194 187
192 194 187
192 194 187
192 194 187
192 194 187
192 194 187
192 194 187
192 194 187
192 194 187
192 194 187
192 194 187
192 194 187
192 194 187
192 194 187
192 194 187
192 194 187
192 194 187
192 194 187
192 194 187
192 194 187
192 194 187
192 194 187
192 194 187
192 194 187
192 194 187
192 194 187
192 194 187
192 194 187
192 194 187
192 194 187
192 194 187
192 194 187
192 194 187
192 194 187
192 194 187
192 194 187
192 194 187
192 194 187
192 194 187
192 194 187
192 194 187
192 194 187
192 194 187
192 194 187
192 194 187
192 194 187
192 194 187
192 194 187
192 194 187
192 194 187
192 194 187
192 194 187
192 194 187
192 194 187
192 194 187
192 194 187
192 194 187
192 194 187
192 194 187
192 194 187
192 194 187
192 194 187
192 194 187
192 194 187
192 194 187
192 194 187
192 194 187
192 194 187
192 194 187
192 194 187
192 194 187
192 194 187
192 194 187
192 194 187
192 194 187
192 194 187
192 194 187
192 194 187
192 194 187
192 194 187
192 194 187
192 194 187
192 194 187
192 194 187
192 194 187
192 194 187
192 194 187
192 194 187
192 194 187
192 194 187
192 194 187
192 194 187
192 194 187
192 194 187
192 194 187
192 194 187
192 194 187
192 194 187
192 194 187
192 194 187
192 194 187
192 194 187
192 194 187
192 194 187
192 194 187
192 194 187
192 194 187
192 194 187
192 194 187
192 194 187
192 194 187
192 194 187
192 194 187
192 194 187
192 194 187
192 194 187
192 194 187
192 194 187
192 194 187
192 194 187
192 194 187
192 194 187
192 194 187
192 194 187
192 194 187
192 194 187
192 194 187
192 194 187
192 194 187
192 194 187
192 194 187
192 194 187
192 194 187
192 194 187
192 194 187
192 194 187
192 194 187
192 194 187
192 194 187
192 194 187
192 194 187
192 194 187
192 194 187
192 194 187
192 194 187
192 194 187
192 194 187
192 194 187
192 194 187
192 194 187
192 194 187
192 194 187
192 194 187
71 72 76
0 0 0
130 130 134
71 72 76
0 0 0
2 2 2
0 0 0
0 0 0
0 0 0
0 0 0
0 0 0
0 0 0
0 0 0
0 0 0
0 0 0
0 0 0
0 0 0
0 0 0
0 0 0
0 0 0
0 0 0
0 0 0
0 0 0
0 0 0
0 0 0
0 0 0
0 0 0
0 0 0
0 0 0
0 0 0
0 0 0
0 0 0
0 0 0
0 0 0
0 0 0
0 0 0
0 0 0
0 0 0
0 0 0
0 0 0
0 0 0
0 0 0
0 0 0
0 0 0
0 0 0
0 0 0
0 0 0
0 0 0
0 0 0
0 0 0
0 0 0
0 0 0
0 0 0
0 0 0
0 0 0
0 0 0
0 0 0
0 0 0
0 0 0
0 0 0
0 0 0
0 0 0
0 0 0
0 0 0
0 0 0
0 0 0
0 0 0
0 0 0
0 0 0
0 0 0
0 0 0
0 0 0
0 0 0
0 0 0
0 0 0
0 0 0
0 0 0
0 0 0
0 0 0
0 0 0
0 0 0
0 0 0
0 0 0
0 0 0
0 0 0
0 0 0
0 0 0
0 0 0
0 0 0
0 0 0
0 0 0
0 0 0
0 0 0
0 0 0
0 0 0
0 0 0
0 0 0
0 0 0
0 0 0
0 0 0
0 0 0
0 0 0
0 0 0
0 0 0
0 0 0
0 0 0
0 0 0
0 0 0
0 0 0
0 0 0
0 0 0
0 0 0
0 0 0
0 0 0
0 0 0
0 0 0
0 0 0
0 0 0
0 0 0
0 0 0
0 0 0
0 0 0
0 0 0
0 0 0
0 0 0
0 0 0
1 1 1
0 0 0
102 102 105
102 102 105
0 0 0
124 124 125
149 150 146
130 130 134
132 132 135
132 132 135
135 135 137
135 135 140
139 138 142
139 138 142
135 135 140
132 132 135
132 132 135
130 130 134
130 130 134
130 130 134
130 130 134
135 135 137
135 135 140
135 135 140
135 135 140
135 135 140
135 135 137
135 135 140
135 135 140
135 135 140
135 135 140
135 135 140
135 135 140
135 135 140
135 135 140
135 135 140
139 138 142
135 135 140
135 135 140
132 132 135
132 132 135
135 135 137
139 138 142
139 138 142
139 138 142
135 135 137
132 132 135
132 132 135
132 132 135
135 135 137
135 135 140
135 135 140
135 135 140
135 135 137
135 135 137
135 135 137
135 135 137
135 135 137
135 135 137
135 135 137
135 135 137
135 135 140
139 138 142
135 135 137
130 130 134
68 68 71
54 54 58
74 74 77
74 74 77
79 79 83
79 79 83
79 79 83
79 79 83
79 79 83
79 79 83
79 79 83
79 79 83
79 79 83
79 79 83
79 79 83
76 77 81
76 77 81
79 79 83
76 77 81
76 77 81
76 77 81
76 77 81
76 77 81
79 79 83
76 77 81
76 77 81
76 77 81
79 79 83
79 79 83
79 79 83
79 79 83
76 77 81
76 77 81
76 77 81
76 77 81
76 77 81
76 77 81
76 77 81
76 77 81
76 77 81
76 77 81
76 77 81
76 77 81
76 77 81
76 77 81
76 77 81
76 77 81
76 77 81
74 74 77
74 74 77
71 72 76
71 72 76
71 72 76
74 74 77
74 74 77
76 77 81
76 77 81
76 77 81
76 77 81
76 77 81
76 77 81
76 77 81
76 77 81
76 77 81
76 77 81
84 83 84
79 79 83
79 79 83
59 64 62
59 58 59
124 124 125
139 138 142
135 135 140
135 135 140
132 132 135
130 130 134
130 130 134
130 130 134
132 132 135
135 135 140
139 138 142
135 135 140
132 132 135
130 130 134
130 130 134
132 132 135
135 135 137
135 135 137
132 132 135
130 130 134
124 124 125
130 130 134
130 130 134
130 130 134
130 130 134
130 130 134
130 130 134
130 130 134
130 130 134
130 130 134
130 130 134
130 130 134
130 130 134
132 132 135
130 130 134
130 130 134
124 124 125
130 130 134
130 130 134
132 132 135
135 135 140
139 138 142
135 135 140
132 132 135
130 130 134
130 130 134
124 124 125
122 122 126
124 124 125
130 130 134
132 132 135
132 132 135
132 132 135
135 135 140
132 132 135
130 130 134
122 122 126
118 118 122
139 138 142
94 95 98
0 0 0
113 112 110
94 95 98
0 0 0
1 1 1
0 0 0
0 0 0
0 0 0
0 0 0
0 0 0
0 0 0
0 0 0
0 0 0
0 0 0
0 0 0
0 0 0
0 0 0
0 0 0
0 0 0
0 0 0
0 0 0
0 0 0
0 0 0
0 0 0
0 0 0
0 0 0
0 0 0
0 0 0
0 0 0
0 0 0
0 0 0
0 0 0
0 0 0
0 0 0
0 0 0
0 0 0
0 0 0
0 0 0
0 0 0
0 0 0
0 0 0
0 0 0
0 0 0
0 0 0
0 0 0
0 0 0
0 0 0
0 0 0
0 0 0
0 0 0
0 0 0
0 0 0
0 0 0
0 0 0
0 0 0
0 0 0
0 0 0
0 0 0
0 0 0
0 0 0
0 0 0
0 0 0
0 0 0
0 0 0
0 0 0
0 0 0
0 0 0
0 0 0
0 0 0
0 0 0
0 0 0
0 0 0
0 0 0
0 0 0
0 0 0
0 0 0
0 0 0
0 0 0
0 0 0
0 0 0
0 0 0
0 0 0
0 0 0
0 0 0
0 0 0
0 0 0
0 0 0
0 0 0
0 0 0
0 0 0
0 0 0
0 0 0
0 0 0
0 0 0
0 0 0
0 0 0
0 0 0
0 0 0
0 0 0
0 0 0
0 0 0
0 0 0
0 0 0
0 0 0
0 0 0
0 0 0
0 0 0
0 0 0
0 0 0
0 0 0
0 0 0
0 0 0
0 0 0
0 0 0
0 0 0
0 0 0
0 0 0
0 0 0
0 0 0
0 0 0
0 0 0
0 0 0
0 0 0
0 0 0
0 0 0
1 1 1
0 0 0
102 102 105
102 102 105
0 0 0
94 95 98
122 122 126
116 116 120
116 116 120
116 116 120
122 122 126
124 124 125
124 124 125
130 130 134
124 124 125
122 122 126
118 118 122
116 116 120
116 116 120
116 116 120
118 118 122
118 118 122
118 118 122
122 122 126
122 122 126
122 122 126
122 122 126
122 122 126
122 122 126
122 122 126
122 122 126
118 118 122
118 118 122
116 116 120
116 116 120
118 118 122
122 122 126
122 122 126
122 122 126
118 118 122
118 118 122
118 118 122
118 118 122
118 118 122
122 122 126
122 122 126
118 118 122
116 116 120
116 116 120
116 116 120
116 116 120
118 118 122
118 118 122
118 118 122
118 118 122
118 118 122
116 116 120
116 116 120
116 116 120
118 118 122
118 118 122
122 122 126
122 122 126
118 118 122
116 116 120
88 87 91
6 6 7
16 15 16
41 41 46
34 35 40
34 35 40
33 33 38
33 33 38
33 33 38
34 35 40
36 36 40
36 36 40
36 36 40
36 36 40
36 36 40
36 36 40
36 36 40
36 36 40
36 36 40
36 36 40
34 35 40
36 36 40
36 36 40
36 36 40
34 35 40
34 35 40
34 35 40
34 35 40
36 36 40
36 36 40
36 36 40
36 36 40
34 35 40
36 36 40
36 36 40
36 36 40
34 35 40
36 36 40
36 36 40
36 36 40
34 35 40
34 35 40
33 33 38
33 33 38
33 33 38
34 35 40
34 35 40
34 35 40
33 33 38
33 33 38
33 33 38
33 33 38
33 33 38
33 33 38
33 33 38
33 33 38
33 33 38
34 35 40
33 33 38
34 35 40
33 33 38
33 33 38
33 33 38
33 33 38
34 35 40
36 36 40
43 43 48
26 26 29
2 2 2
76 77 81
116 116 120
116 116 120
118 118 122
118 118 122
118 118 122
116 116 120
116 116 120
116 116 120
116 116 120
116 116 120
118 118 122
118 118 122
118 118 122
118 118 122
116 116 120
116 116 120
116 116 120
116 116 120
116 116 120
113 112 110
113 112 110
113 112 110
113 112 110
113 112 110
113 112 110
113 112 110
113 112 110
113 112 110
113 112 110
116 116 120
116 116 120
116 116 120
113 112 110
113 112 110
113 112 110
113 112 110
113 112 110
116 116 120
116 116 120
116 116 120
118 118 122
118 118 122
116 116 120
116 116 120
113 112 110
113 112 110
113 112 110
113 112 110
113 112 110
116 116 120
116 116 120
118 118 122
116 116 120
116 116 120
116 116 120
102 102 105
102 102 105
102 102 105
113 112 110
68 68 71
0 0 0
113 112 110
102 102 105
0 0 0
1 1 1
0 0 0
0 0 0
0 0 0
0 0 0
0 0 0
0 0 0
0 0 0
0 0 0
0 0 0
0 0 0
0 0 0
0 0 0
0 0 0
0 0 0
0 0 0
0 0 0
0 0 0
0 0 0
0 0 0
0 0 0
0 0 0
0 0 0
0 0 0
0 0 0
0 0 0
0 0 0
0 0 0
0 0 0
0 0 0
0 0 0
0 0 0
0 0 0
0 0 0
0 0 0
0 0 0
0 0 0
0 0 0
0 0 0
0 0 0
0 0 0
0 0 0
0 0 0
0 0 0
0 0 0
0 0 0
0 0 0
0 0 0
0 0 0
0 0 0
0 0 0
0 0 0
0 0 0
0 0 0
0 0 0
0 0 0
0 0 0
0 0 0
0 0 0
0 0 0
0 0 0
0 0 0
0 0 0
0 0 0
0 0 0
0 0 0
0 0 0
0 0 0
0 0 0
0 0 0
0 0 0
0 0 0
0 0 0
0 0 0
0 0 0
0 0 0
0 0 0
0 0 0
0 0 0
0 0 0
0 0 0
0 0 0
0 0 0
0 0 0
0 0 0
0 0 0
0 0 0
0 0 0
0 0 0
0 0 0
0 0 0
0 0 0
0 0 0
0 0 0
0 0 0
0 0 0
0 0 0
0 0 0
0 0 0
0 0 0
0 0 0
0 0 0
0 0 0
0 0 0
0 0 0
0 0 0
0 0 0
0 0 0
0 0 0
0 0 0
0 0 0
0 0 0
0 0 0
0 0 0
0 0 0
0 0 0
0 0 0
0 0 0
0 0 0
0 0 0
0 0 0
1 1 1
0 0 0
102 102 105
102 102 105
0 0 0
84 83 84
130 130 134
118 118 122
130 130 134
122 122 126
71 72 76
39 39 41
32 32 35
37 37 37
34 34 31
34 34 31
32 32 35
28 31 34
28 31 34
28 31 34
32 32 35
34 34 31
34 34 31
34 34 31
32 32 35
34 34 31
32 32 35
32 32 35
32 32 35
32 32 35
37 37 37
37 37 37
37 37 37
28 31 34
28 31 34
28 31 34
28 31 34
28 31 34
28 31 34
28 31 34
28 31 34
28 31 34
32 32 35
33 33 38
37 37 37
32 32 35
32 32 35
32 32 35
28 31 34
28 31 34
34 34 31
32 32 35
32 32 35
32 32 35
32 32 35
32 32 35
32 32 35
32 32 35
32 32 35
32 32 35
32 32 35
34 34 31
32 32 35
51 51 55
94 95 98
135 135 140
113 112 110
20 21 23
22 22 23
44 44 49
44 44 49
47 45 50
47 45 50
48 48 50
48 48 50
48 48 50
48 48 50
51 51 55
51 51 55
51 51 55
51 51 55
51 51 55
51 51 55
51 51 55
51 51 55
48 48 50
48 48 50
48 48 50
48 48 50
48 48 50
48 48 50
48 48 50
48 48 50
48 48 50
48 48 50
48 48 50
51 51 55
51 51 55
48 48 50
48 48 50
48 48 50
48 48 50
48 48 50
48 48 50
48 48 50
48 48 50
45 45 50
47 45 50
47 45 50
47 45 50
47 45 50
47 45 50
47 45 50
47 45 50
48 48 50
47 45 50
45 45 50
45 45 50
47 45 50
47 45 50
48 48 50
48 48 50
48 48 50
48 48 50
48 48 50
47 45 50
47 45 50
48 48 50
48 48 50
48 48 50
48 48 50
28 31 34
10 10 12
94 95 98
135 135 140
113 112 110
68 68 71
37 37 37
32 32 35
32 32 35
37 37 37
32 32 35
32 32 35
32 32 35
28 31 34
28 31 34
32 32 35
34 34 31
32 32 35
32 32 35
28 31 34
28 28 27
28 28 27
32 32 35
37 37 37
37 37 37
32 32 35
32 32 35
28 31 34
28 28 27
26 26 29
26 26 29
26 26 29
26 26 29
28 31 34
28 31 34
32 32 35
32 32 35
32 32 35
32 32 35
32 32 35
32 32 35
32 32 35
32 32 35
32 32 35
32 32 35
32 32 35
34 34 31
32 32 35
28 31 34
28 31 34
28 31 34
32 32 35
32 32 35
34 34 31
32 32 35
37 37 37
32 32 35
33 33 38
68 68 71
113 112 110
116 116 120
113 112 110
116 116 120
68 68 71
0 0 0
116 116 120
102 102 105
0 0 0
1 1 1
0 0 0
0 0 0
0 0 0
0 0 0
0 0 0
0 0 0
0 0 0
0 0 0
0 0 0
0 0 0
0 0 0
0 0 0
0 0 0
0 0 0
0 0 0
0 0 0
0 0 0
0 0 0
0 0 0
0 0 0
0 0 0
0 0 0
0 0 0
0 0 0
0 0 0
0 0 0
0 0 0
0 0 0
0 0 0
0 0 0
0 0 0
0 0 0
0 0 0
0 0 0
0 0 0
0 0 0
0 0 0
0 0 0
0 0 0
0 0 0
0 0 0
0 0 0
0 0 0
0 0 0
0 0 0
0 0 0
0 0 0
0 0 0
0 0 0
0 0 0
0 0 0
0 0 0
0 0 0
0 0 0
0 0 0
0 0 0
0 0 0
0 0 0
0 0 0
0 0 0
0 0 0
0 0 0
0 0 0
0 0 0
0 0 0
0 0 0
0 0 0
0 0 0
0 0 0
0 0 0
0 0 0
0 0 0
0 0 0
0 0 0
0 0 0
0 0 0
0 0 0
0 0 0
0 0 0
0 0 0
0 0 0
0 0 0
0 0 0
0 0 0
0 0 0
0 0 0
0 0 0
0 0 0
0 0 0
0 0 0
0 0 0
0 0 0
0 0 0
0 0 0
0 0 0
0 0 0
0 0 0
0 0 0
0 0 0
0 0 0
0 0 0
0 0 0
0 0 0
0 0 0
0 0 0
0 0 0
0 0 0
0 0 0
0 0 0
0 0 0
0 0 0
0 0 0
0 0 0
0 0 0
0 0 0
0 0 0
0 0 0
0 0 0
0 0 0
0 0 0
1 1 1
0 0 0
94 95 98
102 102 105
0 0 0
88 87 91
130 130 134
122 122 126
113 112 110
28 28 27
9 9 9
20 21 23
22 22 23
22 22 23
22 22 23
24 24 28
24 24 28
26 26 29
26 26 29
26 26 29
26 26 29
24 24 28
24 24 28
24 24 28
24 24 28
24 24 28
26 26 29
32 32 35
32 32 35
20 21 23
6 15 11
3 4 4
0 2 0
10 0 2
21 3 8
21 3 8
21 3 8
21 3 8
21 3 8
21 3 8
10 0 2
2 0 0
2 4 2
6 15 11
16 17 21
24 24 28
28 31 34
28 31 34
26 26 29
26 26 29
26 26 29
24 24 28
24 24 28
24 24 28
26 26 29
26 26 29
26 26 29
26 26 29
26 26 29
26 26 29
26 26 29
26 26 29
19 18 19
9 9 9
6 6 7
79 79 83
135 135 140
102 102 105
12 12 13
10 11 12
26 26 29
26 26 29
26 26 29
24 24 28
24 24 28
26 26 29
26 26 29
26 26 29
26 26 29
26 26 29
26 26 29
26 26 29
26 26 29
26 26 29
26 26 29
26 26 29
26 26 29
24 24 28
24 24 28
24 24 28
24 24 28
24 24 28
24 24 28
24 24 28
26 26 29
26 26 29
26 26 29
26 26 29
26 26 29
24 24 28
24 24 28
26 26 29
24 24 28
24 24 28
26 26 29
24 24 28
24 24 28
24 24 28
24 24 28
24 24 28
24 24 28
24 24 28
24 24 28
24 24 28
24 24 28
24 24 28
24 24 28
24 24 28
24 24 28
24 24 28
24 24 28
24 24 28
24 24 28
24 24 28
24 24 28
24 24 28
24 24 28
24 24 28
26 26 29
26 26 29
19 18 19
7 7 7
88 87 91
130 130 134
94 95 98
18 18 18
6 6 7
16 17 21
24 24 28
24 24 28
26 26 29
26 26 29
26 26 29
26 26 29
24 24 28
24 24 28
24 24 28
24 24 28
26 26 29
28 31 34
26 26 29
26 26 29
26 26 29
26 26 29
24 24 28
16 17 21
6 15 11
0 2 0
2 0 0
10 0 2
21 3 8
51 1 16
51 1 16
21 3 8
21 3 8
10 0 2
1 0 0
0 3 1
5 5 6
7 19 14
26 26 29
32 32 35
32 32 35
26 26 29
24 24 28
24 24 28
24 24 28
24 24 28
24 24 28
24 24 28
24 24 28
26 26 29
26 26 29
26 26 29
26 26 29
26 26 29
26 26 29
24 24 28
19 18 19
6 6 7
24 24 28
102 102 105
113 112 110
116 116 120
68 68 71
0 0 0
116 116 120
94 95 98
0 0 0
1 1 1
0 0 0
0 0 0
0 0 0
0 0 0
0 0 0
0 0 0
0 0 0
0 0 0
0 0 0
0 0 0
0 0 0
0 0 0
0 0 0
0 0 0
0 0 0
0 0 0
0 0 0
0 0 0
0 0 0
0 0 0
0 0 0
0 0 0
0 0 0
0 0 0
0 0 0
0 0 0
0 0 0
0 0 0
0 0 0
0 0 0
0 0 0
0 0 0
0 0 0
0 0 0
0 0 0
0 0 0
0 0 0
0 0 0
0 0 0
0 0 0
0 0 0
0 0 0
0 0 0
0 0 0
0 0 0
0 0 0
0 0 0
0 0 0
0 0 0
0 0 0
0 0 0
0 0 0
0 0 0
0 0 0
0 0 0
0 0 0
0 0 0
0 0 0
0 0 0
0 0 0
0 0 0
0 0 0
0 0 0
0 0 0
0 0 0
0 0 0
0 0 0
0 0 0
0 0 0
0 0 0
0 0 0
0 0 0
0 0 0
0 0 0
0 0 0
0 0 0
0 0 0
0 0 0
0 0 0
0 0 0
0 0 0
0 0 0
0 0 0
0 0 0
0 0 0
0 0 0
0 0 0
0 0 0
0 0 0
0 0 0
0 0 0
0 0 0
0 0 0
0 0 0
0 0 0
0 0 0
0 0 0
0 0 0
0 0 0
0 0 0
0 0 0
0 0 0
0 0 0
0 0 0
0 0 0
0 0 0
0 0 0
0 0 0
0 0 0
0 0 0
0 0 0
0 0 0
0 0 0
0 0 0
0 0 0
0 0 0
0 0 0
0 0 0
0 0 0
0 0 0
1 1 1
0 0 0
94 95 98
102 102 105
0 0 0
84 83 84
130 130 134
116 116 120
23 23 23
12 12 13
45 45 50
43 43 48
32 32 35
28 31 34
41 41 46
42 41 47
43 43 48
44 44 49
45 45 50
44 44 49
44 44 49
43 43 48
42 41 47
41 41 46
43 43 48
47 45 50
41 41 46
28 31 34
16 17 21
32 22 13
56 0 15
125 5 39
162 2 52
208 7 67
227 2 72
229 3 74
227 2 72
227 2 72
227 2 72
227 2 72
211 3 68
208 7 67
162 2 52
90 1 28
51 1 16
13 13 13
16 17 21
34 35 40
51 51 55
51 51 55
44 44 49
43 43 48
43 43 48
43 43 48
43 43 48
44 44 49
44 44 49
44 44 49
43 43 48
44 44 49
36 36 40
28 31 34
39 39 41
48 48 50
33 33 38
6 5 6
91 91 95
135 135 140
102 102 105
45 45 44
45 45 44
44 42 44
44 42 44
44 42 44
39 39 41
39 39 41
39 39 41
39 39 41
39 39 41
41 41 46
39 39 41
39 39 41
39 39 41
44 42 44
44 42 44
39 39 41
39 39 41
39 39 41
39 39 41
39 39 41
39 39 41
39 39 41
39 39 41
39 39 41
39 39 41
39 39 41
39 39 41
37 37 37
39 39 41
39 39 41
39 39 41
39 39 41
37 37 37
37 37 37
37 37 37
39 39 41
39 39 41
39 39 41
39 39 41
39 39 41
39 39 41
39 39 41
39 39 41
39 39 41
39 39 41
37 37 37
37 37 37
39 39 41
39 39 41
39 39 41
39 39 41
39 39 41
39 39 41
39 39 41
39 39 41
39 39 41
39 39 41
39 39 41
39 39 41
44 42 44
39 39 41
91 91 95
132 132 135
102 102 105
12 12 13
20 21 23
42 41 47
39 39 41
28 31 34
36 36 40
43 43 48
42 41 47
43 43 48
44 44 49
44 44 49
43 43 48
43 43 48
43 43 48
43 43 48
47 45 50
54 54 58
51 51 55
28 31 34
7 19 14
21 3 8
56 0 15
125 5 39
165 6 52
208 7 67
211 3 68
229 3 74
235 2 74
235 2 74
227 2 72
211 3 68
208 7 67
169 0 49
162 2 52
90 1 28
51 1 16
14 14 14
20 21 23
39 39 41
48 48 50
47 45 50
41 41 46
41 41 46
41 41 46
42 41 47
42 41 47
43 43 48
43 43 48
43 43 48
42 41 47
43 43 48
41 41 46
28 31 34
36 36 40
48 48 50
48 48 50
12 12 13
28 31 34
113 112 110
118 118 122
68 68 71
0 0 0
118 118 122
91 91 95
0 0 0
2 2 2
0 0 0
0 0 0
0 0 0
0 0 0
0 0 0
0 0 0
0 0 0
0 0 0
0 0 0
0 0 0
0 0 0
0 0 0
0 0 0
0 0 0
0 0 0
0 0 0
0 0 0
0 0 0
0 0 0
0 0 0
0 0 0
0 0 0
0 0 0
0 0 0
0 0 0
0 0 0
0 0 0
0 0 0
0 0 0
0 0 0
0 0 0
0 0 0
0 0 0
0 0 0
0 0 0
0 0 0
0 0 0
0 0 0
0 0 0
0 0 0
0 0 0
0 0 0
0 0 0
0 0 0
0 0 0
0 0 0
0 0 0
0 0 0
0 0 0
0 0 0
0 0 0
0 0 0
0 0 0
0 0 0
0 0 0
0 0 0
0 0 0
0 0 0
0 0 0
0 0 0
0 0 0
0 0 0
0 0 0
0 0 0
0 0 0
0 0 0
0 0 0
0 0 0
0 0 0
0 0 0
0 0 0
0 0 0
0 0 0
0 0 0
0 0 0
0 0 0
0 0 0
0 0 0
0 0 0
0 0 0
0 0 0
0 0 0
0 0 0
0 0 0
0 0 0
0 0 0
0 0 0
0 0 0
0 0 0
0 0 0
0 0 0
0 0 0
0 0 0
0 0 0
0 0 0
0 0 0
0 0 0
0 0 0
0 0 0
0 0 0
0 0 0
0 0 0
0 0 0
0 0 0
0 0 0
0 0 0
0 0 0
0 0 0
0 0 0
0 0 0
0 0 0
0 0 0
0 0 0
0 0 0
0 0 0
0 0 0
0 0 0
0 0 0
0 0 0
0 0 0
1 1 1
0 0 0
94 95 98
113 112 110
0 0 0
82 82 81
139 138 142
84 83 84
3 2 3
39 39 41
33 33 38
7 8 10
0 0 0
1 1 1
9 9 9
39 39 41
41 41 46
41 41 46
42 41 47
42 41 47
41 41 46
41 41 46
41 41 46
42 41 47
33 33 38
7 19 14
21 3 8
89 6 27
162 2 52
211 3 68
246 4 78
248 3 80
248 3 80
235 2 74
229 3 74
227 2 72
211 3 68
208 7 67
210 2 67
227 2 72
229 3 74
246 4 78
248 3 80
246 4 78
227 2 72
169 0 49
125 1 38
51 1 16
7 19 14
28 31 34
42 41 47
43 43 48
41 41 46
41 41 46
41 41 46
41 41 46
39 39 41
39 39 41
39 39 41
19 18 19
0 0 0
6 6 7
4 4 6
33 33 38
51 51 55
20 21 23
28 28 27
130 130 134
132 132 135
135 135 140
135 135 140
132 132 135
132 132 135
135 135 140
135 135 140
135 135 137
135 135 140
135 135 140
135 135 140
135 135 140
135 135 140
135 135 140
135 135 140
135 135 140
139 138 142
139 138 142
139 138 142
139 138 142
135 135 140
135 135 140
135 135 140
135 135 140
135 135 140
135 135 140
135 135 140
135 135 140
135 135 140
135 135 140
135 135 140
132 132 135
132 132 135
132 132 135
132 132 135
132 132 135
130 130 134
130 130 134
132 132 135
132 132 135
132 132 135
135 135 137
135 135 137
135 135 137
132 132 135
132 132 135
132 132 135
132 132 135
132 132 135
135 135 140
135 135 140
135 135 140
135 135 140
135 135 140
135 135 140
135 135 140
135 135 140
135 135 140
135 135 140
130 130 134
124 124 125
130 130 134
132 132 135
130 130 134
132 132 135
51 51 55
9 6 9
39 39 41
28 31 34
5 5 6
10 10 12
5 5 6
17 16 17
41 41 46
41 41 46
41 41 46
41 41 46
42 41 47
41 41 46
41 41 46
43 43 48
39 39 41
20 21 23
16 15 16
89 6 27
162 2 52
208 7 67
235 2 74
248 3 80
248 3 80
247 2 78
229 3 74
211 3 68
211 3 68
211 3 68
227 2 72
227 2 72
227 2 72
246 4 78
248 3 80
248 3 80
227 2 72
169 0 49
125 1 38
51 1 16
6 15 11
26 26 29
42 41 47
42 41 47
39 39 41
41 41 46
41 41 46
41 41 46
41 41 46
41 41 46
39 39 41
28 31 34
1 1 1
7 7 7
1 0 0
20 21 23
45 45 50
45 45 50
4 4 6
79 79 83
122 122 126
59 64 62
0 0 0
118 118 122
91 91 95
0 0 0
2 2 2
0 0 0
0 0 0
0 0 0
0 0 0
0 0 0
0 0 0
0 0 0
0 0 0
0 0 0
0 0 0
0 0 0
0 0 0
0 0 0
0 0 0
0 0 0
0 0 0
0 0 0
0 0 0
0 0 0
0 0 0
0 0 0
0 0 0
0 0 0
0 0 0
0 0 0
0 0 0
0 0 0
0 0 0
0 0 0
0 0 0
0 0 0
0 0 0
0 0 0
0 0 0
0 0 0
0 0 0
0 0 0
0 0 0
0 0 0
0 0 0
0 0 0
0 0 0
0 0 0
0 0 0
0 0 0
0 0 0
0 0 0
0 0 0
0 0 0
0 0 0
0 0 0
0 0 0
0 0 0
0 0 0
0 0 0
0 0 0
0 0 0
0 0 0
0 0 0
0 0 0
0 0 0
0 0 0
0 0 0
0 0 0
0 0 0
0 0 0
0 0 0
0 0 0
0 0 0
0 0 0
0 0 0
0 0 0
0 0 0
0 0 0
0 0 0
0 0 0
0 0 0
0 0 0
0 0 0
0 0 0
0 0 0
0 0 0
0 0 0
0 0 0
0 0 0
0 0 0
0 0 0
0 0 0
0 0 0
0 0 0
0 0 0
0 0 0
0 0 0
0 0 0
0 0 0
0 0 0
0 0 0
0 0 0
0 0 0
0 0 0
0 0 0
0 0 0
0 0 0
0 0 0
0 0 0
0 0 0
0 0 0
0 0 0
0 0 0
0 0 0
0 0 0
0 0 0
0 0 0
0 0 0
0 0 0
0 0 0
0 0 0
0 0 0
0 0 0
0 0 0
1 1 1
0 0 0
94 95 98
113 112 110
0 0 0
74 74 77
144 143 148
59 64 62
14 14 14
47 45 50
18 17 18
20 21 23
183 187 147
94 95 98
16 15 16
20 21 23
45 45 50
41 41 46
41 41 46
41 41 46
41 41 46
47 45 50
39 39 41
7 19 14
21 3 8
125 1 38
208 7 67
246 4 78
248 3 80
235 2 74
208 7 67
162 2 52
90 1 28
56 0 15
51 1 16
21 3 8
21 3 8
21 3 8
21 3 8
21 3 8
56 0 15
90 1 28
125 1 38
169 0 49
227 2 72
248 3 80
248 3 80
227 2 72
125 5 39
51 1 16
6 15 11
28 31 34
47 45 50
43 43 48
41 41 46
41 41 46
39 39 41
39 39 41
28 31 34
0 0 0
139 138 142
130 130 134
28 31 34
12 12 13
48 48 50
41 41 46
7 8 10
113 112 110
130 130 134
122 122 126
122 122 126
130 130 134
130 130 134
116 116 120
116 116 120
116 116 120
116 116 120
116 116 120
116 116 120
116 116 120
116 116 120
116 116 120
116 116 120
116 116 120
116 116 120
118 118 122
118 118 122
116 116 120
116 116 120
116 116 120
116 116 120
116 116 120
116 116 120
116 116 120
116 116 120
116 116 120
116 116 120
116 116 120
116 116 120
113 112 110
113 112 110
113 112 110
113 112 110
113 112 110
113 112 110
113 112 110
113 112 110
116 116 120
116 116 120
113 112 110
113 112 110
113 112 110
113 112 110
113 112 110
113 112 110
113 112 110
116 116 120
116 116 120
116 116 120
116 116 120
116 116 120
116 116 120
116 116 120
116 116 120
118 118 122
118 118 122
118 118 122
122 122 126
124 124 125
118 118 122
122 122 126
124 124 125
122 122 126
19 18 19
28 31 34
43 43 48
7 8 10
59 58 59
192 194 187
79 79 83
6 6 5
26 26 29
41 41 46
41 41 46
41 41 46
41 41 46
47 45 50
47 45 50
24 24 28
10 8 10
90 1 28
169 0 49
248 3 80
248 3 80
246 4 78
208 7 67
162 2 52
90 1 28
89 6 27
51 1 16
21 3 8
21 3 8
21 3 8
21 3 8
21 3 8
56 0 15
90 1 28
125 1 38
169 0 49
227 2 72
246 4 78
248 3 80
227 2 72
162 2 52
56 0 15
6 15 11
28 31 34
47 45 50
42 41 47
41 41 46
41 41 46
41 41 46
41 41 46
43 43 48
4 4 6
59 64 62
192 194 187
59 64 62
4 3 3
32 32 35
54 54 58
14 14 14
59 64 62
130 130 134
59 58 59
0 0 0
122 122 126
88 87 91
0 0 0
2 2 2
0 0 0
0 0 0
0 0 0
0 0 0
0 0 0
0 0 0
0 0 0
0 0 0
0 0 0
0 0 0
0 0 0
0 0 0
0 0 0
0 0 0
0 0 0
0 0 0
0 0 0
0 0 0
0 0 0
0 0 0
0 0 0
0 0 0
0 0 0
0 0 0
0 0 0
0 0 0
0 0 0
0 0 0
0 0 0
0 0 0
0 0 0
0 0 0
0 0 0
0 0 0
0 0 0
0 0 0
0 0 0
0 0 0
0 0 0
0 0 0
0 0 0
0 0 0
0 0 0
0 0 0
0 0 0
0 0 0
0 0 0
0 0 0
0 0 0
0 0 0
0 0 0
0 0 0
0 0 0
0 0 0
0 0 0
0 0 0
0 0 0
0 0 0
0 0 0
0 0 0
0 0 0
0 0 0
0 0 0
0 0 0
0 0 0
0 0 0
0 0 0
0 0 0
0 0 0
0 0 0
0 0 0
0 0 0
0 0 0
0 0 0
0 0 0
0 0 0
0 0 0
0 0 0
0 0 0
0 0 0
0 0 0
0 0 0
0 0 0
0 0 0
0 0 0
0 0 0
0 0 0
0 0 0
0 0 0
0 0 0
0 0 0
0 0 0
0 0 0
0 0 0
0 0 0
0 0 0
0 0 0
0 0 0
0 0 0
0 0 0
0 0 0
0 0 0
0 0 0
0 0 0
0 0 0
0 0 0
0 0 0
0 0 0
0 0 0
0 0 0
0 0 0
0 0 0
0 0 0
0 0 0
0 0 0
0 0 0
0 0 0
0 0 0
0 0 0
0 0 0
1 1 1
0 0 0
90 90 92
113 112 110
0 0 0
68 68 71
135 135 140
59 58 59
16 15 16
51 51 55
13 13 13
28 31 34
130 130 134
102 102 105
32 32 35
22 22 23
48 48 50
41 41 46
39 39 41
41 41 46
44 44 49
24 24 28
9 6 9
90 1 28
210 2 67
248 3 80
248 3 80
210 2 67
125 1 38
56 0 15
10 0 2
0 1 0
0 0 0
0 0 0
0 0 0
0 0 0
0 0 0
0 0 0
0 0 0
0 0 0
0 0 0
0 0 0
0 1 0
0 1 0
21 3 8
90 1 28
165 6 52
227 2 72
246 4 78
229 3 74
162 2 52
51 1 16
16 17 21
41 41 46
43 43 48
39 39 41
39 39 41
41 41 46
24 24 28
1 1 1
102 102 105
122 122 126
59 58 59
10 10 12
54 54 58
43 43 48
12 12 13
113 112 110
130 130 134
124 124 125
135 135 137
88 87 91
23 23 23
2 2 2
3 3 2
3 3 3
3 3 3
3 3 3
3 3 3
3 3 2
2 2 2
2 2 2
2 2 2
2 2 2
3 3 3
4 3 3
3 3 3
2 2 2
3 3 2
3 2 3
2 2 2
3 3 3
3 3 3
2 2 2
2 2 2
2 2 2
2 2 2
3 3 2
3 3 2
3 3 3
3 2 3
2 2 2
3 3 3
2 3 2
2 2 2
2 2 2
2 2 2
3 3 2
4 3 3
3 3 3
2 2 2
1 1 1
0 0 0
1 1 1
2 1 1
2 2 2
2 2 2
2 2 2
2 2 2
2 2 1
2 2 1
2 2 2
2 2 2
2 3 2
3 4 4
6 6 5
3 3 3
23 23 23
84 83 84
130 130 134
124 124 125
130 130 134
118 118 122
18 17 18
36 36 40
48 48 50
6 6 7
59 58 59
130 130 134
88 87 91
7 8 10
26 26 29
43 43 48
39 39 41
41 41 46
44 44 49
34 35 40
7 19 14
90 1 28
208 7 67
247 6 78
248 3 80
210 2 67
125 5 39
56 0 15
10 0 2
0 1 0
0 0 0
0 0 0
0 0 0
0 0 0
0 0 0
0 0 0
0 0 0
0 0 0
0 0 0
0 0 0
0 1 0
0 1 0
51 1 16
90 1 28
165 6 52
229 3 74
248 3 80
235 2 74
162 2 52
51 1 16
7 19 14
41 41 46
42 41 47
39 39 41
39 39 41
41 41 46
44 44 49
0 0 0
59 64 62
130 130 134
94 95 98
7 7 7
32 32 35
48 48 50
14 14 14
59 64 62
130 130 134
59 58 59
0 0 0
124 124 125
88 87 91
0 0 0
2 2 2
0 0 0
0 0 0
0 0 0
0 0 0
0 0 0
0 0 0
0 0 0
0 0 0
0 0 0
0 0 0
0 0 0
0 0 0
0 0 0
0 0 0
0 0 0
0 0 0
0 0 0
0 0 0
0 0 0
0 0 0
0 0 0
0 0 0
0 0 0
0 0 0
0 0 0
0 0 0
0 0 0
0 0 0
0 0 0
0 0 0
0 0 0
0 0 0
0 0 0
0 0 0
0 0 0
0 0 0
0 0 0
0 0 0
0 0 0
0 0 0
0 0 0
0 0 0
0 0 0
0 0 0
0 0 0
0 0 0
0 0 0
0 0 0
0 0 0
0 0 0
0 0 0
0 0 0
0 0 0
0 0 0
0 0 0
0 0 0
0 0 0
0 0 0
0 0 0
0 0 0
0 0 0
0 0 0
0 0 0
0 0 0
0 0 0
0 0 0
0 0 0
0 0 0
0 0 0
0 0 0
0 0 0
0 0 0
0 0 0
0 0 0
0 0 0
0 0 0
0 0 0
0 0 0
0 0 0
0 0 0
0 0 0
0 0 0
0 0 0
0 0 0
0 0 0
0 0 0
0 0 0
0 0 0
0 0 0
0 0 0
0 0 0
0 0 0
0 0 0
0 0 0
0 0 0
0 0 0
0 0 0
0 0 0
0 0 0
0 0 0
0 0 0
0 0 0
0 0 0
0 0 0
0 0 0
0 0 0
0 0 0
0 0 0
0 0 0
0 0 0
0 0 0
0 0 0
0 0 0
0 0 0
0 0 0
0 0 0
0 0 0
0 0 0
0 0 0
0 0 0
2 2 2
0 0 0
88 87 91
113 112 110
0 0 0
68 68 71
139 138 142
59 58 59
14 14 14
51 51 55
32 32 35
1 1 1
24 24 28
26 26 29
4 4 6
54 54 58
41 41 46
39 39 41
42 41 47
41 41 46
7 19 14
51 1 16
169 0 49
248 3 80
247 2 78
208 7 67
90 1 28
21 3 8
0 1 0
0 0 0
0 0 0
0 0 0
2 0 0
12 11 11
19 18 19
22 22 23
26 26 29
26 26 29
24 24 28
19 18 19
9 6 9
3 2 3
0 0 0
0 0 0
0 0 0
0 0 0
0 0 0
56 0 15
162 2 52
235 2 74
248 3 80
211 3 68
90 1 28
5 5 6
28 31 34
42 41 47
39 39 41
41 41 46
39 39 41
7 7 7
12 12 13
39 39 41
3 3 3
48 48 50
48 48 50
34 35 40
6 6 7
102 102 105
130 130 134
132 132 135
71 72 76
0 0 0
27 27 24
71 72 76
74 74 77
76 77 81
82 82 81
79 79 83
79 79 83
79 79 83
82 82 81
82 82 81
79 79 83
79 79 83
76 77 81
76 77 81
76 77 81
76 77 81
79 79 83
82 82 81
84 83 84
84 83 84
79 79 83
79 79 83
82 82 81
82 82 81
79 79 83
79 79 83
79 79 83
79 79 83
79 79 83
79 79 83
79 79 83
82 82 81
84 83 84
84 83 84
82 82 81
79 79 83
76 77 81
79 79 83
79 79 83
79 79 83
84 83 84
84 83 84
84 83 84
84 83 84
82 82 81
79 79 83
79 79 83
82 82 81
79 79 83
79 79 83
79 79 83
79 79 83
79 79 83
76 77 81
71 72 76
26 26 29
0 0 0
68 68 71
132 132 135
124 124 125
113 112 110
10 10 12
32 32 35
42 41 47
24 24 28
0 0 0
32 32 35
18 17 18
20 20 18
59 58 59
41 41 46
41 41 46
42 41 47
20 21 23
21 3 8
162 2 52
248 3 80
248 3 80
211 3 68
125 1 38
21 3 8
0 1 0
0 0 0
0 0 0
0 0 0
2 0 0
9 6 9
18 17 18
20 21 23
24 24 28
24 24 28
20 21 23
16 15 16
9 6 9
2 1 1
0 0 0
0 0 0
0 0 0
0 0 0
1 0 0
56 0 15
162 2 52
229 3 74
248 3 80
227 2 72
90 1 28
7 7 7
28 31 34
42 41 47
39 39 41
41 41 46
44 44 49
23 23 23
3 3 3
37 37 37
18 18 18
20 21 23
59 64 62
42 41 47
14 14 14
59 64 62
130 130 134
54 54 58
0 0 0
130 130 134
88 87 91
0 0 0
2 2 2
0 0 0
0 0 0
0 0 0
0 0 0
0 0 0
0 0 0
0 0 0
0 0 0
0 0 0
0 0 0
0 0 0
0 0 0
0 0 0
0 0 0
0 0 0
0 0 0
0 0 0
0 0 0
0 0 0
0 0 0
0 0 0
0 0 0
0 0 0
0 0 0
0 0 0
0 0 0
0 0 0
0 0 0
0 0 0
0 0 0
0 0 0
0 0 0
0 0 0
0 0 0
0 0 0
0 0 0
0 0 0
0 0 0
0 0 0
0 0 0
0 0 0
0 0 0
0 0 0
0 0 0
0 0 0
0 0 0
0 0 0
0 0 0
0 0 0
0 0 0
0 0 0
0 0 0
0 0 0
0 0 0
0 0 0
0 0 0
0 0 0
0 0 0
0 0 0
0 0 0
0 0 0
0 0 0
0 0 0
0 0 0
0 0 0
0 0 0
0 0 0
0 0 0
0 0 0
0 0 0
0 0 0
0 0 0
0 0 0
0 0 0
0 0 0
0 0 0
0 0 0
0 0 0
0 0 0
0 0 0
0 0 0
0 0 0
0 0 0
0 0 0
0 0 0
0 0 0
0 0 0
0 0 0
0 0 0
0 0 0
0 0 0
0 0 0
0 0 0
0 0 0
0 0 0
0 0 0
0 0 0
0 0 0
0 0 0
0 0 0
0 0 0
0 0 0
0 0 0
0 0 0
0 0 0
0 0 0
0 0 0
0 0 0
0 0 0
0 0 0
0 0 0
0 0 0
0 0 0
0 0 0
0 0 0
0 0 0
0 0 0
0 0 0
0 0 0
0 0 0
2 2 2
0 0 0
88 87 91
116 116 120
0 0 0
68 68 71
139 138 142
54 54 58
12 12 13
45 45 50
43 43 48
43 43 48
28 28 27
32 32 35
68 68 71
54 54 58
36 36 40
47 45 50
39 39 41
7 8 10
90 1 28
229 3 74
248 3 80
211 3 68
90 1 28
10 0 2
0 1 0
0 0 0
2 0 0
7 7 7
28 28 27
54 54 58
79 79 83
91 91 95
88 87 91
79 79 83
76 77 81
79 79 83
79 79 83
71 72 76
68 68 71
59 58 59
44 44 49
26 26 29
7 7 7
0 0 0
0 0 0
0 1 0
0 1 0
56 0 15
169 0 49
235 2 74
229 3 74
162 2 52
21 3 8
20 21 23
47 45 50
41 41 46
44 44 49
51 51 55
37 37 37
26 26 29
59 58 59
59 64 62
33 33 38
33 33 38
3 3 3
102 102 105
135 135 140
102 102 105
0 0 0
44 42 44
130 130 134
102 102 105
79 79 83
90 90 92
91 91 95
91 91 95
90 90 92
90 90 92
91 91 95
90 90 92
90 90 92
90 90 92
88 87 91
88 87 91
88 87 91
88 87 91
90 90 92
91 91 95
91 91 95
90 90 92
88 87 91
90 90 92
91 91 95
91 91 95
90 90 92
88 87 91
88 87 91
90 90 92
90 90 92
88 87 91
88 87 91
90 90 92
90 90 92
91 91 95
91 91 95
88 87 91
84 83 84
84 83 84
90 90 92
91 91 95
94 95 98
94 95 98
91 91 95
90 90 92
90 90 92
91 91 95
91 91 95
91 91 95
90 90 92
91 91 95
91 91 95
94 95 98
91 91 95
88 87 91
94 95 98
122 122 126
47 45 50
0 0 0
102 102 105
132 132 135
113 112 110
12 12 13
32 32 35
39 39 41
41 41 46
36 36 40
20 21 23
39 39 41
79 79 83
51 51 55
43 43 48
47 45 50
7 19 14
51 1 16
208 7 67
248 3 80
227 2 72
125 1 38
21 3 8
0 1 0
0 0 0
0 0 0
6 5 6
32 32 35
59 58 59
76 77 81
84 83 84
79 79 83
74 74 77
74 74 77
74 74 77
71 72 76
68 68 71
68 68 71
59 58 59
43 43 48
22 22 23
5 5 6
0 0 0
0 0 0
0 0 0
0 0 0
56 0 15
169 0 49
248 3 80
246 4 78
162 2 52
21 3 8
16 17 21
42 41 47
41 41 46
42 41 47
48 48 50
44 42 44
26 26 29
41 41 46
79 79 83
51 51 55
43 43 48
10 11 12
59 64 62
130 130 134
54 54 58
0 0 0
132 132 135
84 83 84
0 0 0
2 2 2
0 0 0
0 0 0
0 0 0
0 0 0
0 0 0
0 0 0
0 0 0
0 0 0
0 0 0
0 0 0
0 0 0
0 0 0
0 0 0
0 0 0
0 0 0
0 0 0
0 0 0
0 0 0
0 0 0
0 0 0
0 0 0
0 0 0
0 0 0
0 0 0
0 0 0
0 0 0
0 0 0
0 0 0
0 0 0
0 0 0
0 0 0
0 0 0
0 0 0
0 0 0
0 0 0
0 0 0
0 0 0
0 0 0
0 0 0
0 0 0
0 0 0
0 0 0
0 0 0
0 0 0
0 0 0
0 0 0
0 0 0
0 0 0
0 0 0
0 0 0
0 0 0
0 0 0
0 0 0
0 0 0
0 0 0
0 0 0
0 0 0
0 0 0
0 0 0
0 0 0
0 0 0
0 0 0
0 0 0
0 0 0
0 0 0
0 0 0
0 0 0
0 0 0
0 0 0
0 0 0
0 0 0
0 0 0
0 0 0
0 0 0
0 0 0
0 0 0
0 0 0
0 0 0
0 0 0
0 0 0
0 0 0
0 0 0
0 0 0
0 0 0
0 0 0
0 0 0
0 0 0
0 0 0
0 0 0
0 0 0
0 0 0
0 0 0
0 0 0
0 0 0
0 0 0
0 0 0
0 0 0
0 0 0
0 0 0
0 0 0
0 0 0
0 0 0
0 0 0
0 0 0
0 0 0
0 0 0
0 0 0
0 0 0
0 0 0
0 0 0
0 0 0
0 0 0
0 0 0
0 0 0
0 0 0
0 0 0
0 0 0
0 0 0
0 0 0
0 0 0
2 2 2
0 0 0
85 86 83
116 116 120
0 0 0
68 68 71
139 138 142
59 58 59
12 12 13
47 45 50
41 41 46
47 45 50
59 58 59
68 68 71
54 54 58
41 41 46
47 45 50
34 35 40
9 6 9
125 1 38
248 3 80
246 4 78
162 2 52
21 3 8
0 1 0
0 0 0
0 0 0
22 22 23
54 54 58
76 77 81
84 83 84
79 79 83
68 68 71
48 48 50
33 33 38
32 32 35
34 35 40
34 35 40
34 35 40
34 35 40
39 39 41
51 51 55
59 58 59
59 58 59
51 51 55
32 32 35
12 11 11
2 0 0
2 0 0
0 1 0
3 2 0
125 1 38
211 3 68
246 4 78
208 7 67
51 1 16
20 21 23
47 45 50
42 41 47
45 45 50
54 54 58
59 64 62
51 51 55
36 36 40
41 41 46
36 36 40
4 4 6
102 102 105
144 143 148
68 68 71
4 3 3
116 116 120
68 68 71
0 0 0
0 0 0
0 0 0
0 0 0
0 0 0
0 0 0
0 0 0
0 0 0
0 0 0
0 0 0
0 0 0
0 0 0
0 0 0
0 0 0
0 0 0
0 0 0
0 0 0
0 0 0
0 0 0
0 0 0
0 0 0
0 0 0
0 0 0
0 0 0
0 0 0
0 0 0
0 0 0
0 0 0
0 0 0
0 0 0
0 0 0
0 0 0
0 0 0
0 0 0
0 0 0
0 0 0
0 0 0
0 0 0
0 0 0
0 0 0
0 0 0
0 0 0
0 0 0
0 0 0
0 0 0
0 0 0
0 0 0
0 0 0
0 0 0
0 0 0
0 0 0
0 0 0
0 0 0
0 0 0
71 72 76
116 116 120
4 4 6
59 64 62
139 138 142
116 116 120
13 13 13
33 33 38
41 41 46
36 36 40
41 41 46
54 54 58
59 64 62
44 44 49
39 39 41
44 44 49
7 19 14
90 1 28
227 2 72
247 2 78
169 0 49
51 1 16
0 2 0
0 0 0
0 0 0
19 18 19
54 54 58
79 79 83
88 87 91
76 77 81
59 64 62
44 44 49
33 33 38
33 33 38
36 36 40
39 39 41
36 36 40
33 33 38
42 41 47
54 54 58
59 64 62
59 58 59
51 51 55
36 36 40
14 14 14
1 0 0
0 0 0
0 0 0
10 0 2
125 5 39
227 2 72
246 4 78
208 7 67
51 1 16
7 19 14
47 45 50
43 43 48
42 41 47
48 48 50
59 64 62
68 68 71
47 45 50
39 39 41
43 43 48
10 10 12
59 64 62
130 130 134
51 51 55
0 0 0
132 132 135
79 79 83
0 0 0
2 2 2
0 0 0
0 0 0
0 0 0
0 0 0
0 0 0
0 0 0
0 0 0
0 0 0
0 0 0
0 0 0
0 0 0
0 0 0
0 0 0
0 0 0
0 0 0
0 0 0
0 0 0
0 0 0
0 0 0
0 0 0
0 0 0
0 0 0
0 0 0
0 0 0
0 0 0
0 0 0
0 0 0
0 0 0
0 0 0
0 0 0
0 0 0
0 0 0
0 0 0
0 0 0
0 0 0
0 0 0
0 0 0
0 0 0
0 0 0
0 0 0
0 0 0
0 0 0
0 0 0
0 0 0
0 0 0
0 0 0
0 0 0
0 0 0
0 0 0
0 0 0
0 0 0
0 0 0
0 0 0
0 0 0
0 0 0
0 0 0
0 0 0
0 0 0
0 0 0
0 0 0
0 0 0
0 0 0
0 0 0
0 0 0
0 0 0
0 0 0
0 0 0
0 0 0
0 0 0
0 0 0
0 0 0
0 0 0
0 0 0
0 0 0
0 0 0
0 0 0
0 0 0
0 0 0
0 0 0
0 0 0
0 0 0
0 0 0
0 0 0
0 0 0
0 0 0
0 0 0
0 0 0
0 0 0
0 0 0
0 0 0
0 0 0
0 0 0
0 0 0
0 0 0
0 0 0
0 0 0
0 0 0
0 0 0
0 0 0
0 0 0
0 0 0
0 0 0
0 0 0
0 0 0
0 0 0
0 0 0
0 0 0
0 0 0
0 0 0
0 0 0
0 0 0
0 0 0
0 0 0
0 0 0
0 0 0
0 0 0
0 0 0
0 0 0
0 0 0
0 0 0
2 2 2
0 0 0
84 83 84
118 118 122
0 0 0
68 68 71
144 143 148
59 64 62
12 12 13
44 44 49
39 39 41
39 39 41
36 36 40
36 36 40
39 39 41
44 44 49
28 31 34
10 0 2
162 2 52
248 3 80
229 3 74
90 1 28
0 1 0
0 0 0
0 0 0
15 15 14
59 64 62
88 87 91
71 72 76
48 48 50
33 33 38
24 24 28
16 15 16
13 13 13
2 1 2
6 5 6
16 15 16
2 2 2
5 5 6
10 10 10
5 5 6
16 15 16
24 24 28
26 26 29
41 41 46
51 51 55
54 54 58
36 36 40
9 9 9
0 0 0
0 0 0
0 0 0
56 0 15
210 2 67
246 4 78
208 7 67
51 1 16
16 17 21
47 45 50
41 41 46
36 36 40
34 35 40
36 36 40
41 41 46
41 41 46
36 36 40
3 4 4
102 102 105
139 138 142
48 48 50
12 12 13
122 122 126
20 21 23
0 0 1
6 6 7
6 6 7
6 6 7
5 5 6
6 6 7
5 5 6
5 4 7
5 5 6
5 5 6
5 5 6
5 4 7
4 4 8
5 5 6
5 5 6
4 4 6
5 4 7
9 6 9
9 6 9
9 6 9
5 5 6
5 5 6
5 5 6
5 5 6
5 5 6
5 5 6
4 4 8
5 4 7
5 4 7
5 5 6
5 5 6
5 5 6
5 4 7
5 5 6
5 4 7
4 4 8
4 4 6
5 5 6
5 4 7
7 7 7
9 6 9
9 6 9
9 6 9
5 4 7
4 4 8
5 4 7
5 5 6
5 5 6
5 5 6
5 4 7
5 5 6
5 4 7
7 8 10
1 1 1
27 27 24
124 124 125
17 16 17
47 45 50
135 135 140
116 116 120
12 11 11
32 32 35
39 39 41
39 39 41
36 36 40
33 33 38
33 33 38
36 36 40
39 39 41
6 15 11
125 1 38
246 4 78
248 3 80
162 2 52
10 0 2
0 0 0
0 0 0
12 12 13
59 64 62
94 95 98
76 77 81
48 48 50
28 31 34
26 26 29
17 16 17
3 3 3
12 11 11
12 12 13
2 2 2
12 11 11
12 11 11
2 1 2
12 11 11
23 23 23
19 18 19
26 26 29
41 41 46
54 54 58
59 58 59
33 33 38
7 8 10
1 0 0
0 0 0
0 1 0
56 0 15
208 7 67
248 3 80
227 2 72
56 0 15
16 17 21
44 44 49
39 39 41
36 36 40
33 33 38
36 36 40
39 39 41
41 41 46
45 45 50
10 11 12
68 68 71
130 130 134
51 51 55
0 0 0
132 132 135
74 74 77
0 0 0
2 2 2
0 0 0
0 0 0
0 0 0
0 0 0
0 0 0
0 0 0
0 0 0
0 0 0
0 0 0
0 0 0
0 0 0
0 0 0
0 0 0
0 0 0
0 0 0
0 0 0
0 0 0
0 0 0
0 0 0
0 0 0
0 0 0
0 0 0
0 0 0
0 0 0
0 0 0
0 0 0
0 0 0
0 0 0
0 0 0
0 0 0
0 0 0
0 0 0
0 0 0
0 0 0
0 0 0
0 0 0
0 0 0
0 0 0
0 0 0
0 0 0
0 0 0
0 0 0
0 0 0
0 0 0
0 0 0
0 0 0
0 0 0
0 0 0
0 0 0
0 0 0
0 0 0
0 0 0
0 0 0
0 0 0
0 0 0
0 0 0
0 0 0
0 0 0
0 0 0
0 0 0
0 0 0
0 0 0
0 0 0
0 0 0
0 0 0
0 0 0
0 0 0
0 0 0
0 0 0
0 0 0
0 0 0
0 0 0
0 0 0
0 0 0
0 0 0
0 0 0
0 0 0
0 0 0
0 0 0
0 0 0
0 0 0
0 0 0
0 0 0
0 0 0
0 0 0
0 0 0
0 0 0
0 0 0
0 0 0
0 0 0
0 0 0
0 0 0
0 0 0
0 0 0
0 0 0
0 0 0
0 0 0
0 0 0
0 0 0
0 0 0
0 0 0
0 0 0
0 0 0
0 0 0
0 0 0
0 0 0
0 0 0
0 0 0
0 0 0
0 0 0
0 0 0
0 0 0
0 0 0
0 0 0
0 0 0
0 0 0
0 0 0
0 0 0
0 0 0
0 0 0
2 2 2
0 0 0
82 82 81
118 118 122
0 0 0
68 68 71
144 143 148
59 64 62
10 10 12
42 41 47
39 39 41
39 39 41
41 41 46
41 41 46
44 44 49
34 35 40
9 6 9
162 2 52
248 3 80
227 2 72
89 6 27
0 1 0
1 0 0
2 1 2
51 51 55
91 91 95
74 74 77
43 43 48
24 24 28
19 18 19
12 11 11
4 3 3
10 10 10
13 13 13
3 3 2
15 13 11
20 20 18
2 2 2
6 6 5
12 11 11
1 1 1
9 9 9
20 20 18
4 3 3
16 15 16
33 33 38
41 41 46
51 51 55
48 48 50
23 23 23
2 2 2
2 0 0
0 1 0
21 3 8
208 7 67
248 3 80
211 3 68
51 1 16
20 21 23
47 45 50
41 41 46
42 41 47
41 41 46
39 39 41
41 41 46
39 39 41
5 5 6
102 102 105
135 135 140
44 44 49
10 11 12
122 122 126
19 19 18
0 0 1
6 6 7
5 5 6
5 5 6
4 4 8
4 4 8
4 4 8
4 4 6
4 4 8
4 4 6
4 4 8
4 4 8
4 4 8
4 4 8
4 4 8
4 4 8
1 2 4
0 3 1
2 4 2
0 3 1
4 4 8
5 4 7
4 4 8
4 4 6
4 4 6
4 4 6
4 4 6
4 4 8
4 4 8
4 4 6
4 4 8
4 4 8
4 4 8
4 4 8
4 4 6
4 4 6
4 4 6
4 4 6
4 4 8
1 2 4
0 3 1
0 3 1
2 4 2
4 4 8
4 4 8
4 4 8
4 4 8
4 4 6
4 4 8
4 4 8
4 4 8
5 4 7
6 6 7
1 1 1
23 23 23
122 122 126
14 14 14
43 43 48
130 130 134
113 112 110
10 10 10
33 33 38
41 41 46
39 39 41
39 39 41
39 39 41
41 41 46
42 41 47
6 15 11
90 1 28
248 3 80
247 2 78
125 5 39
1 1 0
0 0 0
2 0 0
44 42 44
88 87 91
79 79 83
51 51 55
32 32 35
17 16 17
6 6 5
18 18 18
15 15 14
2 2 2
17 16 16
17 16 16
2 2 2
10 10 10
12 12 13
2 2 2
12 11 11
18 18 18
1 1 1
3 3 3
22 22 23
26 26 29
36 36 40
48 48 50
51 51 55
28 31 34
3 4 4
2 0 0
0 1 0
21 3 8
169 0 49
246 4 78
227 2 72
56 0 15
7 19 14
42 41 47
39 39 41
41 41 46
41 41 46
41 41 46
41 41 46
47 45 50
12 12 13
68 68 71
130 130 134
44 44 49
0 0 0
132 132 135
71 72 76
0 0 0
2 2 2
0 0 0
0 0 0
0 0 0
0 0 0
0 0 0
0 0 0
0 0 0
0 0 0
0 0 0
0 0 0
0 0 0
0 0 0
0 0 0
0 0 0
0 0 0
0 0 0
0 0 0
0 0 0
0 0 0
0 0 0
0 0 0
0 0 0
0 0 0
0 0 0
0 0 0
0 0 0
0 0 0
0 0 0
0 0 0
0 0 0
0 0 0
0 0 0
0 0 0
0 0 0
0 0 0
0 0 0
0 0 0
0 0 0
0 0 0
0 0 0
0 0 0
0 0 0
0 0 0
0 0 0
0 0 0
0 0 0
0 0 0
0 0 0
0 0 0
0 0 0
0 0 0
0 0 0
0 0 0
0 0 0
0 0 0
0 0 0
0 0 0
0 0 0
0 0 0
0 0 0
0 0 0
0 0 0
0 0 0
0 0 0
0 0 0
0 0 0
0 0 0
0 0 0
0 0 0
0 0 0
0 0 0
0 0 0
0 0 0
0 0 0
0 0 0
0 0 0
0 0 0
0 0 0
0 0 0
0 0 0
0 0 0
0 0 0
0 0 0
0 0 0
0 0 0
0 0 0
0 0 0
0 0 0
0 0 0
0 0 0
0 0 0
0 0 0
0 0 0
0 0 0
0 0 0
0 0 0
0 0 0
0 0 0
0 0 0
0 0 0
0 0 0
0 0 0
0 0 0
0 0 0
0 0 0
0 0 0
0 0 0
0 0 0
0 0 0
0 0 0
0 0 0
0 0 0
0 0 0
0 0 0
0 0 0
0 0 0
0 0 0
0 0 0
0 0 0
0 0 0
2 2 2
0 0 0
82 82 81
118 118 122
0 0 0
68 68 71
144 143 148
59 64 62
10 10 12
42 41 47
39 39 41
41 41 46
41 41 46
42 41 47
39 39 41
6 6 7
162 2 52
248 3 80
227 2 72
56 0 15
0 2 0
1 0 0
17 16 17
84 83 84
91 91 95
48 48 50
24 24 28
10 11 12
7 7 7
17 16 16
17 16 17
20 20 18
15 15 14
13 13 13
23 23 23
18 17 18
13 13 13
17 16 16
12 11 11
9 9 9
18 18 18
15 15 14
10 10 10
15 15 14
18 18 18
15 13 11
23 23 23
32 32 35
39 39 41
48 48 50
34 35 40
7 7 7
2 0 0
0 1 0
21 3 8
208 7 67
246 4 78
208 7 67
21 3 8
28 31 34
47 45 50
41 41 46
41 41 46
39 39 41
42 41 47
36 36 40
6 5 6
102 102 105
139 138 142
45 45 50
13 13 13
122 122 126
19 18 19
0 0 1
6 6 7
5 5 6
5 5 6
4 4 6
4 4 8
5 5 6
5 4 7
5 4 7
4 4 8
4 4 8
5 4 7
4 4 8
4 4 6
6 5 6
3 4 4
51 1 16
125 1 38
125 1 38
90 1 28
2 2 5
4 4 6
4 4 6
4 4 8
4 4 6
4 4 8
4 4 6
4 4 8
4 4 8
4 4 6
4 4 8
4 4 8
4 4 6
4 4 6
4 4 6
4 4 6
4 4 8
4 4 6
3 4 4
51 1 16
125 1 38
125 1 38
90 1 28
4 4 6
4 4 6
4 4 6
4 4 8
4 4 6
4 4 8
4 4 8
4 4 8
5 5 6
6 6 7
0 0 1
23 23 23
122 122 126
16 15 16
47 45 50
132 132 135
113 112 110
10 10 10
33 33 38
41 41 46
41 41 46
41 41 46
39 39 41
43 43 48
7 19 14
90 1 28
235 2 74
246 4 78
125 1 38
0 2 0
0 0 0
9 9 9
74 74 77
91 91 95
48 48 50
26 26 29
27 27 24
14 14 14
14 14 14
20 21 23
15 15 14
15 15 14
20 21 23
14 14 14
13 13 13
20 21 23
12 12 13
9 9 9
20 20 18
18 18 18
10 10 10
17 16 17
18 18 18
12 11 11
17 16 16
20 20 18
18 18 18
42 41 47
51 51 55
33 33 38
9 9 9
2 0 0
0 0 0
21 3 8
169 0 49
246 4 78
211 3 68
51 1 16
24 24 28
47 45 50
41 41 46
41 41 46
41 41 46
41 41 46
45 45 50
10 11 12
68 68 71
130 130 134
44 44 49
1 1 0
135 135 140
68 68 71
0 0 0
2 2 2
0 0 0
0 0 0
0 0 0
0 0 0
0 0 0
0 0 0
0 0 0
0 0 0
0 0 0
0 0 0
0 0 0
0 0 0
0 0 0
0 0 0
0 0 0
0 0 0
0 0 0
0 0 0
0 0 0
0 0 0
0 0 0
0 0 0
0 0 0
0 0 0
0 0 0
0 0 0
0 0 0
0 0 0
0 0 0
0 0 0
0 0 0
0 0 0
0 0 0
0 0 0
0 0 0
0 0 0
0 0 0
0 0 0
0 0 0
0 0 0
0 0 0
0 0 0
0 0 0
0 0 0
0 0 0
0 0 0
0 0 0
0 0 0
0 0 0
0 0 0
0 0 0
0 0 0
0 0 0
0 0 0
0 0 0
0 0 0
0 0 0
0 0 0
0 0 0
0 0 0
0 0 0
0 0 0
0 0 0
0 0 0
0 0 0
0 0 0
0 0 0
0 0 0
0 0 0
0 0 0
0 0 0
0 0 0
0 0 0
0 0 0
0 0 0
0 0 0
0 0 0
0 0 0
0 0 0
0 0 0
0 0 0
0 0 0
0 0 0
0 0 0
0 0 0
0 0 0
0 0 0
0 0 0
0 0 0
0 0 0
0 0 0
0 0 0
0 0 0
0 0 0
0 0 0
0 0 0
0 0 0
0 0 0
0 0 0
0 0 0
0 0 0
0 0 0
0 0 0
0 0 0
0 0 0
0 0 0
0 0 0
0 0 0
0 0 0
0 0 0
0 0 0
0 0 0
0 0 0
0 0 0
0 0 0
0 0 0
0 0 0
0 0 0
0 0 0
0 0 0
2 2 2
0 0 0
82 82 81
122 122 126
0 0 0
68 68 71
144 143 148
68 68 71
10 10 12
42 41 47
39 39 41
41 41 46
41 41 46
42 41 47
6 6 7
125 1 38
248 3 80
227 2 72
56 0 15
0 1 0
0 0 0
28 28 27
94 95 98
74 74 77
26 26 29
7 7 7
1 0 0
0 0 0
6 6 5
10 10 10
0 0 0
9 9 9
0 0 0
1 1 0
18 17 18
2 1 1
0 0 0
17 16 16
4 3 3
0 0 0
13 13 13
5 5 6
0 0 0
7 7 7
9 9 9
0 0 0
7 6 3
17 16 16
7 7 7
32 32 35
48 48 50
41 41 46
10 10 12
1 0 0
0 1 0
21 3 8
208 7 67
235 2 74
165 6 52
5 5 6
39 39 41
43 43 48
41 41 46
41 41 46
42 41 47
36 36 40
5 5 6
102 102 105
139 138 142
48 48 50
12 12 13
124 124 125
19 19 18
0 0 1
6 6 7
5 5 6
4 4 8
4 4 6
5 5 6
4 4 8
5 4 7
4 4 8
5 5 6
4 4 6
4 4 8
4 4 6
4 4 6
9 6 9
2 4 2
125 5 39
248 3 80
248 3 80
227 2 72
7 2 3
4 4 6
5 4 7
4 4 8
4 4 8
4 4 8
5 4 7
5 4 7
5 4 7
5 4 7
4 4 8
5 4 7
4 4 6
4 4 6
4 4 6
4 4 8
4 4 6
6 5 6
2 4 2
90 1 28
248 3 80
248 3 80
227 2 72
6 6 7
4 4 8
5 4 7
5 4 7
4 4 6
4 4 8
4 4 8
4 4 8
4 4 8
6 6 7
0 0 1
23 23 23
124 124 125
17 16 17
47 45 50
135 135 137
113 112 110
7 8 10
33 33 38
41 41 46
41 41 46
39 39 41
43 43 48
20 21 23
51 1 16
227 2 72
248 3 80
125 5 39
0 1 0
0 0 0
13 13 13
79 79 83
79 79 83
34 35 40
7 8 10
2 1 1
14 14 14
0 0 0
3 3 3
16 15 16
0 0 0
0 0 0
19 18 19
0 0 0
0 0 0
20 20 18
2 2 1
0 0 0
18 18 18
4 3 3
0 0 0
10 10 10
10 10 10
0 0 0
6 6 5
15 15 14
0 0 0
12 11 11
36 36 40
41 41 46
36 36 40
17 16 17
2 0 0
0 1 0
21 3 8
208 7 67
248 3 80
208 7 67
21 3 8
33 33 38
43 43 48
39 39 41
41 41 46
41 41 46
45 45 50
10 10 12
71 72 76
135 135 140
43 43 48
3 3 2
135 135 140
59 64 62
0 0 0
2 2 2
0 0 0
0 0 0
0 0 0
0 0 0
0 0 0
0 0 0
0 0 0
0 0 0
0 0 0
0 0 0
0 0 0
0 0 0
0 0 0
0 0 0
0 0 0
0 0 0
0 0 0
0 0 0
0 0 0
0 0 0
0 0 0
0 0 0
0 0 0
0 0 0
0 0 0
0 0 0
0 0 0
0 0 0
0 0 0
0 0 0
0 0 0
0 0 0
0 0 0
0 0 0
0 0 0
0 0 0
0 0 0
0 0 0
0 0 0
0 0 0
0 0 0
0 0 0
0 0 0
0 0 0
0 0 0
0 0 0
0 0 0
0 0 0
0 0 0
0 0 0
0 0 0
0 0 0
0 0 0
0 0 0
0 0 0
0 0 0
0 0 0
0 0 0
0 0 0
0 0 0
0 0 0
0 0 0
0 0 0
0 0 0
0 0 0
0 0 0
0 0 0
0 0 0
0 0 0
0 0 0
0 0 0
0 0 0
0 0 0
0 0 0
0 0 0
0 0 0
0 0 0
0 0 0
0 0 0
0 0 0
0 0 0
0 0 0
0 0 0
0 0 0
0 0 0
0 0 0
0 0 0
0 0 0
0 0 0
0 0 0
0 0 0
0 0 0
0 0 0
0 0 0
0 0 0
0 0 0
0 0 0
0 0 0
0 0 0
0 0 0
0 0 0
0 0 0
0 0 0
0 0 0
0 0 0
0 0 0
0 0 0
0 0 0
0 0 0
0 0 0
0 0 0
0 0 0
0 0 0
0 0 0
0 0 0
1 0 0
2 1 1
2 1 1
2 1 1
2 1 1
4 3 3
0 0 0
79 79 83
118 118 122
0 0 0
59 64 62
144 143 148
59 64 62
10 10 12
43 43 48
39 39 41
41 41 46
47 45 50
7 19 14
90 1 28
235 2 74
235 2 74
90 1 28
0 2 0
0 0 0
32 32 35
102 102 105
68 68 71
26 26 29
12 11 11
13 13 13
13 13 13
12 12 13
19 18 19
17 16 16
6 6 5
10 10 10
7 7 7
10 10 10
20 20 18
12 12 13
13 13 13
23 23 23
16 15 16
12 11 11
19 19 18
13 13 13
7 7 7
16 15 16
17 16 16
9 9 9
15 15 14
18 17 18
9 9 9
16 15 16
36 36 40
44 44 49
41 41 46
12 12 13
2 0 0
0 0 0
51 1 16
211 3 68
235 2 74
125 1 38
6 15 11
43 43 48
41 41 46
41 41 46
41 41 46
36 36 40
5 5 6
102 102 105
139 138 142
48 48 50
12 12 13
122 122 126
20 20 18
0 0 1
6 6 7
4 4 8
4 4 8
4 4 8
4 4 8
4 4 8
4 4 8
4 4 8
4 4 6
4 4 6
4 4 6
4 4 8
4 4 8
6 5 6
0 3 1
89 6 27
227 2 72
211 3 68
169 0 49
9 6 9
4 4 6
5 4 7
4 4 6
5 4 7
4 4 8
1 2 4
1 2 4
1 2 4
1 2 4
5 4 7
4 4 8
4 4 6
4 4 8
4 4 6
4 4 8
4 4 6
6 5 6
1 2 4
89 6 27
210 2 67
211 3 68
169 0 49
9 6 9
4 4 8
5 4 7
4 4 8
4 4 8
4 4 8
5 4 7
5 5 6
5 4 7
4 4 8
0 0 1
22 22 23
122 122 126
17 16 17
44 44 49
132 132 135
113 112 110
7 7 7
33 33 38
41 41 46
41 41 46
43 43 48
33 33 38
21 3 8
208 7 67
248 3 80
162 2 52
1 1 0
0 0 0
16 15 16
90 90 92
71 72 76
33 33 38
23 23 23
10 10 10
9 9 9
17 16 16
12 12 13
15 15 14
16 15 16
7 7 7
13 13 13
23 23 23
14 14 14
13 13 13
20 21 23
13 13 13
12 12 13
22 22 23
14 14 14
7 7 7
18 17 18
18 18 18
9 9 9
12 12 13
17 16 16
12 11 11
15 15 14
20 20 18
32 32 35
42 41 47
41 41 46
17 16 17
2 0 0
0 0 0
51 1 16
211 3 68
247 6 78
162 2 52
7 8 10
42 41 47
41 41 46
41 41 46
41 41 46
45 45 50
7 8 10
76 77 81
135 135 140
39 39 41
3 4 4
139 138 142
59 64 62
0 0 0
4 3 3
2 1 1
2 1 1
2 1 1
2 1 1
1 0 0
0 0 0
0 0 0
0 0 0
0 0 0
0 0 0
0 0 0
0 0 0
0 0 0
0 0 0
0 0 0
0 0 0
0 0 0
0 0 0
0 0 0
0 0 0
0 0 0
0 0 0
0 0 0
0 0 0
0 0 0
0 0 0
0 0 0
0 0 0
0 0 0
0 0 0
0 0 0
0 0 0
0 0 0
0 0 0
0 0 0
0 0 0
0 0 0
0 0 0
0 0 0
0 0 0
0 0 0
0 0 0
0 0 0
0 0 0
0 0 0
0 0 0
0 0 0
0 0 0
0 0 0
0 0 0
0 0 0
0 0 0
0 0 0
0 0 0
0 0 0
0 0 0
0 0 0
0 0 0
0 0 0
0 0 0
0 0 0
0 0 0
0 0 0
0 0 0
0 0 0
0 0 0
0 0 0
0 0 0
0 0 0
0 0 0
0 0 0
0 0 0
0 0 0
0 0 0
0 0 0
0 0 0
0 0 0
0 0 0
0 0 0
0 0 0
0 0 0
0 0 0
0 0 0
0 0 0
0 0 0
0 0 0
0 0 0
0 0 0
0 0 0
0 0 0
0 0 0
0 0 0
0 0 0
0 0 0
0 0 0
0 0 0
0 0 0
0 0 0
0 0 0
0 0 0
0 0 0
0 0 0
0 0 0
0 0 0
0 0 0
0 0 0
0 0 0
0 0 0
0 0 0
0 0 0
0 0 0
0 0 0
0 0 0
0 0 0
0 0 0
0 0 0
0 0 0
0 0 0
0 0 0
0 0 0
0 2 0
0 0 0
74 74 77
122 122 126
0 0 0
59 64 62
144 143 148
59 64 62
12 12 13
45 45 50
39 39 41
43 43 48
28 31 34
21 3 8
211 3 68
248 3 80
125 1 38
0 1 0
0 0 0
28 28 27
94 95 98
59 64 62
22 22 23
10 10 10
19 18 19
9 9 9
10 10 10
20 21 23
9 9 9
3 4 4
9 9 9
3 4 4
13 13 13
15 15 14
3 4 4
15 15 14
18 17 18
5 5 6
12 12 13
20 21 23
6 6 7
10 10 10
20 21 23
9 9 9
6 6 5
17 16 17
9 9 9
3 3 3
17 16 16
17 16 17
7 7 7
26 26 29
43 43 48
41 41 46
9 9 9
2 0 0
0 0 0
90 1 28
235 2 74
227 2 72
56 0 15
20 21 23
44 44 49
41 41 46
42 41 47
39 39 41
6 5 6
102 102 105
144 143 148
51 51 55
12 12 13
122 122 126
20 21 23
0 0 1
6 6 7
4 4 8
4 4 8
5 5 6
5 5 6
4 4 8
5 5 6
4 4 8
4 4 8
4 4 8
4 4 6
4 4 8
4 4 6
5 4 7
1 2 4
21 3 8
89 6 27
89 6 27
89 6 27
5 4 7
4 4 6
4 4 6
5 4 7
5 5 6
4 4 6
21 3 8
51 1 16
51 1 16
21 3 8
3 4 4
4 4 6
4 4 6
4 4 6
4 4 6
4 4 8
4 4 8
5 4 7
4 4 6
21 3 8
89 6 27
89 6 27
56 0 15
3 2 3
4 4 6
5 4 7
5 4 7
5 5 6
4 4 8
4 4 8
4 4 8
5 5 6
6 6 7
0 0 1
22 22 23
122 122 126
16 15 16
48 48 50
135 135 140
113 112 110
6 6 7
33 33 38
41 41 46
41 41 46
43 43 48
7 8 10
125 1 38
248 3 80
208 7 67
10 0 2
0 0 0
7 7 7
84 83 84
74 74 77
32 32 35
14 14 14
9 9 9
17 16 16
10 10 10
3 4 4
17 16 16
14 14 14
3 2 3
15 15 14
16 15 16
5 5 6
18 17 18
17 16 16
3 3 3
17 16 16
20 20 18
6 6 7
13 13 13
20 21 23
6 6 5
7 7 7
20 20 18
9 9 9
3 3 3
16 15 16
17 16 16
3 4 4
9 9 9
28 28 27
42 41 47
39 39 41
12 12 13
1 0 0
0 0 0
89 6 27
235 2 74
246 4 78
90 1 28
7 19 14
44 44 49
41 41 46
41 41 46
44 44 49
10 10 12
79 79 83
135 135 140
36 36 40
7 7 7
144 143 148
59 64 62
0 0 0
0 2 0
0 0 0
0 0 0
0 0 0
0 0 0
0 0 0
0 0 0
0 0 0
0 0 0
0 0 0
0 0 0
0 0 0
0 0 0
0 0 0
0 0 0
0 0 0
0 0 0
0 0 0
0 0 0
0 0 0
0 0 0
0 0 0
0 0 0
0 0 0
0 0 0
0 0 0
0 0 0
0 0 0
0 0 0
0 0 0
0 0 0
0 0 0
0 0 0
0 0 0
0 0 0
0 0 0
0 0 0
0 0 0
0 0 0
0 0 0
0 0 0
0 0 0
0 0 0
0 0 0
0 0 0
0 0 0
0 0 0
0 0 0
0 0 0
0 0 0
0 0 0
0 0 0
0 0 0
0 0 0
0 0 0
0 0 0
0 0 0
0 0 0
0 0 0
0 0 0
0 0 0
0 0 0
0 0 0
0 0 0
0 0 0
0 0 0
0 0 0
0 0 0
0 0 0
0 0 0
0 0 0
0 0 0
0 0 0
0 0 0
0 0 0
0 0 0
0 0 0
0 0 0
0 0 0
0 0 0
0 0 0
0 0 0
0 0 0
0 0 0
0 0 0
0 0 0
0 0 0
0 0 0
0 0 0
0 0 0
0 0 0
0 0 0
0 0 0
0 0 0
0 0 0
0 0 0
0 0 0
0 0 0
0 0 0
0 0 0
0 0 0
0 0 0
0 0 0
0 0 0
0 0 0
0 0 0
0 0 0
0 0 0
0 0 0
0 0 0
0 0 0
0 0 0
0 0 0
0 0 0
1 0 0
0 0 0
51 1 16
125 5 39
125 5 39
125 5 39
125 5 39
89 6 27
0 0 0
74 74 77
124 124 125
0 0 0
59 64 62
144 143 148
59 64 62
10 11 12
44 44 49
39 39 41
42 41 47
7 8 10
162 2 52
248 3 80
169 0 49
3 2 0
0 0 0
18 18 18
88 87 91
54 54 58
24 24 28
0 0 0
7 7 7
20 20 18
0 0 0
3 2 3
14 14 14
0 0 0
1 0 0
6 5 6
0 0 0
10 10 10
9 9 9
0 0 0
9 9 9
10 10 10
0 0 0
10 10 10
19 18 19
0 0 0
6 6 5
18 18 18
0 0 0
2 1 1
16 14 12
2 2 2
0 0 0
12 12 13
7 7 7
0 0 0
9 9 9
32 32 35
44 44 49
34 35 40
4 4 6
2 0 0
0 0 0
162 2 52
246 4 78
169 0 49
9 6 9
41 41 46
42 41 47
41 41 46
36 36 40
5 5 6
102 102 105
144 143 148
48 48 50
12 12 13
124 124 125
19 19 18
0 0 1
6 6 7
5 4 7
5 4 7
5 5 6
5 4 7
4 4 8
5 5 6
4 4 6
4 4 8
4 4 6
5 4 7
5 4 7
5 4 7
9 6 9
0 3 1
125 1 38
247 6 78
247 6 78
208 7 67
3 2 0
4 4 6
5 4 7
6 5 6
9 6 9
0 3 1
162 2 52
247 6 78
247 6 78
125 1 38
0 1 0
9 6 9
5 4 7
5 4 7
4 4 6
4 4 6
4 4 8
6 5 6
3 4 4
90 1 28
247 6 78
247 6 78
208 7 67
2 1 1
4 3 3
6 5 6
5 4 7
5 4 7
4 4 6
4 4 6
4 4 8
4 4 8
6 6 7
0 0 0
22 22 23
122 122 126
16 15 16
47 45 50
135 135 140
113 112 110
6 6 7
34 35 40
41 41 46
44 44 49
20 21 23
56 0 15
235 2 74
227 2 72
56 0 15
0 1 0
3 2 3
71 72 76
68 68 71
24 24 28
12 11 11
9 9 9
1 0 0
13 13 13
6 5 6
0 0 0
10 10 10
7 7 7
0 0 0
14 14 14
9 9 9
0 0 0
10 10 10
9 9 9
0 0 0
14 14 14
15 15 14
0 0 0
6 6 5
18 18 18
0 0 0
2 1 1
18 17 18
2 2 2
0 0 0
10 10 10
9 9 9
0 0 0
7 7 7
20 20 18
24 24 28
41 41 46
36 36 40
9 6 9
2 0 0
0 1 0
125 5 39
246 4 78
208 7 67
21 3 8
34 35 40
43 43 48
41 41 46
44 44 49
7 8 10
79 79 83
135 135 140
36 36 40
12 11 11
144 143 148
59 58 59
1 0 0
89 6 27
125 5 39
125 5 39
125 5 39
125 5 39
21 3 8
0 0 0
1 0 0
0 0 0
0 0 0
0 0 0
0 0 0
0 0 0
0 0 0
0 0 0
0 0 0
0 0 0
0 0 0
0 0 0
0 0 0
0 0 0
0 0 0
0 0 0
0 0 0
0 0 0
0 0 0
0 0 0
0 0 0
0 0 0
0 0 0
0 0 0
0 0 0
0 0 0
0 0 0
0 0 0
0 0 0
0 0 0
0 0 0
0 0 0
0 0 0
0 0 0
0 0 0
0 0 0
0 0 0
0 0 0
0 0 0
0 0 0
0 0 0
0 0 0
0 0 0
0 0 0
0 0 0
0 0 0
0 0 0
0 0 0
0 0 0
0 0 0
0 0 0
0 0 0
0 0 0
0 0 0
0 0 0
0 0 0
0 0 0
0 0 0
0 0 0
0 0 0
0 0 0
0 0 0
0 0 0
0 0 0
0 0 0
0 0 0
0 0 0
0 0 0
0 0 0
0 0 0
0 0 0
0 0 0
0 0 0
0 0 0
0 0 0
0 0 0
0 0 0
0 0 0
0 0 0
0 0 0
0 0 0
0 0 0
0 0 0
0 0 0
0 0 0
0 0 0
0 0 0
0 0 0
0 0 0
0 0 0
0 0 0
0 0 0
0 0 0
0 0 0
0 0 0
0 0 0
0 0 0
0 0 0
0 0 0
0 0 0
0 0 0
0 0 0
0 0 0
0 0 0
0 0 0
0 0 0
0 0 0
2 1 1
0 0 0
125 5 39
247 6 78
247 6 78
247 6 78
247 6 78
211 3 68
1 0 0
74 74 77
130 130 134
0 0 0
59 58 59
144 143 148
59 64 62
10 11 12
43 43 48
43 43 48
20 21 23
56 0 15
235 2 74
227 2 72
51 1 16
0 1 0
6 5 6
84 83 84
71 72 76
28 31 34
16 15 16
16 15 16
19 18 19
17 16 17
14 14 14
16 15 16
12 12 13
12 11 11
18 17 18
19 18 19
14 14 14
14 14 14
12 12 13
13 13 13
16 15 16
16 15 16
15 15 14
17 16 17
17 16 17
15 15 14
18 17 18
18 18 18
18 17 18
20 20 18
17 16 17
15 15 14
14 14 14
15 15 14
14 14 14
15 15 14
12 12 13
14 14 14
33 33 38
43 43 48
26 26 29
1 1 1
0 0 0
21 3 8
211 3 68
246 4 78
90 1 28
7 19 14
47 45 50
41 41 46
36 36 40
6 5 6
102 102 105
144 143 148
48 48 50
13 13 13
124 124 125
19 18 19
0 0 1
6 6 7
5 4 7
5 4 7
4 4 8
5 4 7
4 4 8
5 4 7
4 4 8
4 4 8
4 4 6
3 4 4
1 2 4
1 2 4
4 4 6
3 4 4
90 1 28
247 2 78
235 2 74
169 0 49
2 1 1
2 2 5
4 4 8
2 2 5
4 4 8
0 2 0
125 1 38
246 4 78
247 2 78
125 1 38
0 2 0
4 4 8
1 2 4
3 4 4
4 4 6
4 4 8
4 4 8
5 4 7
0 3 1
90 1 28
235 2 74
235 2 74
208 7 67
4 3 3
1 2 4
1 2 4
3 4 4
4 4 8
5 4 7
5 4 7
4 4 8
4 4 8
6 6 7
0 0 0
22 22 23
124 124 125
17 16 17
47 45 50
135 135 137
102 102 105
5 5 6
34 35 40
43 43 48
39 39 41
9 6 9
169 0 49
248 3 80
125 1 38
0 1 0
0 0 0
51 51 55
88 87 91
36 36 40
18 17 18
10 10 10
14 14 14
17 16 17
16 15 16
14 14 14
14 14 14
15 15 14
15 15 14
17 16 16
18 17 18
14 14 14
14 14 14
16 15 16
17 16 16
16 15 16
17 16 16
15 15 14
14 14 14
17 16 16
17 16 17
18 18 18
18 18 18
15 15 14
13 13 13
14 14 14
16 15 16
15 15 14
12 11 11
17 16 17
19 18 19
15 15 14
26 26 29
41 41 46
32 32 35
4 3 3
1 0 0
21 3 8
208 7 67
246 4 78
125 1 38
7 19 14
47 45 50
41 41 46
44 44 49
7 8 10
84 83 84
132 132 135
37 37 37
12 12 13
144 143 148
54 54 58
21 3 8
247 6 78
247 6 78
247 6 78
247 6 78
248 3 80
90 1 28
0 0 0
2 1 1
0 0 0
0 0 0
0 0 0
0 0 0
0 0 0
0 0 0
0 0 0
0 0 0
0 0 0
0 0 0
0 0 0
0 0 0
0 0 0
0 0 0
0 0 0
0 0 0
0 0 0
0 0 0
0 0 0
0 0 0
0 0 0
0 0 0
0 0 0
0 0 0
0 0 0
0 0 0
0 0 0
0 0 0
0 0 0
0 0 0
0 0 0
0 0 0
0 0 0
0 0 0
0 0 0
0 0 0
0 0 0
0 0 0
0 0 0
0 0 0
0 0 0
0 0 0
0 0 0
0 0 0
0 0 0
0 0 0
0 0 0
0 0 0
0 0 0
0 0 0
0 0 0
0 0 0
0 0 0
0 0 0
0 0 0
0 0 0
0 0 0
0 0 0
0 0 0
0 0 0
0 0 0
0 0 0
0 0 0
0 0 0
0 0 0
0 0 0
0 0 0
0 0 0
0 0 0
0 0 0
0 0 0
0 0 0
0 0 0
0 0 0
0 0 0
0 0 0
0 0 0
0 0 0
0 0 0
0 0 0
0 0 0
0 0 0
0 0 0
0 0 0
0 0 0
0 0 0
0 0 0
0 0 0
0 0 0
0 0 0
0 0 0
0 0 0
0 0 0
0 0 0
0 0 0
0 0 0
0 0 0
0 0 0
0 0 0
0 0 0
0 0 0
2 0 0
2 1 1
2 1 1
2 1 1
2 1 1
7 2 3
0 0 0
125 5 39
248 3 80
247 6 78
247 6 78
248 3 80
227 2 72
2 0 0
74 74 77
132 132 135
0 0 0
59 58 59
144 143 148
59 64 62
10 10 12
43 43 48
39 39 41
7 7 7
169 0 49
248 3 80
125 1 38
0 1 0
0 0 0
59 58 59
88 87 91
39 39 41
6 5 6
0 0 0
10 10 10
9 9 9
0 0 0
13 13 13
15 15 14
0 0 0
9 9 9
10 10 12
4 3 3
13 13 13
2 2 2
1 1 1
17 16 16
4 3 3
1 1 1
17 16 16
4 3 3
0 0 0
16 15 16
9 9 9
0 0 0
13 13 13
13 13 13
0 0 0
7 7 7
17 16 17
0 0 0
4 3 3
14 14 14
0 0 0
1 1 0
19 18 19
39 39 41
45 45 50
16 15 16
1 0 0
0 0 0
125 5 39
248 3 80
208 7 67
9 6 9
39 39 41
44 44 49
36 36 40
5 5 6
102 102 105
139 138 142
48 48 50
13 13 13
124 124 125
19 19 18
0 0 1
6 6 7
4 4 8
4 4 8
5 4 7
5 5 6
4 4 8
4 4 8
4 4 6
5 5 6
4 4 8
21 3 8
21 3 8
21 3 8
21 3 8
7 8 10
32 22 13
89 6 27
89 6 27
43 22 21
1 0 0
21 3 8
21 3 8
21 3 8
21 3 8
4 4 8
56 0 15
90 1 28
89 6 27
51 1 16
7 2 3
21 3 8
21 3 8
21 3 8
4 4 6
4 4 6
4 4 6
4 4 6
1 1 1
18 17 5
89 6 27
89 6 27
55 51 10
9 6 9
21 3 8
21 3 8
21 3 8
21 3 8
3 4 4
5 4 7
4 4 8
4 4 8
5 4 7
0 0 1
22 22 23
124 124 125
18 17 18
48 48 50
135 135 137
102 102 105
5 5 6
34 35 40
47 45 50
7 19 14
90 1 28
247 2 78
210 2 67
21 3 8
0 0 0
20 21 23
88 87 91
43 43 48
18 17 18
12 11 11
3 3 2
3 3 2
10 10 10
0 0 0
3 4 4
19 19 18
2 2 2
2 2 2
15 15 14
0 0 0
3 3 3
18 17 18
4 3 3
3 2 3
16 15 16
1 1 1
0 0 0
19 18 19
7 7 7
0 0 0
15 15 14
12 11 11
0 0 0
7 7 7
18 18 18
4 3 3
0 0 0
10 10 10
9 9 9
0 0 0
4 3 3
12 11 11
33 33 38
45 45 50
26 26 29
2 0 0
0 0 0
90 1 28
235 2 74
210 2 67
21 3 8
34 35 40
45 45 50
45 45 50
9 9 9
84 83 84
130 130 134
28 31 34
12 12 13
144 143 148
51 51 55
21 3 8
247 6 78
247 2 78
247 6 78
247 6 78
248 3 80
90 1 28
0 0 0
7 2 3
2 1 1
2 1 1
2 1 1
2 1 1
2 0 0
0 0 0
0 0 0
0 0 0
0 0 0
0 0 0
0 0 0
0 0 0
0 0 0
0 0 0
0 0 0
0 0 0
0 0 0
0 0 0
0 0 0
0 0 0
0 0 0
0 0 0
0 0 0
0 0 0
0 0 0
0 0 0
0 0 0
0 0 0
0 0 0
0 0 0
0 0 0
0 0 0
0 0 0
0 0 0
0 0 0
0 0 0
0 0 0
0 0 0
0 0 0
0 0 0
0 0 0
0 0 0
0 0 0
0 0 0
0 0 0
0 0 0
0 0 0
0 0 0
0 0 0
0 0 0
0 0 0
0 0 0
0 0 0
0 0 0
0 0 0
0 0 0
0 0 0
0 0 0
0 0 0
0 0 0
0 0 0
0 0 0
0 0 0
0 0 0
0 0 0
0 0 0
0 0 0
0 0 0
0 0 0
0 0 0
0 0 0
0 0 0
0 0 0
0 0 0
0 0 0
0 0 0
0 0 0
0 0 0
0 0 0
0 0 0
0 0 0
0 0 0
0 0 0
0 0 0
0 0 0
0 0 0
0 0 0
0 0 0
0 0 0
0 0 0
0 0 0
0 0 0
0 0 0
0 0 0
0 0 0
0 0 0
0 0 0
0 0 0
0 0 0
0 0 0
0 0 0
0 0 0
0 0 0
0 0 0
0 0 0
0 0 0
0 0 0
0 0 0
21 3 8
90 1 28
125 1 38
125 1 38
125 1 38
56 0 15
0 0 0
74 74 77
139 138 142
0 0 0
54 54 58
144 143 148
59 64 62
10 10 12
47 45 50
20 21 23
56 0 15
246 4 78
210 2 67
21 3 8
1 0 0
20 21 23
91 91 95
48 48 50
19 18 19
7 7 7
3 3 3
13 13 13
17 16 17
3 4 4
16 15 16
17 16 16
2 2 2
12 11 11
12 12 13
3 3 3
17 16 16
10 10 10
9 9 9
20 20 18
6 6 7
3 3 3
15 15 14
9 9 9
5 5 6
19 19 18
13 13 13
3 4 4
16 15 16
13 13 13
3 3 3
13 13 13
17 16 17
3 3 3
9 9 9
15 15 14
4 3 3
10 10 10
19 19 18
26 26 29
42 41 47
34 35 40
6 5 6
1 0 0
21 3 8
208 7 67
246 4 78
90 1 28
16 17 21
47 45 50
36 36 40
4 3 3
102 102 105
139 138 142
47 45 50
12 12 13
124 124 125
19 19 18
0 0 1
6 6 7
4 4 8
4 4 8
4 4 8
4 4 8
4 4 8
4 4 8
4 4 6
9 6 9
0 3 1
125 1 38
227 2 72
235 2 74
208 7 67
2 2 5
99 92 38
239 226 2
224 210 0
184 170 1
0 0 0
125 5 39
235 2 74
235 2 74
125 5 39
5 5 6
162 2 52
229 3 74
227 2 72
89 6 27
56 0 15
227 2 72
235 2 74
162 2 52
3 4 4
6 5 6
4 4 6
6 6 5
0 0 1
60 58 2
238 225 4
238 225 4
193 184 2
6 7 3
162 2 52
235 2 74
235 2 74
125 5 39
0 1 0
5 4 7
5 4 7
5 4 7
6 6 7
0 0 1
22 22 23
122 122 126
16 15 16
47 45 50
135 135 137
102 102 105
4 4 6
36 36 40
41 41 46
9 6 9
169 0 49
248 3 80
125 1 38
0 1 0
4 3 3
79 79 83
59 64 62
18 17 18
3 3 3
14 14 14
7 7 7
14 14 14
16 15 16
3 3 3
7 7 7
18 17 18
9 9 9
9 9 9
20 20 18
7 7 7
9 9 9
17 16 16
5 5 6
4 3 3
17 16 17
9 9 9
7 7 7
20 20 18
10 10 10
3 3 3
14 14 14
14 14 14
3 4 4
10 10 12
19 18 19
6 6 7
3 3 3
17 16 16
15 15 14
3 3 3
9 9 9
20 20 18
22 22 23
43 43 48
42 41 47
10 10 10
1 0 0
10 0 2
169 0 49
248 3 80
125 1 38
7 19 14
47 45 50
44 44 49
7 8 10
84 83 84
130 130 134
28 28 27
15 15 14
144 143 148
51 51 55
0 0 0
89 6 27
125 1 38
125 1 38
125 1 38
125 1 38
21 3 8
0 0 0
0 0 0
0 0 0
0 0 0
0 0 0
0 0 0
0 0 0
0 0 0
0 0 0
0 0 0
0 0 0
0 0 0
0 0 0
0 0 0
0 0 0
0 0 0
0 0 0
0 0 0
0 0 0
0 0 0
0 0 0
0 0 0
0 0 0
0 0 0
0 0 0
0 0 0
0 0 0
0 0 0
0 0 0
0 0 0
0 0 0
0 0 0
0 0 0
0 0 0
0 0 0
0 0 0
0 0 0
0 0 0
0 0 0
0 0 0
0 0 0
0 0 0
0 0 0
0 0 0
0 0 0
0 0 0
0 0 0
0 0 0
0 0 0
0 0 0
0 0 0
0 0 0
0 0 0
0 0 0
0 0 0
0 0 0
0 0 0
0 0 0
0 0 0
0 0 0
0 0 0
0 0 0
0 0 0
0 0 0
0 0 0
0 0 0
0 0 0
0 0 0
0 0 0
0 0 0
0 0 0
0 0 0
0 0 0
0 0 0
0 0 0
0 0 0
0 0 0
0 0 0
0 0 0
0 0 0
0 0 0
0 0 0
0 0 0
0 0 0
0 0 0
0 0 0
0 0 0
0 0 0
0 0 0
0 0 0
0 0 0
0 0 0
0 0 0
0 0 0
0 0 0
0 0 0
0 0 0
0 0 0
0 0 0
0 0 0
0 0 0
1 0 0
0 0 0
51 1 16
125 1 38
125 1 38
125 1 38
125 1 38
51 1 16
1 0 0
21 3 8
90 1 28
90 1 28
90 1 28
125 1 38
56 0 15
0 0 0
68 68 71
139 138 142
0 0 0
51 51 55
139 138 142
59 64 62
10 10 12
47 45 50
6 15 11
162 2 52
248 3 80
125 1 38
0 1 0
0 0 0
59 64 62
68 68 71
28 28 27
13 13 13
12 12 13
20 21 23
15 15 14
10 10 12
17 16 17
9 9 9
5 5 6
12 11 11
12 11 11
12 12 13
15 15 14
10 10 12
13 13 13
14 14 14
6 6 7
13 13 13
14 14 14
7 7 7
16 15 16
19 19 18
9 9 9
13 13 13
19 19 18
10 10 10
12 12 13
19 18 19
9 9 9
6 6 7
13 13 13
10 10 10
10 10 10
22 22 23
17 16 17
7 7 7
17 16 16
32 32 35
47 45 50
24 24 28
1 0 0
0 0 0
125 1 38
248 3 80
162 2 52
7 8 10
43 43 48
39 39 41
5 5 6
102 102 105
139 138 142
45 45 50
13 13 13
122 122 126
19 19 18
0 0 1
5 4 7
5 4 7
4 4 8
4 4 6
4 4 8
4 4 8
5 4 7
4 4 8
9 6 9
2 4 2
125 1 38
248 3 80
247 6 78
208 7 67
0 0 1
99 92 38
255 252 2
255 252 2
216 202 3
0 2 0
169 0 49
248 3 80
247 6 78
162 2 52
0 3 1
165 6 52
248 3 80
248 3 80
125 1 38
90 1 28
248 3 80
248 3 80
165 6 52
0 3 1
6 5 6
4 4 6
6 6 5
0 0 1
99 92 38
255 252 2
255 250 4
238 225 4
6 7 3
169 0 49
247 6 78
247 6 78
125 5 39
0 2 0
5 4 7
4 4 8
5 4 7
5 4 7
0 0 1
22 22 23
122 122 126
14 14 14
47 45 50
132 132 135
102 102 105
3 3 3
39 39 41
24 24 28
90 1 28
246 4 78
210 2 67
21 3 8
0 0 0
28 31 34
88 87 91
36 36 40
18 17 18
9 9 9
5 5 6
10 11 12
12 11 11
10 10 10
14 14 14
12 11 11
6 6 7
16 15 16
15 15 14
9 9 9
17 16 17
13 13 13
5 5 6
12 12 13
15 15 14
7 7 7
15 15 14
17 16 17
7 7 7
10 10 10
17 16 16
9 9 9
12 12 13
22 22 23
10 10 10
6 5 6
7 7 7
16 15 16
12 11 11
12 12 13
20 20 18
13 13 13
9 9 9
12 12 13
28 31 34
43 43 48
26 26 29
2 0 0
0 0 0
90 1 28
248 3 80
208 7 67
9 6 9
41 41 46
44 44 49
10 10 12
90 90 92
130 130 134
26 26 29
17 16 17
144 143 148
48 48 50
1 0 0
89 6 27
125 1 38
90 1 28
125 1 38
125 1 38
21 3 8
1 0 0
56 0 15
125 5 39
125 5 39
125 5 39
125 5 39
51 1 16
0 0 0
1 0 0
0 0 0
0 0 0
0 0 0
0 0 0
0 0 0
0 0 0
0 0 0
0 0 0
0 0 0
0 0 0
0 0 0
0 0 0
0 0 0
0 0 0
0 0 0
0 0 0
0 0 0
0 0 0
0 0 0
0 0 0
0 0 0
0 0 0
0 0 0
0 0 0
0 0 0
0 0 0
0 0 0
0 0 0
0 0 0
0 0 0
0 0 0
0 0 0
0 0 0
0 0 0
0 0 0
0 0 0
0 0 0
0 0 0
0 0 0
0 0 0
0 0 0
0 0 0
0 0 0
0 0 0
0 0 0
0 0 0
0 0 0
0 0 0
0 0 0
0 0 0
0 0 0
0 0 0
0 0 0
0 0 0
0 0 0
0 0 0
0 0 0
0 0 0
0 0 0
0 0 0
0 0 0
0 0 0
0 0 0
0 0 0
0 0 0
0 0 0
0 0 0
0 0 0
0 0 0
0 0 0
0 0 0
0 0 0
0 0 0
0 0 0
0 0 0
0 0 0
0 0 0
0 0 0
0 0 0
0 0 0
0 0 0
0 0 0
0 0 0
0 0 0
0 0 0
0 0 0
0 0 0
0 0 0
0 0 0
0 0 0
0 0 0
0 0 0
1 0 0
0 0 0
169 0 49
247 6 78
247 6 78
247 2 78
247 2 78
169 0 49
0 0 0
125 5 39
247 6 78
247 2 78
247 6 78
247 6 78
227 2 72
3 2 0
59 58 59
132 132 135
2 2 2
48 48 50
144 143 148
68 68 71
12 12 13
34 35 40
21 3 8
211 3 68
227 2 72
51 1 16
1 0 0
18 17 18
79 79 83
41 41 46
15 15 14
5 5 6
0 0 0
19 19 18
5 5 6
0 0 0
14 14 14
3 3 3
0 0 0
15 15 14
4 3 3
0 0 0
15 15 14
2 1 1
3 2 3
6 6 5
0 0 0
12 11 11
13 13 13
0 0 0
9 9 9
15 15 14
0 0 0
4 3 3
17 16 17
0 0 0
3 3 2
19 19 18
2 1 1
1 0 0
15 15 14
2 2 2
0 0 0
19 19 18
10 10 10
0 0 0
13 13 13
24 24 28
43 43 48
39 39 41
6 5 2
1 0 0
51 1 16
227 2 72
211 3 68
51 1 16
28 31 34
41 41 46
5 5 6
102 102 105
139 138 142
47 45 50
12 12 13
122 122 126
19 19 18
0 0 1
6 6 7
5 4 7
5 4 7
5 5 6
5 5 6
4 4 8
5 4 7
4 4 8
5 4 7
4 4 8
51 1 16
89 6 27
89 6 27
56 0 15
0 0 0
24 23 7
99 92 38
99 92 38
60 58 2
7 8 10
56 0 15
89 6 27
89 6 27
51 1 16
0 0 1
51 1 16
89 6 27
89 6 27
51 1 16
32 22 13
89 6 27
89 6 27
51 1 16
0 0 1
4 3 3
3 3 3
4 4 6
4 4 8
32 22 13
99 92 38
99 92 38
60 58 2
3 3 3
51 1 16
89 6 27
89 6 27
51 1 16
2 2 5
5 4 7
4 4 8
5 5 6
6 6 7
0 0 1
22 22 23
122 122 126
14 14 14
48 48 50
135 135 140
102 102 105
3 3 3
36 36 40
7 19 14
162 2 52
248 3 80
125 1 38
0 0 0
2 1 2
59 58 59
54 54 58
16 15 16
14 14 14
7 6 3
2 1 1
6 6 5
0 0 0
0 0 0
14 14 14
9 9 9
0 0 0
10 10 10
7 7 7
0 0 0
9 9 9
7 7 7
0 0 0
12 12 13
12 12 13
0 0 0
7 7 7
12 11 11
0 0 0
5 5 6
18 18 18
0 0 0
2 0 0
19 19 18
7 7 7
0 0 0
4 3 3
17 16 16
1 0 0
0 0 0
20 20 18
9 9 9
0 0 0
6 5 6
15 15 14
39 39 41
43 43 48
10 10 10
1 0 0
21 3 8
211 3 68
229 3 74
56 0 15
28 31 34
51 51 55
10 11 12
90 90 92
130 130 134
23 23 23
17 16 16
144 143 148
45 45 44
21 3 8
247 6 78
247 6 78
247 6 78
247 6 78
247 6 78
125 5 39
0 0 0
211 3 68
247 6 78
247 6 78
247 6 78
247 6 78
169 0 49
0 0 0
2 1 1
0 0 0
0 0 0
0 0 0
0 0 0
0 0 0
0 0 0
0 0 0
0 0 0
0 0 0
0 0 0
0 0 0
0 0 0
0 0 0
0 0 0
0 0 0
0 0 0
0 0 0
0 0 0
0 0 0
0 0 0
0 0 0
0 0 0
0 0 0
0 0 0
0 0 0
0 0 0
0 0 0
0 0 0
0 0 0
0 0 0
0 0 0
0 0 0
0 0 0
0 0 0
0 0 0
0 0 0
0 0 0
0 0 0
0 0 0
0 0 0
0 0 0
0 0 0
0 0 0
0 0 0
0 0 0
0 0 0
0 0 0
0 0 0
0 0 0
0 0 0
0 0 0
0 0 0
0 0 0
0 0 0
0 0 0
0 0 0
0 0 0
0 0 0
0 0 0
0 0 0
0 0 0
0 0 0
0 0 0
0 0 0
0 0 0
0 0 0
0 0 0
0 0 0
0 0 0
0 0 0
0 0 0
0 0 0
0 0 0
0 0 0
0 0 0
0 0 0
0 0 0
0 0 0
0 0 0
0 0 0
0 0 0
0 0 0
0 0 0
0 0 0
0 0 0
0 0 0
0 0 0
0 0 0
0 0 0
0 0 0
0 0 0
0 0 0
2 0 0
0 1 0
169 0 49
247 6 78
247 6 78
247 6 78
247 2 78
169 0 49
0 0 0
125 5 39
247 6 78
247 6 78
247 6 78
247 6 78
208 7 67
2 0 0
59 58 59
135 135 137
3 4 4
47 45 50
144 143 148
59 64 62
16 15 16
20 21 23
90 1 28
248 3 80
169 0 49
2 1 1
0 0 0
44 44 49
68 68 71
32 32 35
16 15 16
15 15 14
14 14 14
13 13 13
12 12 13
13 13 13
17 16 17
15 15 14
16 15 16
17 16 17
12 12 13
12 11 11
15 15 14
15 15 14
17 16 16
17 16 16
14 14 14
18 17 18
17 16 16
12 12 13
16 15 16
16 15 16
14 14 14
17 16 16
19 18 19
15 15 14
16 15 16
17 16 16
16 15 16
18 18 18
18 17 18
13 13 13
12 11 11
13 13 13
18 18 18
22 22 23
20 21 23
20 20 18
33 33 38
41 41 46
17 16 17
1 0 0
4 3 0
169 0 49
248 3 80
90 1 28
16 17 21
44 44 49
4 3 3
102 102 105
135 135 140
47 45 50
12 12 13
122 122 126
19 18 19
0 0 1
6 5 6
5 5 6
5 5 6
5 5 6
5 4 7
4 4 6
5 5 6
5 5 6
7 7 7
2 2 5
99 92 38
224 210 0
224 210 0
184 170 1
0 0 1
99 92 38
216 202 3
216 202 3
184 170 1
4 3 3
161 149 0
224 210 0
224 210 0
119 114 45
0 0 1
161 149 0
224 210 0
224 210 0
99 92 38
60 58 2
224 210 0
224 210 0
161 149 0
0 0 1
6 6 5
5 4 7
7 7 7
4 4 8
99 92 38
224 210 0
216 202 3
184 170 1
0 0 4
161 149 0
216 202 3
224 210 0
119 114 45
0 0 4
7 7 7
5 5 6
4 4 8
6 6 7
0 0 1
22 22 23
122 122 126
14 14 14
48 48 50
135 135 140
102 102 105
6 5 2
26 26 29
21 3 8
211 3 68
227 2 72
51 1 16
1 0 0
20 21 23
71 72 76
33 33 38
13 13 13
15 15 14
16 15 16
17 16 16
14 14 14
12 11 11
13 13 13
18 17 18
17 16 16
12 12 13
17 16 17
17 16 16
12 11 11
15 15 14
17 16 17
14 14 14
14 14 14
13 13 13
12 11 11
15 15 14
15 15 14
14 14 14
18 18 18
17 16 16
12 11 11
13 13 13
13 13 13
17 16 17
18 17 18
17 16 16
16 15 16
12 11 11
10 10 10
13 13 13
16 15 16
15 15 14
15 15 14
17 16 16
37 37 37
45 45 50
24 24 28
0 0 0
0 1 0
162 2 52
248 3 80
125 1 38
7 19 14
48 48 50
9 9 9
90 90 92
122 122 126
20 21 23
18 18 18
149 150 146
45 45 44
21 3 8
235 2 74
247 6 78
247 6 78
247 6 78
247 6 78
89 6 27
0 1 0
211 3 68
248 3 80
247 6 78
248 3 80
248 3 80
169 0 49
0 0 0
2 1 1
0 0 0
0 0 0
0 0 0
0 0 0
0 0 0
0 0 0
0 0 0
0 0 0
0 0 0
0 0 0
0 0 0
0 0 0
0 0 0
0 0 0
0 0 0
0 0 0
0 0 0
0 0 0
0 0 0
0 0 0
0 0 0
0 0 0
0 0 0
0 0 0
0 0 0
0 0 0
0 0 0
0 0 0
0 0 0
0 0 0
0 0 0
0 0 0
0 0 0
0 0 0
0 0 0
0 0 0
0 0 0
0 0 0
0 0 0
0 0 0
0 0 0
0 0 0
0 0 0
0 0 0
0 0 0
0 0 0
0 0 0
0 0 0
0 0 0
0 0 0
0 0 0
0 0 0
0 0 0
0 0 0
0 0 0
0 0 0
0 0 0
0 0 0
0 0 0
0 0 0
0 0 0
0 0 0
0 0 0
0 0 0
0 0 0
0 0 0
0 0 0
0 0 0
0 0 0
0 0 0
0 0 0
0 0 0
0 0 0
0 0 0
0 0 0
0 0 0
0 0 0
0 0 0
0 0 0
0 0 0
0 0 0
0 0 0
0 0 0
0 0 0
0 0 0
0 0 0
0 0 0
0 0 0
0 0 0
0 0 0
0 0 0
0 0 0
1 0 0
0 0 0
51 1 16
90 1 28
90 1 28
90 1 28
90 1 28
21 3 8
0 0 0
21 3 8
90 1 28
90 1 28
90 1 28
90 1 28
56 0 15
0 0 0
59 58 59
139 138 142
5 5 6
45 45 44
144 143 148
59 64 62
14 14 14
16 15 16
162 2 52
248 3 80
125 1 38
0 0 0
7 2 3
59 58 59
44 44 49
19 19 18
1 1 1
10 10 10
17 16 17
0 0 0
6 5 6
17 16 16
1 0 0
7 7 7
15 15 14
0 0 0
5 5 6
12 12 13
0 0 0
9 9 9
18 18 18
1 1 1
13 13 13
3 4 4
0 0 0
18 17 18
5 5 6
0 0 0
18 17 18
9 9 9
0 0 0
18 18 18
12 11 11
0 0 0
12 11 11
12 12 13
0 0 0
13 13 13
17 16 16
0 0 0
7 7 7
22 22 23
4 3 3
3 4 4
26 26 29
42 41 47
28 31 34
2 0 0
0 0 0
125 1 38
248 3 80
162 2 52
6 15 11
42 41 47
4 3 3
94 95 98
139 138 142
47 45 50
12 12 13
124 124 125
20 20 18
0 0 1
6 6 7
4 4 8
4 4 6
4 4 6
4 4 8
5 4 7
5 5 6
5 5 6
9 9 9
0 0 4
161 149 0
255 252 2
255 252 2
224 210 0
0 0 4
119 114 45
255 248 6
255 250 4
224 210 0
2 1 2
184 170 1
255 252 2
255 252 2
161 149 0
0 0 0
184 170 1
255 248 6
255 248 6
161 149 0
99 92 38
255 252 2
255 252 2
161 149 0
0 0 1
6 6 5
5 4 7
9 9 9
4 4 8
107 102 43
255 250 4
255 252 2
224 210 0
0 0 4
184 170 1
255 252 2
255 252 2
161 149 0
2 2 5
7 7 7
5 4 7
5 5 6
6 6 7
0 0 0
22 22 23
122 122 126
16 15 16
48 48 50
135 135 140
102 102 105
7 7 7
7 19 14
89 6 27
246 4 78
162 2 52
2 1 1
0 0 0
41 41 46
68 68 71
32 32 35
9 9 9
0 0 0
5 5 6
3 4 4
2 1 1
12 12 13
7 7 7
0 0 0
3 4 4
7 7 7
0 0 0
10 10 10
12 12 13
0 0 0
6 6 7
15 15 14
1 0 0
0 0 0
17 16 16
6 6 5
1 0 0
16 15 16
7 7 7
0 0 0
10 10 10
13 13 13
0 0 0
2 1 2
18 17 18
4 3 3
0 0 0
9 9 9
10 11 12
0 0 0
4 3 3
23 23 23
6 6 5
4 3 3
27 27 24
41 41 46
34 35 40
7 2 3
0 0 0
90 1 28
248 3 80
169 0 49
10 8 10
41 41 46
9 9 9
94 95 98
124 124 125
18 18 18
20 21 23
149 150 146
44 42 44
0 0 0
56 0 15
90 1 28
90 1 28
90 1 28
90 1 28
10 0 2
0 0 0
51 1 16
90 1 28
90 1 28
125 1 38
125 1 38
51 1 16
0 0 0
1 0 0
0 0 0
0 0 0
0 0 0
0 0 0
0 0 0
0 0 0
0 0 0
0 0 0
0 0 0
0 0 0
0 0 0
0 0 0
0 0 0
0 0 0
0 0 0
0 0 0
0 0 0
0 0 0
0 0 0
0 0 0
0 0 0
0 0 0
0 0 0
0 0 0
0 0 0
0 0 0
0 0 0
0 0 0
0 0 0
0 0 0
0 0 0
0 0 0
0 0 0
0 0 0
0 0 0
0 0 0
0 0 0
0 0 0
0 0 0
0 0 0
0 0 0
0 0 0
0 0 0
0 0 0
0 0 0
0 0 0
0 0 0
0 0 0
0 0 0
0 0 0
0 0 0
0 0 0
0 0 0
0 0 0
0 0 0
0 0 0
0 0 0
0 0 0
0 0 0
0 0 0
0 0 0
0 0 0
0 0 0
0 0 0
0 0 0
0 0 0
0 0 0
0 0 0
0 0 0
0 0 0
0 0 0
0 0 0
0 0 0
0 0 0
0 0 0
0 0 0
0 0 0
0 0 0
0 0 0
0 0 0
0 0 0
0 0 0
0 0 0
0 0 0
0 0 0
0 0 0
0 0 0
0 0 0
0 0 0
0 0 0
0 0 0
0 0 0
1 0 0
0 0 0
51 1 16
125 5 39
125 5 39
125 5 39
125 5 39
51 1 16
0 0 0
24 23 7
99 92 38
119 114 45
119 114 45
119 114 45
60 58 2
0 0 0
62 61 53
135 135 137
7 7 7
44 42 44
144 143 148
68 68 71
7 8 10
19 18 19
210 2 67
235 2 74
51 1 16
0 0 0
19 18 19
59 64 62
32 32 35
13 13 13
3 2 3
12 12 13
22 22 23
7 7 7
15 15 14
20 20 18
3 3 3
7 7 7
14 14 14
3 3 3
9 9 9
18 18 18
3 4 4
7 7 7
15 15 14
4 3 3
15 15 14
12 12 13
7 7 7
20 21 23
12 11 11
6 6 5
20 20 18
12 11 11
3 4 4
18 17 18
15 15 14
6 6 5
17 16 16
14 14 14
3 3 3
17 16 16
23 23 23
7 7 7
16 14 12
17 16 16
2 1 2
4 3 3
22 22 23
39 39 41
36 36 40
6 5 6
0 0 0
56 0 15
246 4 78
208 7 67
21 3 8
34 35 40
6 5 6
102 102 105
139 138 142
47 45 50
14 14 14
124 124 125
19 19 18
0 0 1
5 4 7
7 2 3
6 5 6
9 6 9
5 4 7
4 4 6
4 4 6
3 4 4
6 5 6
1 2 4
46 42 3
119 114 45
119 114 45
99 92 38
4 4 8
55 51 10
99 92 38
99 92 38
60 58 2
0 0 1
60 58 2
99 92 38
99 92 38
60 58 2
4 4 6
60 58 14
107 102 43
107 102 43
55 51 10
46 42 3
99 92 38
99 92 38
60 58 2
1 2 4
4 3 3
4 4 6
6 5 6
2 2 5
46 42 3
119 114 45
119 114 45
99 92 38
1 2 4
60 58 2
99 92 38
99 92 38
60 58 14
4 4 8
6 6 7
5 5 6
5 5 6
6 6 7
0 0 1
20 21 23
124 124 125
17 16 17
48 48 50
135 135 140
102 102 105
6 5 6
6 15 11
125 5 39
248 3 80
125 1 38
0 0 0
4 3 3
54 54 58
51 51 55
22 22 23
12 12 13
6 5 6
10 10 10
7 7 7
4 3 3
15 13 11
10 10 10
6 6 7
12 11 11
10 10 10
3 4 4
10 10 10
12 11 11
3 3 3
9 9 9
17 16 17
6 6 5
7 7 7
20 21 23
9 9 9
3 3 3
15 15 14
10 10 10
3 3 3
16 15 16
19 18 19
6 5 6
7 7 7
17 16 17
9 9 9
3 3 3
17 16 16
22 22 23
6 6 7
12 11 11
20 21 23
6 6 7
4 3 3
20 20 18
34 35 40
39 39 41
12 12 13
0 0 0
51 1 16
227 2 72
211 3 68
21 3 8
33 33 38
12 11 11
94 95 98
122 122 126
16 15 16
22 22 23
149 150 146
39 39 41
1 1 0
60 58 2
99 92 38
107 102 43
119 114 45
119 114 45
24 23 7
0 0 0
51 1 16
125 5 39
125 5 39
125 5 39
125 5 39
51 1 16
0 0 0
1 0 0
0 0 0
0 0 0
0 0 0
0 0 0
0 0 0
0 0 0
0 0 0
0 0 0
0 0 0
0 0 0
0 0 0
0 0 0
0 0 0
0 0 0
0 0 0
0 0 0
0 0 0
0 0 0
0 0 0
0 0 0
0 0 0
0 0 0
0 0 0
0 0 0
0 0 0
0 0 0
0 0 0
0 0 0
0 0 0
0 0 0
0 0 0
0 0 0
0 0 0
0 0 0
0 0 0
0 0 0
0 0 0
0 0 0
0 0 0
0 0 0
0 0 0
0 0 0
0 0 0
0 0 0
0 0 0
0 0 0
0 0 0
0 0 0
0 0 0
0 0 0
0 0 0
0 0 0
0 0 0
0 0 0
0 0 0
0 0 0
0 0 0
0 0 0
0 0 0
0 0 0
0 0 0
0 0 0
0 0 0
0 0 0
0 0 0
0 0 0
0 0 0
0 0 0
0 0 0
0 0 0
0 0 0
0 0 0
0 0 0
0 0 0
0 0 0
0 0 0
0 0 0
0 0 0
0 0 0
0 0 0
0 0 0
0 0 0
0 0 0
0 0 0
0 0 0
0 0 0
0 0 0
0 0 0
0 0 0
0 0 0
0 0 0
0 0 0
2 0 0
0 0 0
169 0 49
247 6 78
247 6 78
247 6 78
247 6 78
169 0 49
0 0 0
161 149 0
255 240 4
253 229 3
253 229 3
255 240 4
216 202 3
0 0 0
52 57 52
135 135 137
7 7 7
44 42 44
144 143 148
68 68 71
2 4 2
56 0 15
235 2 74
208 7 67
10 0 2
0 0 0
32 32 35
59 58 59
20 21 23
7 7 7
20 20 18
15 15 14
12 11 11
22 22 23
17 16 17
10 10 10
18 18 18
13 13 13
9 9 9
18 17 18
13 13 13
9 9 9
14 14 14
12 11 11
7 7 7
17 16 17
10 11 12
17 16 16
19 19 18
7 7 7
15 15 14
20 21 23
9 9 9
13 13 13
19 19 18
9 9 9
10 10 10
20 20 18
13 13 13
12 12 13
22 22 23
12 12 13
10 10 10
22 22 23
17 16 17
7 7 7
17 16 16
12 12 13
5 5 6
28 31 34
43 43 48
14 14 14
0 0 0
21 3 8
211 3 68
229 3 74
51 1 16
28 31 34
7 7 7
102 102 105
139 138 142
48 48 50
14 14 14
122 122 126
19 18 19
0 0 0
51 1 16
208 7 67
188 71 77
188 71 77
43 22 21
1 2 4
6 5 6
4 4 6
6 6 5
0 0 1
99 92 38
216 202 3
216 202 3
161 149 0
2 2 5
99 92 38
210 195 0
193 184 2
161 149 0
0 0 1
119 114 45
210 195 0
216 202 3
119 114 45
4 4 8
161 149 0
210 195 0
210 195 0
60 58 2
60 58 2
210 195 0
216 202 3
161 149 0
2 2 5
7 7 7
3 4 4
6 6 5
1 1 1
60 58 2
210 195 0
216 202 3
184 170 1
4 3 3
161 149 0
210 195 0
210 195 0
99 92 38
1 2 4
6 6 5
5 5 6
5 4 7
6 6 7
0 0 1
22 22 23
124 124 125
17 16 17
48 48 50
135 135 140
102 102 105
3 2 3
5 5 6
169 0 49
246 4 78
56 0 15
0 0 0
16 15 16
68 68 71
36 36 40
7 7 7
9 9 9
18 18 18
10 10 10
9 9 9
12 12 13
9 9 9
10 10 10
17 16 16
12 12 13
10 10 10
13 13 13
7 7 7
9 9 9
17 16 16
12 11 11
9 9 9
17 16 16
18 18 18
7 8 10
10 11 12
17 16 17
9 9 9
12 12 13
18 18 18
9 9 9
7 7 7
17 16 16
15 15 14
7 7 7
13 13 13
18 18 18
12 11 11
12 11 11
23 23 23
20 20 18
7 7 7
15 15 14
19 18 19
6 6 7
24 24 28
44 44 49
20 21 23
0 0 0
10 0 2
208 7 67
235 2 74
56 0 15
26 26 29
14 14 14
94 95 98
122 122 126
14 14 14
23 23 23
149 150 146
33 33 38
24 23 7
238 225 4
253 229 3
253 229 3
253 229 3
253 229 3
99 92 38
0 0 0
208 7 67
247 6 78
247 6 78
247 6 78
247 6 78
169 0 49
0 0 0
2 1 1
0 0 0
0 0 0
0 0 0
0 0 0
0 0 0
0 0 0
0 0 0
0 0 0
0 0 0
0 0 0
0 0 0
0 0 0
0 0 0
0 0 0
0 0 0
0 0 0
0 0 0
0 0 0
0 0 0
0 0 0
0 0 0
0 0 0
0 0 0
0 0 0
0 0 0
0 0 0
0 0 0
0 0 0
0 0 0
0 0 0
0 0 0
0 0 0
0 0 0
0 0 0
0 0 0
0 0 0
0 0 0
0 0 0
0 0 0
0 0 0
0 0 0
0 0 0
0 0 0
0 0 0
0 0 0
0 0 0
0 0 0
0 0 0
0 0 0
0 0 0
0 0 0
0 0 0
0 0 0
0 0 0
0 0 0
0 0 0
0 0 0
0 0 0
0 0 0
0 0 0
0 0 0
0 0 0
0 0 0
0 0 0
0 0 0
0 0 0
0 0 0
0 0 0
0 0 0
0 0 0
0 0 0
0 0 0
0 0 0
0 0 0
0 0 0
0 0 0
0 0 0
0 0 0
0 0 0
0 0 0
0 0 0
0 0 0
0 0 0
0 0 0
0 0 0
0 0 0
0 0 0
2 1 1
2 1 1
2 1 1
2 1 1
2 1 1
7 2 3
0 0 0
169 0 49
247 6 78
247 6 78
247 6 78
247 6 78
165 6 52
0 0 0
119 114 45
253 237 3
253 229 3
253 229 3
255 240 4
210 195 0
0 0 0
52 57 52
135 135 137
9 9 9
39 39 41
144 143 148
68 68 71
0 0 0
90 1 28
248 3 80
162 2 52
0 0 0
0 0 0
41 41 46
54 54 58
12 12 13
0 0 0
19 19 18
5 5 6
0 0 0
16 15 16
3 3 3
0 0 0
18 18 18
6 6 5
0 0 0
15 15 14
3 4 4
0 0 0
10 10 12
5 5 6
0 0 0
12 12 13
0 0 0
5 5 6
14 14 14
0 0 0
10 10 10
17 16 16
0 0 0
4 3 3
17 16 16
0 0 0
2 2 1
18 17 18
0 0 0
2 2 2
23 23 23
6 5 6
0 0 0
14 14 14
3 4 4
0 0 0
17 16 16
10 10 10
0 0 0
24 24 28
47 45 50
20 21 23
0 0 0
2 1 1
169 0 49
246 4 78
56 0 15
20 21 23
9 6 9
102 102 105
139 138 142
48 48 50
13 13 13
122 122 126
19 18 19
0 0 0
43 22 21
188 71 77
188 71 77
188 71 77
56 0 15
0 0 4
6 5 6
6 5 6
10 9 4
0 0 4
161 149 0
255 252 2
255 250 4
238 225 4
0 0 4
161 149 0
255 252 2
255 252 2
216 202 3
0 0 1
161 149 0
255 252 2
255 248 6
184 170 1
2 2 5
193 184 2
255 252 2
255 252 2
119 114 45
99 92 38
255 252 2
255 250 4
193 184 2
0 0 4
9 9 9
5 5 6
7 7 7
0 0 1
99 92 38
255 252 2
255 252 2
239 226 2
7 6 3
193 184 2
255 250 4
255 252 2
161 149 0
0 0 1
6 6 5
5 4 7
5 4 7
6 6 7
0 0 1
22 22 23
124 124 125
17 16 17
48 48 50
135 135 140
102 102 105
0 3 1
21 3 8
211 3 68
227 2 72
21 3 8
0 0 0
26 26 29
59 64 62
26 26 29
0 0 0
1 1 1
9 9 9
0 0 0
3 2 3
13 13 13
2 2 1
3 2 3
7 7 7
0 0 0
4 3 3
6 6 5
0 0 0
5 5 6
12 11 11
0 0 0
0 0 0
12 12 13
12 12 13
0 0 0
5 5 6
19 18 19
0 0 0
4 3 3
18 18 18
0 0 0
0 0 0
13 13 13
7 7 7
0 0 0
3 4 4
20 20 18
2 1 1
0 0 0
18 18 18
10 10 10
0 0 0
12 11 11
12 12 13
0 0 0
17 16 17
47 45 50
28 31 34
1 0 0
0 0 0
162 2 52
247 2 78
90 1 28
16 17 21
12 12 13
94 95 98
118 118 122
12 12 13
28 28 27
149 150 146
32 32 35
18 17 5
216 202 3
253 229 3
253 229 3
253 229 3
253 229 3
99 92 38
0 0 0
208 7 67
247 6 78
247 6 78
247 6 78
247 6 78
162 2 52
0 0 0
7 2 3
2 1 1
2 1 1
2 1 1
2 1 1
2 0 0
0 0 0
0 0 0
0 0 0
0 0 0
0 0 0
0 0 0
0 0 0
0 0 0
0 0 0
0 0 0
0 0 0
0 0 0
0 0 0
0 0 0
0 0 0
0 0 0
0 0 0
0 0 0
0 0 0
0 0 0
0 0 0
0 0 0
0 0 0
0 0 0
0 0 0
0 0 0
0 0 0
0 0 0
0 0 0
0 0 0
0 0 0
0 0 0
0 0 0
0 0 0
0 0 0
0 0 0
0 0 0
0 0 0
0 0 0
0 0 0
0 0 0
0 0 0
0 0 0
0 0 0
0 0 0
0 0 0
0 0 0
0 0 0
0 0 0
0 0 0
0 0 0
0 0 0
0 0 0
0 0 0
0 0 0
0 0 0
0 0 0
0 0 0
0 0 0
0 0 0
0 0 0
0 0 0
0 0 0
0 0 0
0 0 0
0 0 0
0 0 0
0 0 0
0 0 0
0 0 0
0 0 0
0 0 0
0 0 0
0 0 0
0 0 0
0 0 0
0 0 0
0 0 0
0 0 0
0 0 0
0 0 0
0 0 0
0 0 0
0 0 0
0 0 0
0 0 0
0 0 0
0 0 0
1 0 0
21 3 8
89 6 27
89 6 27
89 6 27
89 6 27
21 3 8
1 1 0
18 17 5
60 58 2
60 58 2
99 92 38
99 92 38
46 42 3
0 0 0
53 52 44
135 135 137
10 10 12
36 36 40
139 138 142
68 68 71
0 0 0
125 5 39
248 3 80
125 1 38
0 0 0
4 3 3
48 48 50
48 48 50
23 23 23
18 17 18
18 18 18
12 12 13
10 11 12
17 16 16
13 13 13
13 13 13
18 18 18
17 16 17
17 16 16
19 18 19
13 13 13
12 11 11
19 18 19
17 16 16
10 10 10
15 15 14
12 12 13
17 16 16
19 18 19
13 13 13
17 16 17
19 18 19
12 12 13
15 15 14
19 19 18
14 14 14
17 16 16
22 22 23
17 16 16
15 15 14
20 20 18
17 16 16
15 15 14
17 16 17
12 12 13
10 10 10
14 14 14
17 16 16
15 15 14
28 31 34
44 44 49
24 24 28
0 0 0
0 1 0
162 2 52
248 3 80
90 1 28
7 19 14
10 8 10
102 102 105
139 138 142
48 48 50
12 12 13
118 118 122
17 16 17
1 2 4
32 22 13
125 5 39
125 5 39
125 5 39
21 3 8
0 0 0
0 0 1
0 0 4
4 4 8
4 4 8
60 58 2
161 149 0
119 114 45
99 92 38
4 4 8
55 51 10
119 114 45
107 102 43
60 58 2
0 0 1
60 58 2
161 149 0
161 149 0
60 58 2
4 4 8
60 58 2
119 114 45
119 114 45
46 42 3
46 42 3
161 149 0
161 149 0
60 58 2
0 0 4
1 2 4
0 0 4
3 4 4
4 4 8
46 42 3
99 92 38
99 92 38
99 92 38
6 6 7
60 58 2
119 114 45
119 114 45
60 58 2
0 0 1
0 1 1
3 4 4
4 4 8
7 8 10
0 0 0
22 22 23
124 124 125
17 16 17
48 48 50
135 135 140
102 102 105
0 2 0
51 1 16
235 2 74
208 7 67
10 0 2
0 0 0
32 32 35
51 51 55
22 22 23
10 10 10
12 12 13
12 12 13
10 10 12
15 15 14
19 18 19
16 15 16
15 15 14
15 15 14
12 12 13
14 14 14
15 15 14
12 11 11
12 12 13
15 15 14
12 11 11
12 11 11
14 14 14
17 16 17
13 13 13
17 16 16
19 18 19
13 13 13
17 16 16
19 18 19
13 13 13
13 13 13
18 17 18
18 17 18
12 12 13
17 16 17
18 18 18
17 16 17
14 14 14
15 15 14
15 15 14
12 11 11
15 15 14
15 15 14
12 12 13
22 22 23
41 41 46
32 32 35
3 2 3
0 0 0
125 1 38
248 3 80
125 1 38
7 19 14
12 11 11
102 102 105
118 118 122
10 11 12
32 32 35
149 150 146
34 34 31
0 0 0
46 42 3
60 58 2
60 58 2
99 92 38
60 58 2
10 9 4
2 1 1
51 1 16
89 6 27
89 6 27
89 6 27
89 6 27
21 3 8
0 0 0
0 0 0
0 0 0
0 0 0
0 0 0
0 0 0
0 0 0
0 0 0
0 0 0
0 0 0
0 0 0
0 0 0
0 0 0
0 0 0
0 0 0
0 0 0
0 0 0
0 0 0
0 0 0
0 0 0
0 0 0
0 0 0
0 0 0
0 0 0
0 0 0
0 0 0
0 0 0
0 0 0
0 0 0
0 0 0
0 0 0
0 0 0
0 0 0
0 0 0
0 0 0
0 0 0
0 0 0
0 0 0
0 0 0
0 0 0
0 0 0
0 0 0
0 0 0
0 0 0
0 0 0
0 0 0
0 0 0
0 0 0
0 0 0
0 0 0
0 0 0
0 0 0
0 0 0
0 0 0
0 0 0
0 0 0
0 0 0
0 0 0
0 0 0
0 0 0
0 0 0
0 0 0
0 0 0
0 0 0
0 0 0
0 0 0
0 0 0
0 0 0
0 0 0
0 0 0
0 0 0
0 0 0
0 0 0
0 0 0
0 0 0
0 0 0
0 0 0
0 0 0
0 0 0
0 0 0
0 0 0
0 0 0
0 0 0
0 0 0
0 0 0
0 0 0
0 0 0
1 0 0
1 0 0
89 6 27
169 0 49
162 2 52
169 0 49
169 0 49
56 0 15
0 0 0
56 0 15
162 2 52
162 2 52
125 5 39
125 5 39
89 6 27
1 0 0
46 42 3
161 149 0
161 149 0
161 149 0
161 149 0
99 92 38
0 0 0
48 48 50
139 138 142
12 12 13
32 32 35
139 138 142
68 68 71
0 0 0
125 5 39
248 3 80
90 1 28
0 0 0
12 11 11
54 54 58
39 39 41
10 10 10
20 20 18
2 1 2
9 9 9
14 14 14
0 0 0
9 9 9
17 16 17
1 0 0
9 9 9
19 19 18
1 1 1
9 9 9
18 18 18
3 3 3
6 6 7
13 13 13
0 0 0
13 13 13
9 9 9
1 1 1
17 16 17
6 6 7
1 1 1
17 16 16
9 9 9
0 0 0
17 16 16
13 13 13
2 2 1
17 16 16
14 14 14
0 0 0
12 11 11
17 16 17
1 1 1
9 9 9
19 18 19
2 0 0
10 9 4
22 22 23
20 21 23
44 44 49
28 31 34
2 0 0
0 0 0
162 2 52
248 3 80
125 1 38
7 19 14
10 8 10
102 102 105
139 138 142
45 45 50
13 13 13
122 122 126
18 18 18
0 0 4
46 42 3
161 149 0
184 170 1
161 149 0
24 23 7
46 42 3
184 170 1
184 170 1
161 149 0
1 2 4
60 58 2
184 170 1
161 149 0
161 149 0
0 0 4
60 58 2
184 170 1
161 149 0
161 149 0
0 3 1
99 92 38
93 188 35
161 149 0
99 92 38
0 0 4
99 92 38
161 149 0
161 149 0
60 58 2
60 58 2
161 149 0
161 149 0
99 92 38
10 9 4
161 149 0
161 149 0
184 170 1
46 42 3
46 42 3
93 188 35
93 188 35
64 167 23
1 2 4
99 92 38
161 149 0
161 149 0
60 58 2
46 42 3
184 170 1
184 170 1
161 149 0
18 17 5
0 0 0
22 22 23
122 122 126
17 16 16
48 48 50
135 135 140
102 102 105
0 2 0
56 0 15
248 3 80
169 0 49
2 0 0
0 0 0
36 36 40
51 51 55
10 10 12
7 7 7
9 9 9
4 3 3
13 13 13
10 10 10
1 1 1
9 9 9
9 9 9
2 2 2
9 9 9
6 5 6
3 3 3
13 13 13
3 4 4
1 1 1
13 13 13
7 7 7
1 1 1
6 6 7
12 12 13
5 5 6
0 0 0
12 12 13
10 10 10
0 0 0
12 11 11
17 16 16
2 1 1
3 4 4
15 15 14
7 7 7
0 0 0
9 9 9
17 16 16
0 0 0
3 4 4
16 15 16
2 2 2
4 3 3
22 22 23
14 14 14
39 39 41
34 35 40
4 3 3
0 0 0
90 1 28
247 2 78
125 1 38
6 15 11
13 13 13
102 102 105
118 118 122
10 11 12
34 34 31
149 150 146
28 28 27
4 3 0
99 92 38
161 149 0
161 149 0
161 149 0
161 149 0
32 22 13
1 0 0
89 6 27
162 2 52
125 5 39
125 5 39
162 2 52
56 0 15
0 0 0
56 0 15
165 6 52
165 6 52
165 6 52
169 0 49
89 6 27
0 0 0
1 0 0
0 0 0
0 0 0
0 0 0
0 0 0
0 0 0
0 0 0
0 0 0
0 0 0
0 0 0
0 0 0
0 0 0
0 0 0
0 0 0
0 0 0
0 0 0
0 0 0
0 0 0
0 0 0
0 0 0
0 0 0
0 0 0
0 0 0
0 0 0
0 0 0
0 0 0
0 0 0
0 0 0
0 0 0
0 0 0
0 0 0
0 0 0
0 0 0
0 0 0
0 0 0
0 0 0
0 0 0
0 0 0
0 0 0
0 0 0
0 0 0
0 0 0
0 0 0
0 0 0
0 0 0
0 0 0
0 0 0
0 0 0
0 0 0
0 0 0
0 0 0
0 0 0
0 0 0
0 0 0
0 0 0
0 0 0
0 0 0
0 0 0
0 0 0
0 0 0
0 0 0
0 0 0
0 0 0
0 0 0
0 0 0
0 0 0
0 0 0
0 0 0
0 0 0
0 0 0
0 0 0
0 0 0
0 0 0
0 0 0
0 0 0
0 0 0
0 0 0
0 0 0
1 0 0
0 0 0
10 0 2
210 2 67
247 2 78
247 6 78
247 6 78
248 3 80
162 2 52
0 1 0
169 0 49
247 6 78
247 6 78
247 6 78
247 6 78
208 7 67
0 0 0
161 149 0
255 252 2
255 240 2
255 244 2
255 252 2
238 225 4
3 2 0
48 48 50
149 150 146
17 16 17
34 34 31
139 138 142
68 68 71
0 0 0
165 6 52
248 3 80
90 1 28
0 0 0
16 15 16
54 54 58
36 36 40
7 7 7
17 16 16
0 0 0
10 10 10
18 17 18
1 1 1
9 9 9
18 17 18
3 3 3
9 9 9
17 16 17
3 2 3
12 12 13
22 22 23
2 2 2
6 6 5
19 19 18
3 4 4
16 15 16
9 9 9
3 3 2
19 18 19
9 9 9
2 2 2
20 20 18
12 12 13
2 2 2
19 19 18
14 14 14
1 0 0
16 15 16
17 16 16
1 1 1
12 12 13
15 15 14
0 0 0
12 11 11
23 23 23
7 6 3
10 10 10
20 20 18
14 14 14
41 41 46
33 33 38
3 2 3
0 0 0
125 5 39
248 3 80
125 1 38
7 19 14
9 6 9
94 95 98
135 135 140
44 44 49
14 14 14
124 124 125
20 20 18
0 0 4
60 58 14
255 252 2
255 252 2
255 252 2
46 42 3
60 58 2
255 250 4
255 252 2
216 202 3
0 0 1
119 114 45
255 252 2
239 226 2
193 184 2
0 0 1
119 114 45
255 250 4
255 248 6
216 202 3
2 4 2
161 149 0
238 225 4
239 226 2
161 149 0
0 0 1
161 149 0
255 250 4
255 248 6
119 114 45
99 92 38
239 226 2
239 226 2
161 149 0
18 17 5
238 225 4
255 250 4
255 248 6
60 58 2
60 58 14
238 225 4
238 225 4
193 184 2
0 0 1
161 149 0
239 226 2
239 226 2
161 149 0
60 58 2
255 248 6
255 252 2
238 225 4
18 17 5
0 0 0
22 22 23
124 124 125
17 16 16
51 51 55
139 138 142
102 102 105
0 1 0
90 1 28
248 3 80
162 2 52
0 0 0
2 1 2
39 39 41
45 45 50
10 10 12
10 10 10
10 10 10
5 5 2
17 16 16
14 14 14
2 2 2
10 10 10
10 10 10
3 3 3
10 10 10
9 9 9
6 6 7
18 18 18
9 9 9
5 5 6
19 18 19
6 6 7
1 1 1
12 12 13
12 12 13
1 0 0
2 2 2
17 16 16
12 12 13
1 1 1
12 12 13
18 17 18
2 2 2
4 3 3
19 18 19
12 12 13
1 1 1
9 9 9
15 15 14
1 1 1
6 5 6
20 20 18
4 3 3
7 7 7
23 23 23
12 11 11
36 36 40
39 39 41
6 5 6
0 0 0
90 1 28
247 2 78
162 2 52
6 15 11
12 12 13
113 112 110
118 118 122
9 9 9
37 37 37
149 150 146
23 23 23
24 23 7
253 229 3
255 246 2
255 240 4
255 239 3
255 252 2
107 102 43
0 0 1
227 2 72
247 6 78
247 6 78
247 6 78
247 6 78
169 0 49
0 0 0
169 0 49
247 6 78
247 6 78
247 6 78
247 6 78
208 7 67
3 2 0
0 0 0
1 0 0
0 0 0
0 0 0
0 0 0
0 0 0
0 0 0
0 0 0
0 0 0
0 0 0
0 0 0
0 0 0
0 0 0
0 0 0
0 0 0
0 0 0
0 0 0
0 0 0
0 0 0
0 0 0
0 0 0
0 0 0
0 0 0
0 0 0
0 0 0
0 0 0
0 0 0
0 0 0
0 0 0
0 0 0
0 0 0
0 0 0
0 0 0
0 0 0
0 0 0
0 0 0
0 0 0
0 0 0
0 0 0
0 0 0
0 0 0
0 0 0
0 0 0
0 0 0
0 0 0
0 0 0
0 0 0
0 0 0
0 0 0
0 0 0
0 0 0
0 0 0
0 0 0
0 0 0
0 0 0
0 0 0
0 0 0
0 0 0
0 0 0
0 0 0
0 0 0
0 0 0
0 0 0
0 0 0
0 0 0
0 0 0
0 0 0
0 0 0
0 0 0
0 0 0
0 0 0
0 0 0
0 0 0
0 0 0
3 2 0
4 3 0
4 3 0
4 3 0
4 3 0
2 1 1
7 2 3
208 7 67
247 6 78
247 6 78
247 6 78
247 6 78
125 5 39
0 1 0
169 0 49
247 6 78
247 6 78
247 6 78
247 6 78
165 6 52
0 0 0
161 149 0
255 252 2
255 240 2
255 244 2
255 252 2
216 202 3
3 2 0
48 48 50
149 150 146
18 17 18
28 28 27
139 138 142
68 68 71
0 0 0
165 6 52
246 4 78
90 1 28
0 0 0
16 15 16
48 48 50
36 36 40
16 14 12
12 11 11
18 17 18
16 15 16
15 15 14
22 22 23
16 15 16
12 11 11
20 20 18
17 16 16
12 12 13
22 22 23
18 18 18
12 12 13
19 19 18
18 17 18
14 14 14
19 19 18
15 15 14
14 14 14
18 18 18
12 11 11
17 16 17
20 20 18
14 14 14
19 19 18
22 22 23
14 14 14
14 14 14
18 17 18
10 11 12
13 13 13
20 20 18
15 15 14
12 12 13
20 20 18
18 18 18
13 13 13
19 18 19
18 18 18
10 10 10
19 18 19
41 41 46
33 33 38
3 2 3
0 0 0
125 1 38
248 3 80
125 1 38
7 19 14
9 6 9
94 95 98
135 135 140
44 44 49
15 15 14
124 124 125
18 18 18
0 0 1
24 23 7
99 92 38
107 102 43
119 114 45
24 23 7
46 42 3
119 114 45
119 114 45
99 92 38
2 2 5
60 58 2
119 114 45
107 102 43
99 92 38
0 0 1
60 58 2
161 149 0
161 149 0
99 92 38
4 4 6
60 58 2
107 102 43
107 102 43
60 58 2
0 0 1
60 58 2
119 114 45
119 114 45
60 58 2
46 42 3
107 102 43
99 92 38
60 58 2
10 9 4
107 102 43
119 114 45
119 114 45
25 25 16
46 42 3
64 167 23
64 167 23
99 92 38
0 0 1
60 58 2
107 102 43
64 167 23
60 58 2
24 23 7
119 114 45
119 114 45
99 92 38
10 9 4
0 0 0
22 22 23
124 124 125
17 16 16
51 51 55
139 138 142
102 102 105
0 1 0
90 1 28
248 3 80
162 2 52
0 0 0
7 2 3
41 41 46
43 43 48
22 22 23
13 13 13
15 15 14
17 16 16
12 12 13
13 13 13
18 17 18
13 13 13
12 11 11
14 14 14
12 11 11
17 16 16
17 16 16
12 12 13
18 18 18
20 20 18
13 13 13
13 13 13
14 14 14
12 11 11
12 11 11
14 14 14
15 15 14
12 12 13
10 10 10
16 15 16
17 16 17
12 11 11
13 13 13
19 18 19
15 15 14
13 13 13
18 18 18
14 14 14
10 10 10
16 15 16
17 16 16
14 14 14
20 21 23
22 22 23
13 13 13
19 18 19
36 36 40
36 36 40
6 5 6
0 0 0
90 1 28
247 2 78
162 2 52
7 8 10
14 14 14
113 112 110
116 116 120
7 7 7
39 39 41
149 150 146
22 22 23
24 23 7
238 225 4
255 247 5
255 240 4
255 240 4
255 250 4
99 92 38
0 0 0
208 7 67
247 6 78
247 6 78
247 6 78
247 6 78
165 6 52
0 1 0
169 0 49
247 6 78
247 6 78
247 6 78
247 6 78
208 7 67
3 2 0
2 1 1
4 3 0
3 2 0
3 2 0
3 2 0
3 2 0
0 0 0
0 0 0
0 0 0
0 0 0
0 0 0
0 0 0
0 0 0
0 0 0
0 0 0
0 0 0
0 0 0
0 0 0
0 0 0
0 0 0
0 0 0
0 0 0
0 0 0
0 0 0
0 0 0
0 0 0
0 0 0
0 0 0
0 0 0
0 0 0
0 0 0
0 0 0
0 0 0
0 0 0
0 0 0
0 0 0
0 0 0
0 0 0
0 0 0
0 0 0
0 0 0
0 0 0
0 0 0
0 0 0
0 0 0
0 0 0
0 0 0
0 0 0
0 0 0
0 0 0
0 0 0
0 0 0
0 0 0
0 0 0
0 0 0
0 0 0
0 0 0
0 0 0
0 0 0
0 0 0
0 0 0
0 0 0
0 0 0
0 0 0
0 0 0
0 0 0
0 0 0
0 0 0
0 0 0
0 0 0
0 0 0
0 0 0
0 0 0
0 0 0
0 0 0
0 0 0
0 0 0
0 0 0
0 0 0
0 0 0
0 1 0
51 1 16
89 6 27
89 6 27
89 6 27
89 6 27
21 3 8
0 0 0
21 3 8
90 1 28
90 1 28
90 1 28
90 1 28
51 1 16
1 1 0
18 17 5
99 92 38
99 92 38
99 92 38
99 92 38
46 42 3
0 0 0
45 45 44
149 150 146
18 17 18
28 28 27
139 138 142
68 68 71
0 0 0
165 6 52
246 4 78
90 1 28
0 0 0
16 15 16
48 48 50
36 36 40
3 3 2
0 0 0
20 20 18
6 6 7
0 0 0
20 20 18
9 9 9
0 0 0
14 14 14
4 3 3
0 0 0
17 16 17
6 6 7
0 0 0
14 14 14
9 9 9
0 0 0
12 12 13
0 0 0
2 2 2
12 12 13
0 0 0
7 7 7
18 17 18
0 0 0
6 6 5
20 20 18
0 0 0
0 0 0
17 16 17
0 0 0
0 0 0
20 20 18
3 4 4
0 0 0
23 23 23
9 9 9
0 0 0
16 15 16
10 10 10
0 0 0
10 10 12
45 45 50
34 35 40
2 1 2
0 0 0
125 5 39
248 3 80
125 1 38
7 19 14
10 8 10
94 95 98
135 135 140
44 44 49
13 13 13
122 122 126
18 18 18
0 0 0
7 29 10
20 153 11
20 153 11
20 153 11
7 29 10
7 29 10
20 153 11
20 153 11
20 153 11
1 2 4
29 82 35
20 153 11
20 153 11
20 153 11
0 0 1
29 82 35
36 185 19
36 185 19
20 153 11
1 2 4
29 82 35
20 153 11
20 153 11
20 153 11
2 2 5
20 153 11
36 185 19
36 185 19
7 29 10
7 29 10
20 153 11
20 153 11
20 153 11
6 15 11
20 153 11
20 153 11
20 153 11
7 29 10
7 29 10
36 185 19
20 153 11
20 153 11
0 0 1
20 153 11
20 153 11
36 185 19
29 82 35
7 29 10
20 153 11
20 153 11
20 153 11
6 15 11
0 0 1
23 23 23
124 124 125
17 16 16
51 51 55
135 135 140
102 102 105
0 2 0
90 1 28
248 3 80
162 2 52
0 0 0
7 2 3
41 41 46
48 48 50
19 18 19
0 0 0
4 3 3
10 10 10
0 0 0
0 0 0
9 9 9
0 0 0
1 0 0
6 5 6
0 0 0
5 5 6
5 5 2
0 0 0
7 7 7
9 9 9
0 0 0
3 3 3
10 11 12
1 1 0
0 0 0
12 11 11
10 10 10
0 0 0
0 0 0
12 11 11
6 6 7
0 0 0
6 5 6
17 16 16
0 0 0
0 0 0
17 16 17
4 3 3
0 0 0
15 15 14
7 7 7
0 0 0
17 16 16
16 15 16
0 0 0
7 7 7
36 36 40
39 39 41
7 7 7
0 0 0
90 1 28
247 2 78
162 2 52
4 4 8
16 15 16
113 112 110
116 116 120
6 6 7
39 39 41
149 150 146
25 25 16
0 0 0
55 51 10
60 58 2
60 58 2
60 58 2
60 58 2
10 9 4
0 0 0
51 1 16
90 1 28
90 1 28
90 1 28
90 1 28
21 3 8
1 0 0
21 3 8
89 6 27
89 6 27
89 6 27
89 6 27
51 1 16
0 1 0
0 0 0
0 0 0
0 0 0
0 0 0
0 0 0
0 0 0
0 0 0
0 0 0
0 0 0
0 0 0
0 0 0
0 0 0
0 0 0
0 0 0
0 0 0
0 0 0
0 0 0
0 0 0
0 0 0
0 0 0
0 0 0
0 0 0
0 0 0
0 0 0
0 0 0
0 0 0
0 0 0
0 0 0
0 0 0
0 0 0
0 0 0
0 0 0
0 0 0
0 0 0
0 0 0
0 0 0
0 0 0
0 0 0
0 0 0
0 0 0
0 0 0
0 0 0
0 0 0
0 0 0
0 0 0
0 0 0
0 0 0
0 0 0
0 0 0
0 0 0
0 0 0
0 0 0
0 0 0
0 0 0
0 0 0
0 0 0
0 0 0
0 0 0
0 0 0
0 0 0
0 0 0
0 0 0
0 0 0
0 0 0
0 0 0
0 0 0
0 0 0
0 0 0
0 0 0
0 0 0
0 0 0
0 0 0
0 0 0
4 3 0
99 92 38
161 149 0
161 149 0
161 149 0
119 114 45
24 23 7
0 0 0
89 6 27
125 5 39
125 5 39
125 5 39
125 5 39
51 1 16
0 0 0
60 58 2
161 149 0
161 149 0
161 149 0
161 149 0
60 58 2
1 1 0
46 42 3
119 114 45
161 149 0
119 114 45
161 149 0
60 58 2
0 0 0
45 45 44
144 143 148
18 18 18
26 26 29
139 138 142
68 68 71
0 0 0
162 2 52
246 4 78
90 1 28
0 0 0
12 12 13
47 45 50
36 36 40
13 13 13
12 11 11
23 23 23
18 18 18
12 11 11
20 20 18
15 15 14
12 11 11
20 20 18
14 14 14
12 11 11
20 20 18
15 15 14
10 10 12
20 20 18
17 16 16
10 10 10
20 20 18
13 13 13
15 15 14
20 20 18
10 10 10
17 16 16
20 20 18
12 12 13
17 16 16
23 23 23
12 12 13
14 14 14
22 22 23
12 12 13
12 11 11
23 23 23
19 18 19
13 13 13
20 21 23
14 14 14
9 9 9
17 16 16
17 16 16
9 9 9
22 22 23
44 44 49
32 32 35
1 0 0
0 0 0
162 2 52
248 3 80
90 1 28
7 19 14
10 8 10
94 95 98
135 135 140
44 44 49
13 13 13
118 118 122
19 19 18
0 0 1
7 29 10
23 232 11
23 232 11
23 232 11
7 29 10
29 82 35
23 232 11
23 232 11
23 232 11
0 0 0
20 153 11
23 232 11
23 232 11
23 232 11
0 0 1
20 153 11
23 232 11
23 232 11
23 232 11
0 0 1
20 153 11
23 232 11
23 232 11
20 153 11
9 6 9
36 185 19
23 232 11
23 232 11
20 153 11
29 82 35
23 232 11
23 232 11
36 185 19
6 15 11
23 232 11
23 232 11
23 232 11
7 29 10
29 82 35
23 232 11
23 232 11
23 232 11
2 2 2
36 185 19
23 232 11
23 232 11
20 153 11
7 29 10
23 232 11
23 232 11
23 232 11
7 29 10
0 0 1
23 23 23
122 122 126
14 14 14
48 48 50
135 135 140
102 102 105
0 1 0
90 1 28
248 3 80
162 2 52
0 0 0
4 3 3
41 41 46
47 45 50
22 22 23
10 10 10
12 12 13
14 14 14
9 9 9
12 11 11
14 14 14
10 10 10
16 15 16
18 18 18
14 14 14
18 17 18
15 15 14
7 7 7
16 15 16
15 15 14
9 9 9
14 14 14
20 20 18
14 14 14
14 14 14
20 20 18
13 13 13
6 6 7
10 10 10
19 19 18
12 11 11
5 5 6
18 18 18
19 19 18
13 13 13
12 12 13
20 20 18
17 16 16
14 14 14
23 23 23
17 16 16
10 10 10
17 16 17
17 16 16
10 10 10
19 18 19
39 39 41
39 39 41
6 5 6
0 0 0
125 1 38
248 3 80
125 1 38
6 15 11
18 17 18
113 112 110
113 112 110
3 3 3
45 45 44
149 150 146
17 16 16
4 3 0
99 92 38
119 114 45
119 114 45
161 149 0
119 114 45
24 23 7
0 0 0
60 58 2
161 149 0
161 149 0
161 149 0
161 149 0
46 42 3
0 0 0
51 1 16
125 5 39
125 5 39
125 5 39
125 5 39
89 6 27
0 0 0
24 23 7
161 149 0
161 149 0
161 149 0
161 149 0
99 92 38
3 2 0
1 0 0
0 0 0
0 0 0
0 0 0
0 0 0
0 0 0
0 0 0
0 0 0
0 0 0
0 0 0
0 0 0
0 0 0
0 0 0
0 0 0
0 0 0
0 0 0
0 0 0
0 0 0
0 0 0
0 0 0
0 0 0
0 0 0
0 0 0
0 0 0
0 0 0
0 0 0
0 0 0
0 0 0
0 0 0
0 0 0
0 0 0
0 0 0
0 0 0
0 0 0
0 0 0
0 0 0
0 0 0
0 0 0
0 0 0
0 0 0
0 0 0
0 0 0
0 0 0
0 0 0
0 0 0
0 0 0
0 0 0
0 0 0
0 0 0
0 0 0
0 0 0
0 0 0
0 0 0
0 0 0
0 0 0
0 0 0
0 0 0
0 0 0
0 0 0
0 0 0
0 0 0
0 0 0
0 0 0
0 0 0
2 2 0
0 0 0
46 42 3
253 229 3
255 244 2
255 240 4
255 239 3
255 252 2
119 114 45
0 0 0
208 7 67
247 6 78
247 6 78
247 6 78
247 6 78
165 6 52
0 0 0
184 170 1
255 250 4
255 240 4
255 240 4
255 252 2
193 184 2
0 0 0
161 149 0
255 252 2
255 244 2
255 246 2
255 252 2
224 210 0
6 5 2
40 40 37
144 143 148
19 19 18
26 26 29
144 143 148
71 72 76
0 0 0
162 2 52
248 3 80
125 1 38
0 0 0
10 8 10
44 44 49
36 36 40
12 12 13
20 20 18
3 4 4
12 11 11
18 18 18
3 3 3
9 9 9
19 18 19
6 6 7
10 10 10
18 18 18
4 3 3
10 10 10
20 21 23
5 5 6
9 9 9
19 19 18
6 6 7
17 16 16
10 10 12
5 5 6
18 18 18
9 9 9
4 3 3
17 16 17
12 11 11
3 4 4
19 18 19
16 15 16
3 4 4
16 15 16
18 18 18
3 4 4
13 13 13
18 17 18
3 3 3
9 9 9
19 18 19
3 3 3
7 7 7
18 18 18
26 26 29
51 51 55
26 26 29
0 0 0
0 0 0
169 0 49
246 4 78
89 6 27
20 21 23
7 7 7
94 95 98
135 135 140
47 45 50
15 15 14
124 124 125
18 18 18
0 0 4
7 29 10
20 153 11
20 153 11
20 153 11
6 15 11
7 29 10
20 153 11
20 153 11
20 153 11
4 4 8
29 82 35
20 153 11
20 153 11
20 153 11
1 2 4
7 29 10
20 153 11
20 153 11
29 82 35
2 2 5
29 82 35
20 153 11
20 153 11
29 82 35
4 4 8
29 82 35
20 153 11
20 153 11
7 29 10
7 29 10
20 153 11
20 153 11
29 82 35
2 4 2
20 153 11
20 153 11
20 153 11
7 29 10
7 29 10
20 153 11
20 153 11
20 153 11
4 4 8
29 82 35
20 153 11
20 153 11
7 29 10
7 29 10
20 153 11
20 153 11
20 153 11
6 15 11
0 0 0
22 22 23
122 122 126
14 14 14
48 48 50
135 135 140
102 102 105
0 1 0
56 0 15
248 3 80
169 0 49
2 0 0
1 0 0
36 36 40
48 48 50
10 11 12
9 9 9
9 9 9
4 3 3
14 14 14
9 9 9
3 3 3
14 14 14
15 15 14
4 3 3
14 14 14
17 16 17
5 5 6
13 13 13
6 6 7
3 4 4
12 12 13
7 7 7
6 5 6
17 16 17
10 10 10
6 6 5
10 10 10
10 11 12
6 6 5
5 5 6
7 7 7
12 12 13
10 10 10
3 3 3
10 10 10
18 17 18
3 2 3
9 9 9
23 23 23
6 6 5
9 9 9
20 20 18
3 4 4
2 3 2
17 16 16
19 18 19
43 43 48
34 35 40
2 1 2
0 0 0
162 2 52
248 3 80
125 1 38
7 19 14
19 18 19
113 112 110
113 112 110
2 2 2
48 48 50
149 150 146
10 10 12
24 23 7
253 237 3
255 252 2
255 247 5
255 247 5
255 252 2
99 92 38
0 0 0
224 210 0
255 247 5
255 240 4
255 240 4
255 250 4
161 149 0
0 0 0
165 6 52
247 6 78
247 6 78
247 6 78
247 6 78
208 7 67
0 0 0
119 114 45
255 252 2
254 238 2
255 240 4
255 247 5
239 226 2
24 23 7
0 0 0
2 2 0
0 0 0
0 0 0
0 0 0
0 0 0
0 0 0
0 0 0
0 0 0
0 0 0
0 0 0
0 0 0
0 0 0
0 0 0
0 0 0
0 0 0
0 0 0
0 0 0
0 0 0
0 0 0
0 0 0
0 0 0
0 0 0
0 0 0
0 0 0
0 0 0
0 0 0
0 0 0
0 0 0
0 0 0
0 0 0
0 0 0
0 0 0
0 0 0
0 0 0
0 0 0
0 0 0
0 0 0
0 0 0
0 0 0
0 0 0
0 0 0
0 0 0
0 0 0
0 0 0
0 0 0
0 0 0
0 0 0
0 0 0
0 0 0
0 0 0
0 0 0
0 0 0
0 0 0
0 0 0
0 0 0
0 0 0
0 0 0
0 0 0
0 0 0
0 0 0
0 0 0
0 0 0
0 0 0
2 2 0
0 0 0
46 42 3
253 229 3
255 244 2
255 240 4
255 240 4
255 252 2
99 92 38
0 0 0
208 7 67
247 6 78
247 6 78
247 6 78
247 6 78
125 5 39
0 0 0
184 170 1
255 252 2
255 244 2
255 240 4
255 252 2
193 184 2
0 0 0
161 149 0
255 252 2
255 244 4
255 247 5
255 252 2
224 210 0
5 5 2
38 38 35
144 143 148
20 20 18
26 26 29
144 143 148
71 72 76
0 0 0
125 5 39
248 3 80
125 5 39
0 0 0
6 5 6
42 41 47
41 41 46
15 15 14
18 18 18
0 0 0
6 6 5
16 15 16
0 0 0
9 9 9
16 15 16
0 0 0
7 7 7
19 18 19
1 1 1
6 5 6
18 17 18
0 0 0
6 5 6
20 20 18
0 0 0
12 11 11
7 7 7
0 0 0
17 16 16
5 5 6
0 0 0
15 15 14
7 7 7
0 0 0
18 17 18
15 15 14
2 1 1
17 16 16
17 16 17
0 0 0
9 9 9
16 15 16
0 0 0
6 6 7
16 15 16
0 0 0
7 7 7
20 20 18
28 31 34
51 51 55
22 22 23
0 0 0
10 0 2
208 7 67
229 3 74
51 1 16
24 24 28
6 5 6
102 102 105
139 138 142
48 48 50
15 15 14
124 124 125
18 18 18
0 0 0
7 29 10
20 153 11
20 153 11
20 153 11
7 29 10
7 29 10
20 153 11
20 153 11
20 153 11
4 4 8
29 82 35
20 153 11
20 153 11
20 153 11
1 2 4
7 29 10
20 153 11
20 153 11
20 153 11
4 4 8
29 82 35
20 153 11
20 153 11
29 82 35
1 2 4
29 82 35
20 153 11
20 153 11
29 82 35
7 29 10
20 153 11
20 153 11
29 82 35
2 4 2
20 153 11
20 153 11
20 153 11
7 29 10
7 29 10
20 153 11
20 153 11
20 153 11
7 8 10
20 153 11
20 153 11
20 153 11
29 82 35
7 29 10
20 153 11
20 153 11
20 153 11
6 15 11
0 0 1
23 23 23
122 122 126
15 15 14
48 48 50
135 135 140
102 102 105
0 2 0
51 1 16
235 2 74
208 7 67
10 0 2
0 0 0
32 32 35
48 48 50
12 12 13
10 10 10
6 5 6
1 0 0
15 15 14
10 10 10
3 3 2
14 14 14
10 10 10
0 0 0
9 9 9
10 10 10
1 0 0
15 15 14
3 3 3
2 2 2
13 13 13
3 3 3
2 2 2
15 15 14
6 5 6
0 0 0
9 9 9
13 13 13
4 3 3
1 1 1
6 6 7
14 14 14
6 6 7
0 0 0
5 5 6
17 16 17
1 1 1
9 9 9
20 20 18
0 0 0
3 3 3
18 18 18
2 2 2
2 1 2
17 16 16
19 18 19
44 44 49
28 31 34
0 0 0
2 0 0
169 0 49
248 3 80
89 6 27
7 19 14
18 17 18
116 116 120
113 112 110
0 0 0
54 54 58
149 150 146
10 10 12
24 23 7
239 226 2
255 252 2
255 244 2
255 244 2
255 252 2
99 92 38
0 0 0
224 210 0
255 252 2
255 244 4
255 240 4
255 252 2
161 149 0
0 0 0
165 6 52
247 6 78
247 6 78
247 6 78
247 6 78
208 7 67
0 0 0
119 114 45
255 252 2
255 240 4
255 244 2
255 250 4
253 229 3
24 23 7
0 0 0
2 2 0
0 0 0
0 0 0
0 0 0
0 0 0
0 0 0
0 0 0
0 0 0
0 0 0
0 0 0
0 0 0
0 0 0
0 0 0
0 0 0
0 0 0
0 0 0
0 0 0
0 0 0
0 0 0
0 0 0
0 0 0
0 0 0
0 0 0
0 0 0
0 0 0
0 0 0
0 0 0
0 0 0
0 0 0
0 0 0
0 0 0
0 0 0
0 0 0
0 0 0
0 0 0
0 0 0
0 0 0
0 0 0
0 0 0
0 0 0
0 0 0
0 0 0
0 0 0
0 0 0
0 0 0
0 0 0
0 0 0
0 0 0
0 0 0
0 0 0
0 0 0
0 0 0
0 0 0
0 0 0
0 0 0
0 0 0
0 0 0
0 0 0
0 0 0
0 0 0
0 0 0
0 0 0
0 0 0
0 0 0
0 0 0
4 3 0
99 92 38
161 149 0
119 114 45
161 149 0
119 114 45
24 23 7
0 0 0
56 0 15
125 5 39
125 1 38
125 1 38
125 1 38
51 1 16
0 0 0
55 51 10
161 149 0
119 114 45
119 114 45
161 149 0
55 51 10
0 0 0
46 42 3
161 149 0
119 114 45
119 114 45
161 149 0
60 58 2
0 0 0
38 38 35
146 145 141
20 21 23
27 27 24
144 143 148
71 72 76
0 0 0
90 1 28
248 3 80
169 0 49
0 1 0
1 0 0
33 33 38
47 45 50
23 23 23
15 15 14
17 16 16
12 12 13
13 13 13
18 18 18
18 18 18
16 15 16
19 19 18
19 18 19
16 15 16
19 18 19
19 18 19
17 16 16
18 18 18
19 18 19
17 16 17
18 18 18
15 15 14
17 16 17
20 20 18
15 15 14
16 15 16
17 16 17
14 14 14
15 15 14
17 16 16
15 15 14
17 16 17
22 22 23
17 16 17
14 14 14
18 18 18
16 15 16
14 14 14
19 18 19
18 17 18
13 13 13
19 19 18
20 20 18
15 15 14
36 36 40
44 44 49
14 14 14
0 0 0
51 1 16
235 2 74
208 7 67
21 3 8
28 31 34
6 5 6
102 102 105
139 138 142
48 48 50
13 13 13
118 118 122
19 19 18
0 0 1
7 29 10
23 232 11
23 232 11
23 232 11
7 29 10
29 82 35
23 232 11
23 232 11
23 232 11
0 0 4
20 153 11
23 232 11
23 232 11
23 232 11
0 0 0
20 153 11
23 232 11
23 232 11
23 232 11
2 2 2
36 185 19
23 232 11
23 232 11
20 153 11
0 0 1
20 153 11
23 232 11
23 232 11
20 153 11
29 82 35
23 232 11
23 232 11
20 153 11
6 15 11
23 232 11
23 232 11
23 232 11
7 29 10
29 82 35
23 232 11
23 232 11
23 232 11
4 4 6
36 185 19
23 232 11
23 232 11
20 153 11
7 29 10
23 232 11
23 232 11
23 232 11
7 29 10
0 0 1
23 23 23
122 122 126
16 15 16
48 48 50
135 135 140
102 102 105
0 2 0
21 3 8
227 2 72
227 2 72
21 3 8
0 0 0
22 22 23
45 45 50
28 28 27
16 14 12
17 16 16
17 16 16
17 16 16
19 19 18
20 21 23
15 15 14
13 13 13
17 16 17
13 13 13
14 14 14
17 16 16
14 14 14
20 21 23
17 16 17
13 13 13
18 18 18
15 15 14
10 11 12
17 16 17
15 15 14
13 13 13
19 18 19
17 16 17
12 11 11
19 18 19
18 18 18
10 10 10
12 11 11
15 15 14
15 15 14
18 18 18
19 18 19
15 15 14
18 18 18
17 16 17
12 11 11
15 15 14
20 20 18
16 15 16
28 31 34
43 43 48
20 21 23
0 0 0
21 3 8
211 3 68
227 2 72
51 1 16
24 24 28
19 18 19
116 116 120
102 102 105
0 0 0
59 58 59
149 150 146
16 15 11
1 1 0
99 92 38
161 149 0
119 114 45
161 149 0
107 102 43
24 23 7
1 0 0
60 58 2
161 149 0
119 114 45
119 114 45
119 114 45
46 42 3
0 0 0
51 1 16
125 1 38
125 1 38
125 1 38
125 1 38
56 0 15
0 2 0
24 23 7
107 102 43
119 114 45
119 114 45
119 114 45
99 92 38
3 2 0
0 0 0
0 0 0
0 0 0
0 0 0
0 0 0
0 0 0
0 0 0
0 0 0
0 0 0
0 0 0
0 0 0
0 0 0
0 0 0
0 0 0
0 0 0
0 0 0
0 0 0
0 0 0
0 0 0
0 0 0
0 0 0
0 0 0
0 0 0
0 0 0
0 0 0
0 0 0
0 0 0
0 0 0
0 0 0
0 0 0
0 0 0
0 0 0
0 0 0
0 0 0
0 0 0
0 0 0
0 0 0
0 0 0
0 0 0
0 0 0
0 0 0
0 0 0
0 0 0
0 0 0
0 0 0
0 0 0
0 0 0
0 0 0
0 0 0
0 0 0
0 0 0
0 0 0
0 0 0
0 0 0
0 0 0
0 0 0
0 0 0
0 0 0
0 0 0
0 0 0
0 0 0
0 0 0
0 0 0
0 0 0
0 0 0
1 1 0
0 0 0
60 58 2
99 92 38
99 92 38
99 92 38
99 92 38
18 17 5
1 0 0
55 51 10
99 92 38
99 92 38
99 92 38
99 92 38
24 23 7
1 1 0
46 42 3
99 92 38
99 92 38
99 92 38
99 92 38
46 42 3
1 1 0
24 23 7
99 92 38
99 92 38
99 92 38
99 92 38
60 58 2
0 0 0
34 34 31
146 145 141
23 23 23
27 27 24
144 143 148
68 68 71
2 4 2
56 0 15
235 2 74
208 7 67
21 3 8
0 0 0
26 26 29
51 51 55
17 16 17
0 0 0
20 20 18
6 6 5
0 0 0
19 18 19
6 6 7
0 0 0
19 19 18
7 7 7
0 0 0
15 15 14
7 7 7
0 0 0
15 15 14
7 7 7
0 0 0
15 15 14
4 3 3
6 5 6
17 16 17
0 0 0
7 7 7
16 15 16
0 0 0
4 3 3
17 16 17
0 0 0
0 1 0
17 16 17
0 0 0
0 0 0
22 22 23
3 4 4
0 0 0
20 20 18
10 10 10
4 3 0
23 23 23
12 11 11
3 2 3
39 39 41
39 39 41
6 5 6
0 0 0
90 1 28
248 3 80
169 0 49
10 11 12
36 36 40
6 5 6
102 102 105
139 138 142
47 45 50
10 11 12
116 116 120
16 17 21
4 4 8
7 29 10
20 153 11
20 153 11
20 153 11
6 15 11
7 29 10
20 153 11
20 153 11
20 153 11
2 1 2
29 82 35
20 153 11
20 153 11
20 153 11
5 4 7
29 82 35
20 153 11
20 153 11
29 82 35
3 2 3
29 82 35
20 153 11
20 153 11
29 82 35
3 2 3
29 82 35
20 153 11
20 153 11
25 41 26
7 29 10
20 153 11
20 153 11
29 82 35
6 7 3
20 153 11
20 153 11
20 153 11
7 29 10
7 29 10
20 153 11
20 153 11
20 153 11
2 1 2
29 82 35
20 153 11
20 153 11
29 82 35
7 29 10
20 153 11
20 153 11
20 153 11
10 11 5
1 1 1
22 22 23
130 130 134
20 20 18
48 48 50
139 138 142
102 102 105
3 3 3
6 5 6
169 0 49
246 4 78
89 6 27
0 0 0
16 15 16
51 51 55
32 32 35
0 0 0
7 7 7
19 19 18
3 2 0
2 2 1
13 13 13
0 0 0
1 1 0
9 9 9
0 0 0
9 9 9
7 7 7
0 0 0
17 16 17
9 9 9
0 0 0
15 15 14
3 3 3
0 0 0
14 14 14
5 5 6
0 0 0
17 16 16
6 6 7
0 0 0
13 13 13
9 9 9
0 0 0
9 9 9
9 9 9
0 0 0
14 14 14
7 7 7
0 0 0
17 16 16
12 12 13
0 0 0
14 14 14
15 15 14
0 0 0
33 33 38
43 43 48
10 8 10
0 0 0
56 0 15
246 4 78
169 0 49
15 13 11
32 32 35
19 18 19
116 116 120
102 102 105
0 0 0
59 64 62
149 150 146
16 15 11
1 1 0
60 58 2
99 92 38
99 92 38
99 92 38
99 92 38
24 23 7
1 1 0
60 58 2
99 92 38
99 92 38
99 92 38
99 92 38
46 42 3
1 0 0
46 42 3
99 92 38
99 92 38
99 92 38
99 92 38
60 58 2
2 1 1
18 17 5
99 92 38
99 92 38
99 92 38
99 92 38
60 58 2
0 0 0
1 1 0
0 0 0
0 0 0
0 0 0
0 0 0
0 0 0
0 0 0
0 0 0
0 0 0
0 0 0
0 0 0
0 0 0
0 0 0
0 0 0
0 0 0
0 0 0
0 0 0
0 0 0
0 0 0
0 0 0
0 0 0
0 0 0
0 0 0
0 0 0
0 0 0
0 0 0
0 0 0
0 0 0
0 0 0
0 0 0
0 0 0
0 0 0
0 0 0
0 0 0
0 0 0
0 0 0
0 0 0
0 0 0
0 0 0
0 0 0
0 0 0
0 0 0
0 0 0
0 0 0
0 0 0
0 0 0
0 0 0
0 0 0
0 0 0
0 0 0
0 0 0
0 0 0
0 0 0
0 0 0
0 0 0
0 0 0
0 0 0
0 0 0
0 0 0
0 0 0
0 0 0
0 0 0
0 0 0
0 0 0
1 1 0
0 0 0
24 23 7
238 225 4
255 252 2
255 244 2
255 244 2
255 252 2
99 92 38
0 0 0
210 195 0
255 250 4
255 239 3
255 239 3
255 252 2
161 149 0
0 0 0
184 170 1
255 252 2
255 240 2
255 244 2
255 252 2
193 184 2
0 0 0
161 149 0
255 252 2
255 244 2
255 246 2
255 252 2
216 202 3
4 3 0
34 34 31
149 150 146
28 28 27
20 21 23
144 143 148
68 68 71
10 11 12
18 17 18
208 7 67
235 2 74
56 0 15
0 0 0
16 15 16
47 45 50
26 26 29
9 9 9
27 27 24
15 15 14
12 12 13
27 27 24
13 13 13
6 6 5
19 19 18
12 12 13
9 9 9
19 18 19
12 12 13
7 7 7
18 17 18
14 14 14
9 9 9
20 21 23
10 10 10
12 11 11
20 21 23
9 9 9
17 16 16
22 22 23
9 9 9
15 15 14
20 20 18
9 9 9
10 10 10
19 18 19
9 9 9
9 9 9
23 23 23
14 14 14
12 12 13
27 27 24
15 15 14
7 7 7
23 23 23
14 14 14
19 18 19
41 41 46
26 26 29
1 0 0
0 0 0
162 2 52
248 3 80
125 1 38
7 19 14
42 41 47
3 2 3
94 95 98
139 138 142
54 54 58
4 4 6
118 118 122
54 54 58
0 0 0
0 0 4
0 0 0
0 0 0
0 0 0
0 0 0
0 0 1
0 0 1
0 0 0
0 0 0
0 0 0
0 0 0
0 0 0
0 0 0
0 0 0
0 0 1
0 0 4
0 0 0
0 0 0
0 0 0
0 0 0
0 0 0
0 0 0
0 0 0
0 0 0
0 0 0
0 0 0
0 0 0
0 0 1
0 0 1
0 0 0
0 0 0
0 0 0
0 0 0
0 0 0
0 0 0
0 0 0
0 0 1
0 0 4
0 0 4
0 0 0
0 0 0
0 0 0
0 0 0
0 0 0
0 0 0
0 0 0
0 0 1
0 0 4
0 0 0
0 0 0
0 0 0
0 0 0
0 0 0
59 64 62
124 124 125
9 9 9
59 58 59
135 135 140
94 95 98
6 5 6
6 15 11
125 5 39
248 3 80
125 5 39
0 0 0
7 7 7
43 43 48
41 41 46
10 10 10
15 15 14
19 18 19
7 7 7
9 9 9
15 15 14
7 8 10
9 9 9
13 13 13
9 9 9
17 16 17
14 14 14
7 7 7
18 18 18
14 14 14
9 9 9
17 16 16
10 10 10
7 7 7
17 16 17
10 10 10
7 7 7
20 20 18
14 14 14
7 7 7
18 17 18
15 15 14
7 7 7
17 16 16
15 15 14
6 6 7
16 15 16
14 14 14
9 9 9
20 21 23
20 20 18
12 11 11
22 22 23
17 16 16
10 11 12
41 41 46
32 32 35
2 1 1
0 0 0
125 5 39
248 3 80
125 1 38
7 19 14
36 36 40
19 18 19
118 118 122
102 102 105
0 0 0
68 68 71
149 150 146
7 8 10
24 23 7
239 226 2
255 252 2
255 250 4
255 247 5
255 250 4
99 92 38
0 0 0
224 210 0
255 252 2
255 244 2
255 240 2
255 252 2
161 149 0
0 0 0
161 149 0
255 252 2
255 239 3
255 240 4
255 250 4
210 195 0
0 0 0
99 92 38
255 252 2
255 246 2
255 246 2
255 252 2
239 226 2
24 23 7
0 0 0
2 2 0
0 0 0
0 0 0
0 0 0
0 0 0
0 0 0
0 0 0
0 0 0
0 0 0
0 0 0
0 0 0
0 0 0
0 0 0
0 0 0
0 0 0
0 0 0
0 0 0
0 0 0
0 0 0
0 0 0
0 0 0
0 0 0
0 0 0
0 0 0
0 0 0
0 0 0
0 0 0
0 0 0
0 0 0
0 0 0
0 0 0
0 0 0
0 0 0
0 0 0
0 0 0
0 0 0
0 0 0
0 0 0
0 0 0
0 0 0
0 0 0
0 0 0
0 0 0
0 0 0
0 0 0
0 0 0
0 0 0
0 0 0
0 0 0
0 0 0
0 0 0
0 0 0
0 0 0
0 0 0
0 0 0
0 0 0
0 0 0
0 0 0
0 0 0
0 0 0
0 0 0
0 0 0
0 0 0
2 2 0
0 0 0
24 23 7
239 226 2
255 246 2
255 244 2
255 244 2
255 252 2
119 114 45
0 0 0
224 210 0
255 252 2
255 247 5
255 244 4
255 252 2
161 149 0
0 0 0
193 184 2
255 252 2
255 244 2
255 246 2
255 252 2
210 195 0
0 0 0
161 149 0
255 252 2
255 244 2
255 246 2
255 252 2
224 210 0
6 5 2
34 34 31
149 150 146
28 28 27
18 18 18
139 138 142
71 72 76
14 14 14
7 19 14
125 1 38
248 3 80
125 5 39
0 0 0
7 2 3
39 39 41
44 44 49
22 22 23
5 5 6
17 16 16
27 27 24
9 9 9
15 15 14
20 20 18
5 5 6
10 10 10
19 19 18
7 7 7
12 12 13
22 22 23
6 6 5
12 11 11
20 20 18
9 9 9
15 15 14
12 12 13
7 7 7
22 22 23
15 15 14
9 9 9
22 22 23
14 14 14
5 5 6
18 18 18
16 15 16
5 5 6
17 16 17
18 18 18
3 4 4
17 16 17
27 27 24
12 11 11
15 15 14
19 18 19
3 4 4
7 7 7
33 33 38
42 41 47
13 13 13
1 0 0
21 3 8
211 3 68
235 2 74
56 0 15
28 31 34
41 41 46
2 1 2
94 95 98
135 135 140
91 91 95
0 0 0
68 68 71
135 135 140
74 74 77
54 54 58
59 64 62
59 64 62
59 64 62
59 64 62
59 64 62
68 68 71
68 68 71
59 64 62
59 58 59
59 58 59
59 58 59
59 64 62
59 64 62
68 68 71
68 68 71
68 68 71
59 64 62
59 64 62
59 58 59
59 58 59
59 64 62
59 64 62
68 68 71
68 68 71
68 68 71
59 64 62
59 64 62
59 64 62
59 64 62
59 64 62
59 64 62
59 64 62
59 58 59
59 64 62
59 64 62
59 64 62
59 64 62
59 64 62
59 64 62
59 58 59
59 58 59
54 54 58
59 58 59
59 64 62
59 64 62
59 64 62
59 64 62
59 64 62
59 64 62
68 68 71
59 58 59
79 79 83
132 132 135
68 68 71
0 0 0
91 91 95
130 130 134
94 95 98
6 5 6
7 19 14
90 1 28
248 3 80
208 7 67
10 0 2
0 0 0
28 28 27
48 48 50
28 28 27
9 9 9
3 3 3
10 10 10
9 9 9
5 5 6
17 16 16
12 11 11
7 7 7
17 16 17
10 10 10
14 14 14
20 20 18
5 5 6
12 11 11
14 14 14
3 4 4
13 13 13
15 15 14
5 5 6
12 12 13
18 17 18
5 5 6
10 10 10
18 18 18
7 7 7
10 10 10
19 19 18
9 9 9
7 7 7
14 14 14
5 5 6
9 9 9
22 22 23
9 9 9
10 10 10
20 21 23
9 9 9
7 7 7
32 32 35
43 43 48
19 18 19
0 0 0
21 3 8
208 7 67
246 4 78
56 0 15
26 26 29
32 32 35
20 21 23
118 118 122
102 102 105
0 0 0
68 68 71
146 145 141
4 4 6
46 42 3
253 237 3
255 252 2
255 250 4
255 247 5
255 252 2
99 92 38
0 0 0
224 210 0
255 252 2
255 244 2
255 244 4
255 252 2
184 170 1
0 0 0
184 170 1
255 252 2
255 244 4
255 244 4
255 252 2
216 202 3
0 0 0
119 114 45
255 252 2
255 246 2
255 252 2
255 252 2
255 240 4
46 42 3
0 0 0
2 2 0
0 0 0
0 0 0
0 0 0
0 0 0
0 0 0
0 0 0
0 0 0
0 0 0
0 0 0
0 0 0
0 0 0
0 0 0
0 0 0
0 0 0
0 0 0
0 0 0
0 0 0
0 0 0
0 0 0
0 0 0
0 0 0
0 0 0
0 0 0
0 0 0
0 0 0
0 0 0
0 0 0
0 0 0
0 0 0
0 0 0
0 0 0
0 0 0
0 0 0
0 0 0
0 0 0
0 0 0
0 0 0
0 0 0
0 0 0
0 0 0
0 0 0
0 0 0
0 0 0
0 0 0
0 0 0
0 0 0
0 0 0
0 0 0
0 0 0
0 0 0
0 0 0
0 0 0
0 0 0
0 0 0
0 0 0
0 0 0
0 0 0
0 0 0
0 0 0
0 0 0
0 0 0
0 0 0
0 0 0
0 0 0
4 3 0
99 92 38
161 149 0
161 149 0
161 149 0
161 149 0
24 23 7
0 0 0
60 58 2
161 149 0
161 149 0
161 149 0
161 149 0
46 42 3
0 0 0
60 58 2
161 149 0
161 149 0
161 149 0
161 149 0
60 58 2
0 0 0
46 42 3
161 149 0
161 149 0
161 149 0
161 149 0
99 92 38
1 1 0
34 34 31
149 150 146
28 28 27
17 16 17
139 138 142
68 68 71
16 15 16
28 31 34
90 1 28
248 3 80
208 7 67
10 0 2
0 0 0
26 26 29
51 51 55
26 26 29
0 0 0
13 13 13
18 17 18
0 0 0
6 6 5
18 17 18
0 0 0
6 6 5
17 16 16
0 0 0
9 9 9
20 20 18
0 0 0
6 5 6
16 15 16
0 0 0
12 11 11
10 10 10
0 0 0
17 16 17
4 3 3
0 0 0
18 17 18
9 9 9
0 0 0
18 18 18
13 13 13
0 0 0
13 13 13
16 15 16
0 0 0
12 11 11
17 16 16
0 0 0
12 11 11
23 23 23
0 0 0
12 12 13
41 41 46
33 33 38
4 3 3
0 0 0
90 1 28
248 3 80
169 0 49
10 10 10
41 41 46
34 35 40
2 2 2
102 102 105
130 130 134
130 130 134
54 54 58
0 0 0
51 51 55
94 95 98
94 95 98
94 95 98
94 95 98
102 102 105
102 102 105
102 102 105
102 102 105
102 102 105
102 102 105
102 102 105
94 95 98
102 102 105
102 102 105
102 102 105
102 102 105
102 102 105
102 102 105
102 102 105
102 102 105
102 102 105
102 102 105
102 102 105
102 102 105
113 112 110
102 102 105
102 102 105
102 102 105
102 102 105
102 102 105
102 102 105
102 102 105
102 102 105
102 102 105
102 102 105
102 102 105
102 102 105
102 102 105
102 102 105
102 102 105
102 102 105
102 102 105
94 95 98
94 95 98
94 95 98
102 102 105
102 102 105
102 102 105
94 95 98
102 102 105
102 102 105
102 102 105
102 102 105
94 95 98
47 45 50
0 0 0
48 48 50
122 122 126
124 124 125
94 95 98
9 6 9
32 32 35
51 1 16
227 2 72
235 2 74
56 0 15
1 0 0
16 15 16
47 45 50
32 32 35
1 1 1
0 0 0
15 15 14
7 7 7
0 0 0
10 10 10
7 7 7
3 4 4
15 15 14
1 0 0
6 6 7
16 15 16
0 0 0
9 9 9
9 9 9
0 0 0
12 12 13
15 15 14
0 0 0
9 9 9
13 13 13
0 0 0
5 5 6
18 18 18
0 0 0
4 3 3
18 17 18
0 0 0
0 0 0
15 15 14
1 1 1
2 2 1
18 17 18
0 0 0
2 2 2
20 21 23
1 1 0
9 9 9
42 41 47
39 39 41
6 5 6
0 0 0
90 1 28
248 3 80
208 7 67
9 6 9
41 41 46
28 31 34
23 23 23
118 118 122
102 102 105
0 0 0
71 72 76
135 135 137
6 6 5
6 5 2
99 92 38
161 149 0
161 149 0
161 149 0
161 149 0
24 23 7
0 0 0
60 58 2
161 149 0
161 149 0
161 149 0
161 149 0
60 58 2
0 0 0
60 58 2
161 149 0
161 149 0
161 149 0
161 149 0
60 58 2
0 0 0
24 23 7
161 149 0
161 149 0
161 149 0
161 149 0
99 92 38
5 5 2
0 0 0
0 0 0
0 0 0
0 0 0
0 0 0
0 0 0
0 0 0
0 0 0
0 0 0
0 0 0
0 0 0
0 0 0
0 0 0
0 0 0
0 0 0
0 0 0
0 0 0
0 0 0
0 0 0
0 0 0
0 0 0
0 0 0
0 0 0
0 0 0
0 0 0
0 0 0
0 0 0
0 0 0
0 0 0
0 0 0
0 0 0
0 0 0
0 0 0
0 0 0
0 0 0
0 0 0
0 0 0
0 0 0
0 0 0
0 0 0
0 0 0
0 0 0
0 0 0
0 0 0
0 0 0
0 0 0
0 0 0
0 0 0
0 0 0
0 0 0
0 0 0
0 0 0
0 0 0
0 0 0
0 0 0
0 0 0
0 0 0
0 0 0
0 0 0
0 0 0
0 0 0
0 0 0
0 0 0
0 0 0
0 0 0
0 0 0
0 0 0
46 42 3
60 58 2
60 58 2
60 58 2
60 58 2
10 9 4
0 0 0
24 23 7
60 58 2
60 58 2
60 58 2
60 58 2
10 11 5
0 0 0
24 23 7
60 58 2
60 58 2
60 58 2
60 58 2
18 17 5
0 0 0
10 9 4
60 58 2
60 58 2
60 58 2
60 58 2
46 42 3
0 0 0
28 28 27
149 150 146
34 34 31
14 14 14
135 135 140
68 68 71
12 12 13
43 43 48
21 3 8
208 7 67
246 4 78
89 6 27
0 0 0
10 8 10
47 45 50
43 43 48
17 16 17
16 15 16
15 15 14
15 15 14
15 15 14
15 15 14
17 16 17
22 22 23
20 20 18
19 19 18
19 19 18
17 16 17
17 16 16
20 20 18
19 18 19
15 15 14
17 16 16
17 16 17
14 14 14
15 15 14
15 15 14
16 15 16
18 17 18
20 20 18
19 18 19
20 20 18
20 20 18
19 19 18
20 20 18
20 20 18
19 18 19
16 15 16
10 11 12
12 12 13
18 17 18
17 16 17
16 15 16
33 33 38
42 41 47
16 15 16
1 0 0
10 0 2
208 7 67
248 3 80
90 1 28
7 19 14
44 44 49
33 33 38
2 2 2
102 102 105
132 132 135
130 130 134
132 132 135
68 68 71
6 6 7
0 0 0
0 0 0
0 0 0
0 0 0
0 0 0
0 0 0
0 0 0
0 0 0
0 0 0
0 0 0
0 0 0
0 0 0
0 0 0
0 0 0
0 0 0
0 0 0
0 0 0
0 0 0
0 0 0
0 0 0
0 0 0
0 0 0
0 0 0
0 0 0
0 0 0
0 0 0
1 1 0
0 0 0
0 0 0
0 0 0
0 0 0
0 0 0
0 0 0
0 0 0
0 0 0
0 0 0
0 0 0
0 0 0
0 0 0
0 0 0
0 0 0
0 0 0
0 1 0
2 1 2
0 0 0
0 0 0
0 0 0
0 0 0
0 0 0
0 0 0
0 0 0
0 0 0
0 0 0
0 0 0
5 5 6
59 64 62
118 118 122
122 122 126
130 130 134
102 102 105
5 5 6
41 41 46
6 15 11
162 2 52
248 3 80
125 1 38
0 0 0
3 2 3
33 33 38
43 43 48
19 18 19
15 13 11
19 18 19
15 15 14
13 13 13
17 16 17
17 16 17
19 19 18
18 18 18
12 12 13
13 13 13
15 15 14
14 14 14
17 16 16
17 16 16
16 15 16
17 16 17
19 18 19
17 16 17
17 16 16
15 15 14
15 15 14
18 18 18
20 20 18
19 18 19
17 16 16
17 16 17
17 16 17
19 19 18
19 19 18
15 15 14
12 12 13
14 14 14
14 14 14
15 15 14
16 15 16
17 16 16
33 33 38
47 45 50
20 21 23
1 0 0
7 2 3
169 0 49
248 3 80
125 1 38
7 19 14
47 45 50
26 26 29
26 26 29
122 122 126
102 102 105
0 0 0
76 77 81
135 135 137
5 5 2
0 0 0
46 42 3
60 58 2
60 58 2
60 58 2
60 58 2
10 9 4
1 1 0
46 42 3
99 92 38
60 58 2
99 92 38
99 92 38
18 17 5
0 0 0
18 17 5
60 58 2
60 58 2
99 92 38
99 92 38
46 42 3
1 1 0
10 9 4
60 58 2
99 92 38
99 92 38
99 92 38
46 42 3
0 0 0
1 1 0
0 0 0
0 0 0
0 0 0
0 0 0
0 0 0
0 0 0
0 0 0
0 0 0
0 0 0
0 0 0
0 0 0
0 0 0
0 0 0
0 0 0
0 0 0
0 0 0
0 0 0
0 0 0
0 0 0
0 0 0
0 0 0
0 0 0
0 0 0
0 0 0
0 0 0
0 0 0
0 0 0
0 0 0
0 0 0
0 0 0
0 0 0
0 0 0
0 0 0
0 0 0
0 0 0
0 0 0
0 0 0
0 0 0
0 0 0
0 0 0
0 0 0
0 0 0
0 0 0
0 0 0
0 0 0
0 0 0
0 0 0
0 0 0
0 0 0
0 0 0
0 0 0
0 0 0
0 0 0
0 0 0
0 0 0
0 0 0
0 0 0
0 0 0
0 0 0
0 0 0
0 0 0
0 0 0
0 0 0
2 1 1
0 0 0
24 23 7
224 210 0
255 244 2
255 240 4
255 244 4
255 250 4
99 92 38
0 0 0
193 184 2
255 252 2
254 238 2
254 238 2
255 252 2
161 149 0
0 0 0
184 170 1
255 252 2
255 240 2
255 240 2
255 252 2
184 170 1
0 0 0
161 149 0
255 252 2
254 238 2
255 240 2
255 252 2
216 202 3
6 5 2
27 27 24
149 150 146
37 37 37
13 13 13
135 135 140
71 72 76
10 10 12
51 51 55
6 15 11
125 1 38
248 3 80
165 6 52
2 1 1
2 0 0
28 31 34
51 51 55
28 31 34
2 1 2
0 0 0
19 18 19
7 7 7
0 0 0
18 18 18
10 10 10
2 1 1
19 19 18
9 9 9
0 0 0
16 15 16
7 7 7
0 0 0
17 16 16
3 2 3
2 1 2
10 10 12
0 0 0
10 10 10
19 18 19
0 0 0
7 7 7
22 22 23
0 0 0
4 3 3
23 23 23
3 4 4
1 1 1
19 18 19
3 4 4
0 0 0
17 16 16
7 7 7
0 0 0
26 26 29
47 45 50
33 33 38
4 3 3
0 0 0
90 1 28
248 3 80
210 2 67
21 3 8
33 33 38
42 41 47
34 35 40
3 2 3
102 102 105
135 135 137
124 124 125
124 124 125
135 135 140
130 130 134
116 116 120
118 118 122
122 122 126
122 122 126
118 118 122
118 118 122
116 116 120
118 118 122
124 124 125
124 124 125
116 116 120
113 112 110
118 118 122
122 122 126
118 118 122
118 118 122
118 118 122
118 118 122
118 118 122
122 122 126
118 118 122
116 116 120
113 112 110
116 116 120
118 118 122
113 112 110
102 102 105
102 102 105
113 112 110
116 116 120
116 116 120
118 118 122
122 122 126
122 122 126
124 124 125
118 118 122
116 116 120
113 112 110
113 112 110
116 116 120
118 118 122
116 116 120
113 112 110
116 116 120
118 118 122
118 118 122
116 116 120
113 112 110
116 116 120
116 116 120
118 118 122
122 122 126
118 118 122
116 116 120
130 130 134
139 138 142
122 122 126
124 124 125
130 130 134
102 102 105
2 1 2
39 39 41
20 21 23
89 6 27
248 3 80
208 7 67
21 3 8
0 0 0
18 17 18
51 51 55
36 36 40
16 15 16
0 0 0
7 6 3
20 20 18
4 3 3
6 5 6
10 10 10
1 1 1
17 16 16
6 6 5
0 0 0
13 13 13
1 1 1
3 3 3
19 19 18
2 1 1
0 0 0
18 17 18
5 5 6
0 0 0
20 20 18
9 9 9
0 0 0
15 15 14
9 9 9
0 0 0
17 16 16
14 14 14
0 0 0
12 11 11
12 11 11
0 0 0
15 15 14
13 13 13
0 0 0
19 18 19
47 45 50
39 39 41
6 5 6
0 0 0
89 6 27
246 4 78
210 2 67
21 3 8
28 31 34
47 45 50
26 26 29
26 26 29
122 122 126
102 102 105
0 0 0
76 77 81
132 132 135
0 1 1
24 23 7
238 225 4
255 244 2
255 240 2
255 240 2
255 252 2
99 92 38
0 0 0
216 202 3
255 252 2
255 244 2
255 240 2
255 252 2
161 149 0
0 0 0
161 149 0
255 252 2
255 240 2
255 240 2
255 252 2
193 184 2
0 0 0
99 92 38
255 252 2
255 240 2
255 244 2
255 252 2
238 225 4
24 23 7
0 0 0
2 2 0
0 0 0
0 0 0
0 0 0
0 0 0
0 0 0
0 0 0
0 0 0
0 0 0
0 0 0
0 0 0
0 0 0
0 0 0
0 0 0
0 0 0
0 0 0
0 0 0
0 0 0
0 0 0
0 0 0
0 0 0
0 0 0
0 0 0
0 0 0
0 0 0
0 0 0
0 0 0
0 0 0
0 0 0
0 0 0
0 0 0
0 0 0
0 0 0
0 0 0
0 0 0
0 0 0
0 0 0
0 0 0
0 0 0
0 0 0
0 0 0
0 0 0
0 0 0
0 0 0
0 0 0
0 0 0
0 0 0
0 0 0
0 0 0
0 0 0
0 0 0
0 0 0
0 1 0
0 2 0
0 2 0
0 2 0
0 1 0
0 0 0
0 0 0
0 1 0
0 2 0
0 2 0
0 2 0
2 3 1
0 0 0
46 42 3
239 226 2
255 244 2
255 244 2
255 244 4
255 252 2
119 114 45
0 0 0
216 202 3
255 250 4
255 240 2
255 240 2
255 252 2
161 149 0
0 0 0
193 184 2
255 252 2
255 244 2
255 240 2
255 252 2
210 195 0
0 0 0
161 149 0
255 252 2
255 240 2
255 244 2
255 252 2
224 210 0
6 7 3
27 27 24
149 150 146
37 37 37
13 13 13
139 138 142
71 72 76
9 9 9
47 45 50
28 31 34
51 1 16
227 2 72
246 4 78
56 0 15
0 0 0
9 6 9
41 41 46
45 45 50
14 14 14
5 5 6
23 23 23
17 16 16
9 9 9
20 20 18
10 10 10
3 4 4
17 16 16
13 13 13
9 9 9
20 20 18
12 11 11
4 4 6
18 17 18
9 9 9
9 9 9
19 18 19
6 6 7
15 15 14
22 22 23
5 5 6
12 11 11
23 23 23
10 10 10
12 12 13
23 23 23
7 7 7
5 5 6
17 16 17
12 11 11
12 11 11
27 27 24
12 12 13
10 10 10
36 36 40
41 41 46
10 10 12
1 0 0
21 3 8
208 7 67
246 4 78
90 1 28
7 19 14
44 44 49
42 41 47
39 39 41
6 6 5
102 102 105
130 130 134
122 122 126
118 118 122
76 77 81
59 64 62
68 68 71
74 74 77
74 74 77
74 74 77
74 74 77
74 74 77
74 74 77
74 74 77
79 79 83
113 112 110
144 143 148
139 138 142
124 124 125
84 83 84
74 74 77
76 77 81
76 77 81
76 77 81
74 74 77
76 77 81
79 79 83
79 79 83
76 77 81
74 74 77
76 77 81
116 116 120
130 130 134
130 130 134
102 102 105
71 72 76
74 74 77
79 79 83
79 79 83
76 77 81
74 74 77
74 74 77
71 72 76
71 72 76
68 68 71
68 68 71
84 83 84
130 130 134
139 138 142
139 138 142
94 95 98
74 74 77
74 74 77
71 72 76
71 72 76
71 72 76
71 72 76
68 68 71
68 68 71
68 68 71
68 68 71
90 90 92
130 130 134
124 124 125
130 130 134
94 95 98
2 1 2
34 35 40
39 39 41
10 8 10
169 0 49
248 3 80
125 1 38
0 0 0
4 3 3
34 35 40
48 48 50
26 26 29
9 9 9
17 16 16
20 21 23
10 10 10
9 9 9
9 9 9
6 6 5
19 18 19
10 10 10
10 10 10
19 18 19
7 7 7
7 7 7
19 19 18
9 9 9
7 7 7
20 21 23
12 11 11
7 7 7
19 19 18
10 10 10
4 3 3
18 18 18
15 15 14
6 6 5
15 15 14
12 12 13
3 4 4
16 15 16
20 21 23
12 11 11
22 22 23
18 17 18
7 7 7
33 33 38
42 41 47
14 14 14
1 0 0
10 0 2
208 7 67
248 3 80
125 1 38
6 15 11
42 41 47
43 43 48
26 26 29
28 28 27
122 122 126
102 102 105
0 0 0
76 77 81
127 128 122
0 0 0
46 42 3
239 226 2
255 244 2
255 244 2
255 244 2
255 252 2
99 92 38
0 1 0
224 210 0
255 252 2
255 244 2
255 240 2
255 252 2
161 149 0
0 0 0
184 170 1
255 252 2
255 244 2
255 244 2
255 252 2
216 202 3
0 0 0
119 114 45
255 252 2
255 244 2
255 244 2
255 246 2
253 237 3
46 42 3
0 0 0
2 3 1
0 2 0
0 2 0
0 2 0
0 1 0
0 0 0
0 0 0
0 1 0
0 2 0
0 1 0
0 1 0
0 1 0
0 0 0
0 0 0
0 0 0
0 0 0
0 0 0
0 0 0
0 0 0
0 0 0
0 0 0
0 0 0
0 0 0
0 0 0
0 0 0
0 0 0
0 0 0
0 0 0
0 0 0
0 0 0
0 0 0
0 0 0
0 0 0
0 0 0
0 0 0
0 0 0
0 0 0
0 0 0
0 0 0
0 0 0
0 0 0
0 0 0
0 0 0
0 0 0
0 0 0
0 0 0
0 0 0
0 0 0
0 0 0
0 0 0
0 0 0
0 0 0
0 0 0
0 0 0
0 0 0
0 0 0
0 0 0
0 1 0
0 1 0
0 0 0
0 0 0
0 0 0
0 0 0
0 0 0
1 1 0
10 9 4
119 114 45
161 149 0
161 149 0
161 149 0
161 149 0
46 42 3
0 0 0
99 92 38
161 149 0
161 149 0
161 149 0
161 149 0
46 42 3
0 0 0
60 58 2
161 149 0
161 149 0
161 149 0
161 149 0
60 58 2
1 1 0
60 58 2
161 149 0
161 149 0
161 149 0
161 149 0
99 92 38
0 0 0
27 27 24
149 150 146
39 39 41
12 12 13
135 135 140
71 72 76
7 8 10
44 44 49
47 45 50
6 15 11
125 1 38
248 3 80
169 0 49
3 2 0
1 0 0
19 18 19
51 51 55
43 43 48
20 20 18
7 7 7
15 15 14
20 20 18
9 9 9
12 11 11
17 16 17
6 6 7
12 12 13
20 20 18
9 9 9
12 12 13
18 18 18
7 7 7
18 18 18
18 18 18
10 11 12
20 21 23
10 11 12
6 6 7
19 18 19
17 16 16
10 10 10
22 22 23
18 17 18
9 9 9
18 17 18
17 16 17
5 5 6
13 13 13
20 21 23
9 9 9
17 16 17
39 39 41
43 43 48
19 18 19
2 0 0
0 1 0
125 1 38
247 2 78
208 7 67
7 2 3
34 35 40
42 41 47
42 41 47
39 39 41
7 7 7
102 102 105
130 130 134
116 116 120
28 28 27
7 7 7
37 37 37
34 34 31
32 32 35
37 37 37
37 37 37
37 37 37
34 34 31
34 34 31
37 37 37
37 37 37
7 7 7
59 58 59
102 102 105
10 10 10
20 21 23
28 28 27
28 31 34
28 28 27
28 28 27
34 34 31
34 34 31
34 34 31
32 32 35
37 37 37
39 39 41
19 19 18
9 9 9
102 102 105
84 83 84
3 3 3
28 28 27
34 34 31
34 34 31
34 34 31
34 34 31
28 28 27
28 28 27
28 28 27
28 28 27
32 32 35
37 37 37
18 18 18
23 23 23
122 122 126
39 39 41
12 11 11
28 28 27
28 28 27
34 34 31
34 34 31
34 34 31
32 32 35
32 32 35
28 28 27
32 32 35
32 32 35
5 5 6
39 39 41
118 118 122
124 124 125
94 95 98
4 3 3
36 36 40
47 45 50
16 17 21
90 1 28
246 4 78
227 2 72
51 1 16
0 0 0
10 8 10
44 44 49
45 45 50
24 24 28
12 11 11
6 6 7
17 16 16
12 12 13
9 9 9
15 15 14
5 5 6
12 12 13
14 14 14
6 6 5
17 16 16
17 16 16
7 7 7
18 18 18
20 20 18
9 9 9
15 15 14
17 16 16
5 5 6
10 10 12
18 18 18
9 9 9
12 11 11
18 18 18
7 7 7
7 7 7
20 21 23
12 12 13
9 9 9
22 22 23
12 11 11
9 9 9
33 33 38
44 44 49
24 24 28
2 0 0
0 0 0
125 1 38
248 3 80
210 2 67
21 3 8
33 33 38
41 41 46
43 43 48
26 26 29
28 28 27
122 122 126
94 95 98
0 0 0
84 83 84
127 128 122
1 1 0
6 7 3
99 92 38
161 149 0
161 149 0
161 149 0
161 149 0
46 42 3
0 0 0
60 58 2
161 149 0
161 149 0
161 149 0
161 149 0
60 58 2
0 1 0
60 58 2
161 149 0
161 149 0
161 149 0
161 149 0
99 92 38
0 1 0
46 42 3
161 149 0
161 149 0
161 149 0
161 149 0
119 114 45
6 5 2
0 2 0
0 0 0
0 0 0
0 0 0
0 0 0
0 0 0
0 0 0
0 1 0
0 0 0
0 0 0
0 0 0
0 0 0
0 0 0
0 0 0
0 0 0
0 0 0
0 0 0
0 0 0
0 0 0
0 0 0
0 0 0
0 0 0
0 0 0
0 0 0
0 0 0
0 0 0
0 0 0
0 0 0
0 0 0
0 0 0
0 0 0
0 0 0
0 0 0
0 0 0
0 0 0
0 0 0
0 0 0
0 0 0
0 0 0
0 0 0
0 0 0
0 0 0
0 0 0
0 0 0
0 0 0
0 0 0
0 0 0
0 0 0
0 0 0
0 0 0
0 0 0
0 0 0
0 0 0
7 29 10
7 29 10
7 29 10
7 29 10
7 29 10
0 0 0
0 0 0
6 15 11
7 29 10
7 29 10
7 29 10
7 29 10
0 0 0
0 0 0
2 4 2
7 29 10
7 29 10
7 29 10
7 29 10
0 0 0
1 1 0
2 4 2
7 29 10
7 29 10
7 29 10
7 29 10
0 0 0
1 1 0
0 3 1
7 29 10
7 29 10
7 29 10
7 29 10
0 1 1
1 1 0
0 0 1
7 29 10
7 29 10
7 29 10
7 29 10
2 4 2
0 0 0
23 23 23
149 150 146
39 39 41
12 11 11
132 132 135
71 72 76
9 9 9
45 45 50
44 44 49
28 31 34
21 3 8
211 3 68
246 4 78
90 1 28
0 0 0
3 2 0
33 33 38
54 54 58
37 37 37
0 0 0
4 3 3
14 14 14
0 0 0
6 6 5
19 18 19
0 0 0
3 4 4
15 15 14
0 0 0
7 7 7
20 20 18
0 0 0
12 12 13
9 9 9
0 0 0
18 17 18
7 7 7
0 0 0
20 20 18
12 11 11
0 0 0
12 12 13
9 9 9
0 0 0
13 13 13
17 16 17
0 0 0
12 11 11
15 15 14
0 0 0
28 31 34
47 45 50
28 31 34
3 2 3
0 0 0
56 0 15
227 2 72
235 2 74
89 6 27
7 19 14
47 45 50
41 41 46
41 41 46
36 36 40
4 3 3
94 95 98
139 138 142
76 77 81
2 1 2
130 130 134
149 150 146
144 143 148
149 150 146
149 150 146
149 150 146
149 150 146
144 143 148
144 143 148
144 143 148
149 150 146
94 95 98
14 14 14
32 32 35
59 58 59
183 187 147
144 143 148
144 143 148
139 138 142
139 138 142
139 138 142
139 138 142
139 138 142
139 138 142
144 143 148
149 150 146
144 143 148
33 33 38
48 48 50
28 28 27
88 87 91
149 150 146
144 143 148
139 138 142
132 132 135
135 135 140
139 138 142
139 138 142
135 135 140
139 138 142
144 143 148
149 150 146
144 143 148
32 32 35
37 37 37
26 26 29
139 138 142
139 138 142
144 143 148
144 143 148
149 150 146
144 143 148
144 143 148
144 143 148
139 138 142
135 135 140
144 143 148
94 95 98
0 0 0
79 79 83
139 138 142
102 102 105
3 4 4
36 36 40
42 41 47
41 41 46
7 7 7
165 6 52
248 3 80
165 6 52
2 0 0
2 0 0
23 23 23
51 51 55
39 39 41
6 6 7
0 0 0
14 14 14
9 9 9
7 7 7
13 13 13
0 0 0
7 7 7
9 9 9
0 0 0
12 12 13
12 12 13
0 0 0
9 9 9
12 12 13
0 0 0
9 9 9
15 15 14
1 0 0
7 7 7
17 16 16
0 0 0
0 0 0
10 10 10
0 0 0
1 1 1
20 20 18
5 5 6
0 0 0
15 15 14
3 4 4
24 24 28
48 48 50
33 33 38
4 3 3
0 1 0
56 0 15
235 2 74
246 4 78
56 0 15
7 19 14
43 43 48
39 39 41
44 44 49
24 24 28
28 28 27
122 122 126
94 95 98
0 0 0
90 90 92
127 128 122
0 0 0
0 0 0
2 4 2
7 29 10
7 29 10
7 29 10
7 29 10
0 0 0
0 0 0
2 4 2
7 29 10
7 29 10
7 29 10
7 29 10
0 1 1
1 1 0
0 3 1
7 29 10
7 29 10
7 29 10
7 29 10
2 4 2
0 1 0
0 0 0
6 15 11
7 29 10
7 29 10
7 29 10
2 4 2
0 0 0
0 0 0
7 29 10
7 29 10
7 29 10
7 29 10
7 29 10
0 0 0
0 0 0
10 11 5
7 29 10
7 29 10
7 29 10
7 29 10
0 0 0
0 0 0
0 0 0
0 0 0
0 0 0
0 0 0
0 0 0
0 0 0
0 0 0
0 0 0
0 0 0
0 0 0
0 0 0
0 0 0
0 0 0
0 0 0
0 0 0
0 0 0
0 0 0
0 0 0
0 0 0
0 0 0
0 0 0
0 0 0
0 0 0
0 0 0
0 0 0
0 0 0
0 0 0
0 0 0
0 0 0
0 0 0
0 0 0
0 0 0
0 0 0
0 0 0
0 0 0
0 2 0
0 0 0
7 29 10
36 185 19
36 185 19
36 185 19
36 185 19
36 185 19
7 29 10
7 29 10
64 167 23
36 185 19
36 185 19
36 185 19
36 185 19
7 29 10
10 11 5
64 167 23
36 185 19
36 185 19
36 185 19
36 185 19
29 82 35
0 0 0
64 167 23
87 201 32
36 185 19
36 185 19
87 201 32
29 82 35
0 0 0
20 153 11
87 201 32
36 185 19
36 185 19
36 185 19
20 153 11
0 0 0
29 82 35
36 185 19
36 185 19
36 185 19
36 185 19
64 167 23
0 2 0
20 20 18
149 150 146
39 39 41
12 11 11
132 132 135
76 77 81
10 10 12
47 45 50
39 39 41
44 44 49
7 19 14
90 1 28
246 4 78
227 2 72
51 1 16
0 0 0
4 3 3
34 35 40
47 45 50
26 26 29
16 15 16
16 15 16
17 16 16
18 17 18
20 20 18
18 18 18
17 16 16
15 15 14
17 16 16
19 18 19
19 19 18
18 18 18
18 18 18
15 15 14
17 16 17
19 19 18
20 20 18
20 20 18
19 19 18
17 16 16
15 15 14
18 17 18
17 16 17
17 16 16
17 16 16
18 17 18
20 21 23
23 23 23
22 22 23
32 32 35
41 41 46
28 31 34
4 3 3
0 0 0
21 3 8
208 7 67
246 4 78
162 2 52
3 4 4
42 41 47
41 41 46
41 41 46
41 41 46
34 35 40
3 3 3
102 102 105
139 138 142
59 64 62
10 11 12
122 122 126
39 39 41
14 14 14
19 18 19
17 16 17
17 16 17
18 17 18
19 18 19
17 16 17
10 10 12
32 32 35
113 112 110
28 28 27
15 15 14
79 79 83
113 112 110
18 18 18
20 20 18
18 18 18
15 15 14
14 14 14
13 13 13
13 13 13
17 16 17
18 17 18
12 12 13
94 95 98
68 68 71
37 37 37
23 23 23
102 102 105
74 74 77
14 14 14
18 18 18
12 12 13
12 12 13
15 15 14
15 15 14
17 16 17
20 20 18
20 20 18
18 18 18
113 112 110
59 64 62
9 9 9
48 48 50
118 118 122
23 23 23
18 17 18
22 22 23
20 21 23
15 15 14
14 14 14
15 15 14
14 14 14
10 10 12
44 42 44
116 116 120
7 7 7
68 68 71
144 143 148
102 102 105
3 3 3
33 33 38
39 39 41
42 41 47
24 24 28
51 1 16
227 2 72
247 6 78
125 1 38
0 1 0
2 1 1
24 24 28
47 45 50
36 36 40
17 16 17
12 12 13
13 13 13
17 16 17
17 16 16
17 16 17
18 18 18
17 16 17
17 16 17
15 15 14
15 15 14
17 16 17
17 16 17
15 15 14
18 17 18
18 18 18
17 16 17
18 18 18
17 16 16
13 13 13
12 11 11
13 13 13
13 13 13
14 14 14
17 16 16
17 16 16
16 15 16
12 11 11
19 18 19
32 32 35
41 41 46
33 33 38
6 5 6
0 0 0
21 3 8
211 3 68
248 3 80
125 1 38
3 4 4
39 39 41
39 39 41
39 39 41
43 43 48
23 23 23
32 32 35
124 124 125
91 91 95
0 0 0
91 91 95
124 124 125
0 0 0
10 11 5
64 167 23
36 185 19
36 185 19
36 185 19
87 201 32
29 82 35
0 0 0
20 153 11
87 201 32
36 185 19
36 185 19
87 201 32
29 82 35
0 0 0
20 153 11
87 201 32
36 185 19
36 185 19
87 201 32
64 167 23
1 0 0
29 82 35
36 185 19
36 185 19
36 185 19
36 185 19
64 167 23
6 7 3
7 29 10
36 185 19
36 185 19
36 185 19
36 185 19
36 185 19
7 29 10
6 7 3
20 153 11
36 185 19
36 185 19
36 185 19
36 185 19
25 41 26
0 0 0
0 2 0
0 0 0
0 0 0
0 0 0
0 0 0
0 0 0
0 0 0
0 0 0
0 0 0
0 0 0
0 0 0
0 0 0
0 0 0
0 0 0
0 0 0
0 0 0
0 0 0
0 0 0
0 0 0
0 0 0
0 0 0
0 0 0
0 0 0
0 0 0
0 0 0
0 0 0
0 0 0
0 0 0
0 0 0
0 0 0
0 0 0
0 0 0
0 1 0
0 1 0
0 1 0
2 3 1
0 0 0
29 82 35
36 185 19
36 185 19
36 185 19
36 185 19
36 185 19
7 29 10
7 29 10
36 185 19
36 185 19
36 185 19
36 185 19
36 185 19
25 41 26
7 29 10
36 185 19
36 185 19
36 185 19
36 185 19
36 185 19
29 82 35
0 0 0
36 185 19
36 185 19
36 185 19
36 185 19
87 201 32
20 153 11
0 0 0
64 167 23
87 201 32
36 185 19
36 185 19
36 185 19
64 167 23
0 0 0
20 153 11
36 185 19
36 185 19
36 185 19
36 185 19
36 185 19
2 4 2
20 20 18
149 150 146
44 42 44
10 11 12
135 135 140
79 79 83
10 10 12
44 44 49
39 39 41
42 41 47
43 43 48
6 6 7
162 2 52
248 3 80
208 7 67
21 3 8
0 0 0
6 5 6
36 36 40
51 51 55
36 36 40
4 3 3
19 19 18
9 9 9
0 0 0
17 16 16
6 6 7
0 0 0
18 17 18
6 6 5
0 0 0
17 16 17
3 4 4
7 7 7
22 22 23
0 0 0
7 7 7
17 16 17
0 0 0
3 4 4
18 18 18
0 0 0
6 6 5
27 27 24
3 4 4
0 0 0
18 18 18
14 14 14
39 39 41
51 51 55
32 32 35
3 2 3
0 0 0
10 0 2
165 6 52
248 3 80
208 7 67
21 3 8
28 31 34
42 41 47
39 39 41
41 41 46
41 41 46
34 35 40
3 3 3
102 102 105
139 138 142
59 64 62
10 10 10
118 118 122
20 21 23
0 0 0
0 0 0
0 0 0
0 0 0
2 1 1
0 0 0
0 0 0
0 0 0
17 16 17
102 102 105
28 31 34
20 21 23
71 72 76
88 87 91
0 0 0
2 0 0
0 0 0
0 0 0
0 0 0
0 0 0
0 0 0
0 0 0
0 0 0
0 0 0
84 83 84
68 68 71
37 37 37
26 26 29
91 91 95
54 54 58
0 0 0
3 2 0
0 0 0
0 0 0
0 0 0
0 0 0
2 2 2
2 1 1
3 2 0
0 0 0
88 87 91
59 58 59
13 13 13
48 48 50
116 116 120
2 1 1
0 0 0
0 0 0
0 0 0
0 0 0
0 0 0
0 0 0
0 0 0
0 0 0
23 23 23
116 116 120
7 7 7
68 68 71
139 138 142
102 102 105
2 1 2
33 33 38
41 41 46
39 39 41
43 43 48
6 15 11
90 1 28
248 3 80
229 3 74
56 0 15
0 0 0
2 1 1
28 28 27
51 51 55
43 43 48
7 7 7
3 3 3
12 11 11
0 0 0
18 17 18
6 6 7
1 1 1
19 18 19
0 0 1
0 0 0
20 21 23
6 6 5
3 2 3
22 22 23
6 6 5
0 0 0
17 16 16
5 5 6
0 0 0
13 13 13
16 15 16
2 0 0
17 16 16
17 16 17
0 0 0
5 5 6
16 15 16
28 31 34
43 43 48
28 31 34
5 5 6
0 0 0
21 3 8
169 0 49
248 3 80
169 0 49
7 2 3
33 33 38
42 41 47
41 41 46
41 41 46
44 44 49
22 22 23
32 32 35
124 124 125
88 87 91
0 0 0
94 95 98
116 116 120
0 0 0
7 29 10
36 185 19
36 185 19
36 185 19
36 185 19
87 201 32
29 82 35
1 0 0
36 185 19
36 185 19
36 185 19
36 185 19
87 201 32
20 153 11
0 0 0
64 167 23
87 201 32
36 185 19
36 185 19
36 185 19
64 167 23
2 0 0
20 153 11
36 185 19
36 185 19
36 185 19
36 185 19
36 185 19
10 11 5
25 41 26
36 185 19
36 185 19
36 185 19
36 185 19
36 185 19
7 29 10
7 29 10
36 185 19
36 185 19
36 185 19
36 185 19
36 185 19
29 82 35
0 0 0
2 3 1
0 1 0
0 1 0
0 1 0
0 0 0
0 0 0
0 0 0
0 0 0
0 0 0
0 0 0
0 0 0
0 0 0
0 0 0
0 0 0
0 0 0
0 0 0
0 0 0
0 0 0
0 0 0
0 0 0
0 0 0
0 0 0
0 0 0
0 0 0
0 0 0
0 0 0
0 0 0
0 0 0
0 0 0
0 0 0
0 1 0
0 0 0
0 0 0
0 0 0
0 0 0
0 2 0
0 0 0
7 29 10
20 153 11
36 185 19
20 153 11
36 185 19
20 153 11
10 11 5
10 11 5
20 153 11
36 185 19
36 185 19
36 185 19
20 153 11
7 29 10
6 7 3
20 153 11
36 185 19
64 167 23
64 167 23
64 167 23
25 41 26
0 0 0
20 153 11
36 185 19
64 167 23
64 167 23
64 167 23
29 82 35
0 0 0
29 82 35
36 185 19
64 167 23
64 167 23
36 185 19
29 82 35
0 0 0
29 82 35
36 185 19
36 185 19
36 185 19
36 185 19
20 153 11
0 2 0
20 20 18
149 150 146
44 42 44
10 10 12
132 132 135
79 79 83
10 10 10
44 44 49
41 41 46
42 41 47
47 45 50
28 31 34
21 3 8
208 7 67
248 3 80
165 6 52
7 2 3
0 0 0
6 5 6
39 39 41
54 54 58
36 36 40
27 27 24
12 12 13
6 5 6
19 18 19
14 14 14
9 9 9
22 22 23
13 13 13
7 7 7
20 20 18
12 11 11
10 10 10
19 18 19
6 5 6
13 13 13
20 20 18
9 9 9
14 14 14
23 23 23
7 7 7
10 10 10
27 27 24
12 11 11
7 7 7
26 26 29
41 41 46
48 48 50
32 32 35
4 3 3
0 0 0
2 1 1
162 2 52
246 4 78
227 2 72
51 1 16
20 21 23
43 43 48
39 39 41
39 39 41
39 39 41
41 41 46
34 35 40
3 3 3
94 95 98
135 135 140
59 58 59
12 11 11
124 124 125
28 28 27
1 1 1
20 21 23
139 138 142
13 13 13
0 0 0
59 64 62
54 54 58
1 1 1
24 24 28
116 116 120
37 37 37
27 27 24
82 82 81
91 91 95
1 1 1
2 1 2
7 29 10
20 153 11
7 29 10
2 1 2
1 0 0
1 0 0
2 2 2
1 1 1
90 90 92
68 68 71
39 39 41
32 32 35
94 95 98
59 58 59
1 1 1
1 1 1
48 48 50
149 150 146
1 1 1
54 54 58
192 194 187
10 10 10
1 1 1
1 1 1
91 91 95
59 64 62
20 21 23
54 54 58
124 124 125
9 9 9
1 1 1
47 45 50
51 51 55
0 0 0
27 27 24
139 138 142
13 13 13
1 1 1
32 32 35
122 122 126
9 9 9
68 68 71
135 135 140
94 95 98
2 2 2
33 33 38
41 41 46
41 41 46
41 41 46
41 41 46
3 4 4
162 2 52
248 3 80
211 3 68
51 1 16
0 0 0
7 2 3
24 24 28
47 45 50
41 41 46
26 26 29
20 20 18
7 7 7
19 18 19
12 12 13
9 9 9
20 20 18
9 9 9
9 9 9
23 23 23
10 10 12
6 5 6
17 16 16
10 10 10
9 9 9
19 18 19
13 13 13
9 9 9
23 23 23
20 20 18
7 7 7
19 19 18
17 16 17
4 3 3
19 18 19
41 41 46
45 45 50
28 31 34
4 3 3
0 0 0
21 3 8
169 0 49
247 2 78
208 7 67
21 3 8
26 26 29
43 43 48
41 41 46
41 41 46
39 39 41
44 44 49
20 21 23
32 32 35
122 122 126
84 83 84
0 0 0
102 102 105
116 116 120
0 0 0
10 11 5
20 153 11
36 185 19
36 185 19
64 167 23
64 167 23
7 29 10
0 0 0
20 153 11
36 185 19
64 167 23
64 167 23
64 167 23
29 82 35
0 0 0
29 82 35
36 185 19
36 185 19
64 167 23
36 185 19
29 82 35
0 0 0
29 82 35
64 167 23
64 167 23
64 167 23
36 185 19
20 153 11
6 7 3
7 29 10
20 153 11
64 167 23
64 167 23
64 167 23
20 153 11
7 29 10
6 7 3
20 153 11
36 185 19
36 185 19
36 185 19
36 185 19
7 29 10
0 0 0
0 2 0
0 0 0
0 0 0
0 0 0
0 0 0
0 1 0
0 0 0
0 0 0
0 0 0
0 0 0
0 0 0
0 0 0
0 0 0
0 0 0
0 0 0
0 0 0
0 0 0
0 0 0
0 0 0
0 0 0
0 0 0
0 0 0
0 0 0
0 0 0
0 0 0
0 0 0
0 0 0
0 0 0
0 0 0
0 0 0
0 0 0
0 2 0
2 4 2
2 4 2
2 4 2
0 0 0
0 0 0
0 0 0
6 7 3
7 29 10
7 29 10
7 29 10
6 7 3
0 0 0
0 0 0
6 7 3
7 29 10
7 29 10
7 29 10
10 11 5
0 0 0
0 0 0
2 2 0
7 29 10
7 29 10
7 29 10
10 11 5
0 0 0
0 1 0
2 1 1
7 29 10
7 29 10
18 17 5
10 11 5
0 0 0
0 0 0
0 0 0
7 29 10
7 29 10
7 29 10
7 29 10
1 0 0
0 0 0
0 0 0
7 29 10
7 29 10
7 29 10
7 29 10
2 1 2
0 0 0
19 19 18
144 143 148
44 42 44
9 9 9
130 130 134
79 79 83
10 10 12
45 45 50
42 41 47
42 41 47
41 41 46
43 43 48
20 21 23
51 1 16
229 3 74
246 4 78
162 2 52
10 0 2
0 0 0
4 3 3
26 26 29
47 45 50
45 45 50
37 37 37
20 21 23
3 4 4
15 15 14
23 23 23
9 9 9
12 12 13
18 17 18
7 7 7
12 12 13
12 11 11
3 4 4
17 16 16
13 13 13
7 7 7
22 22 23
20 20 18
10 10 10
20 20 18
14 14 14
3 4 4
27 27 24
44 42 44
48 48 50
43 43 48
20 21 23
2 1 1
0 0 0
7 2 3
162 2 52
235 2 74
229 3 74
56 0 15
7 19 14
44 44 49
39 39 41
39 39 41
39 39 41
39 39 41
41 41 46
34 35 40
4 3 3
94 95 98
135 135 137
59 58 59
12 11 11
124 124 125
28 28 27
0 0 0
34 34 31
192 194 187
37 37 37
124 124 125
192 194 187
94 95 98
0 0 0
28 31 34
124 124 125
37 37 37
26 26 29
84 83 84
94 95 98
0 0 0
1 1 1
7 29 10
23 232 11
23 232 11
20 153 11
7 29 10
0 3 1
1 1 1
0 0 0
91 91 95
74 74 77
44 42 44
32 32 35
102 102 105
59 58 59
0 0 0
0 0 0
59 64 62
192 194 187
0 0 0
68 68 71
192 194 187
10 10 10
0 0 0
0 0 0
94 95 98
59 64 62
22 22 23
54 54 58
124 124 125
9 9 9
0 0 0
91 91 95
192 194 187
116 116 120
54 54 58
192 194 187
17 16 16
0 0 0
32 32 35
122 122 126
9 9 9
68 68 71
139 138 142
102 102 105
2 2 2
33 33 38
41 41 46
39 39 41
39 39 41
42 41 47
33 33 38
7 2 3
169 0 49
248 3 80
208 7 67
51 1 16
0 0 0
2 0 0
19 18 19
47 45 50
51 51 55
39 39 41
23 23 23
6 6 5
19 19 18
19 19 18
6 5 6
16 15 16
17 16 16
5 5 6
12 11 11
13 13 13
3 4 4
16 15 16
22 22 23
6 6 7
12 11 11
27 27 24
15 15 14
9 9 9
12 12 13
7 7 7
20 21 23
36 36 40
48 48 50
43 43 48
20 21 23
2 1 1
0 0 0
21 3 8
169 0 49
248 3 80
211 3 68
51 1 16
20 21 23
43 43 48
39 39 41
41 41 46
39 39 41
39 39 41
44 44 49
20 21 23
37 37 37
122 122 126
79 79 83
0 0 0
102 102 105
116 116 120
0 0 0
0 0 0
3 3 2
7 29 10
7 29 10
7 29 10
6 7 3
0 0 0
0 0 0
2 0 0
7 29 10
7 29 10
7 29 10
10 11 5
0 0 0
0 1 0
1 0 0
7 29 10
7 29 10
7 29 10
7 29 10
1 0 0
0 0 0
0 0 0
10 11 5
7 29 10
7 29 10
7 29 10
5 5 2
0 0 0
0 0 0
6 7 3
7 29 10
7 29 10
7 29 10
6 7 3
0 0 0
0 0 0
0 2 0
7 29 10
6 15 11
7 29 10
10 11 5
0 0 0
0 1 0
0 0 0
2 4 2
2 4 2
2 4 2
0 2 0
0 0 0
0 0 0
0 0 0
0 0 0
0 0 0
0 0 0
0 0 0
0 0 0
0 0 0
0 0 0
0 0 0
0 0 0
0 0 0
0 0 0
0 0 0
0 0 0
0 0 0
0 0 0
0 0 0
0 0 0
0 0 0
0 0 0
0 0 0
0 2 0
0 0 0
7 29 10
20 153 11
20 153 11
20 153 11
20 153 11
20 153 11
2 4 2
7 29 10
20 153 11
20 153 11
20 153 11
20 153 11
20 153 11
6 15 11
10 11 5
20 153 11
36 185 19
36 185 19
36 185 19
20 153 11
7 29 10
2 4 2
20 153 11
36 185 19
20 153 11
36 185 19
36 185 19
25 41 26
0 0 0
29 82 35
36 185 19
36 185 19
36 185 19
36 185 19
29 82 35
0 0 0
29 82 35
36 185 19
64 167 23
64 167 23
36 185 19
29 82 35
0 0 0
29 82 35
36 185 19
64 167 23
64 167 23
36 185 19
20 153 11
0 3 1
15 15 14
149 150 146
47 45 50
9 9 9
130 130 134
82 82 81
9 9 9
44 44 49
41 41 46
41 41 46
41 41 46
39 39 41
47 45 50
20 21 23
56 0 15
227 2 72
248 3 80
169 0 49
21 3 8
0 0 0
2 0 0
16 15 16
39 39 41
48 48 50
41 41 46
23 23 23
14 14 14
19 19 18
0 0 0
1 1 1
17 16 17
0 0 0
9 9 9
5 5 6
0 0 0
19 19 18
7 7 7
0 0 0
17 16 16
7 7 7
0 0 0
17 16 16
18 18 18
24 24 28
43 43 48
48 48 50
36 36 40
10 11 12
2 0 0
0 0 0
21 3 8
165 6 52
246 4 78
235 2 74
90 1 28
6 15 11
43 43 48
41 41 46
39 39 41
36 36 40
39 39 41
39 39 41
41 41 46
34 35 40
4 3 3
94 95 98
135 135 140
59 58 59
12 12 13
130 130 134
28 28 27
0 0 0
28 28 27
192 194 187
192 194 187
192 194 187
192 194 187
88 87 91
0 0 0
28 28 27
124 124 125
37 37 37
23 23 23
84 83 84
94 95 98
0 0 0
2 0 0
7 29 10
23 232 11
23 232 11
23 232 11
23 232 11
29 82 35
1 0 0
0 0 0
94 95 98
74 74 77
39 39 41
28 31 34
102 102 105
59 64 62
0 0 0
0 0 0
59 64 62
192 194 187
0 0 0
59 64 62
192 194 187
9 9 9
0 0 0
0 0 0
94 95 98
59 58 59
20 21 23
51 51 55
122 122 126
7 7 7
0 0 0
85 86 83
192 194 187
192 194 187
192 194 187
192 194 187
12 12 13
0 0 0
32 32 35
124 124 125
9 9 9
68 68 71
139 138 142
102 102 105
2 2 2
33 33 38
41 41 46
39 39 41
39 39 41
39 39 41
44 44 49
28 31 34
10 0 2
169 0 49
248 3 80
211 3 68
89 6 27
0 0 0
0 0 0
10 10 10
32 32 35
45 45 50
43 43 48
28 28 27
22 22 23
13 13 13
0 0 0
13 13 13
17 16 16
0 0 0
10 10 10
14 14 14
0 0 0
12 11 11
16 15 16
0 0 0
4 3 3
19 18 19
0 0 0
2 1 1
22 22 23
32 32 35
47 45 50
48 48 50
32 32 35
10 10 12
0 0 0
0 0 0
56 0 15
208 7 67
248 3 80
210 2 67
51 1 16
20 21 23
47 45 50
39 39 41
39 39 41
39 39 41
39 39 41
39 39 41
44 44 49
20 21 23
37 37 37
122 122 126
76 77 81
0 0 0
102 102 105
113 112 110
0 0 0
6 15 11
20 153 11
36 185 19
36 185 19
36 185 19
36 185 19
25 41 26
1 1 0
20 153 11
36 185 19
36 185 19
36 185 19
36 185 19
29 82 35
0 0 0
29 82 35
36 185 19
64 167 23
64 167 23
36 185 19
29 82 35
0 0 0
25 41 26
36 185 19
36 185 19
36 185 19
36 185 19
20 153 11
6 7 3
7 29 10
20 153 11
20 153 11
20 153 11
36 185 19
20 153 11
7 29 10
6 7 3
20 153 11
20 153 11
20 153 11
20 153 11
36 185 19
7 29 10
0 0 0
20 153 11
20 153 11
20 153 11
20 153 11
20 153 11
25 41 26
0 0 0
0 2 0
0 0 0
0 0 0
0 0 0
0 0 0
0 0 0
0 0 0
0 0 0
0 0 0
0 0 0
0 0 0
0 0 0
0 0 0
0 0 0
0 0 0
0 0 0
0 0 0
0 0 0
0 0 0
0 0 0
0 0 0
0 2 0
0 0 0
29 82 35
36 185 19
36 185 19
36 185 19
36 185 19
36 185 19
7 29 10
25 41 26
36 185 19
36 185 19
36 185 19
36 185 19
36 185 19
7 29 10
7 29 10
36 185 19
36 185 19
36 185 19
36 185 19
36 185 19
25 41 26
7 29 10
36 185 19
36 185 19
36 185 19
36 185 19
36 185 19
29 82 35
0 0 0
36 185 19
36 185 19
36 185 19
36 185 19
36 185 19
20 153 11
0 0 0
20 153 11
36 185 19
36 185 19
36 185 19
36 185 19
20 153 11
0 0 0
20 153 11
36 185 19
36 185 19
36 185 19
36 185 19
36 185 19
2 4 2
14 14 14
149 150 146
48 48 50
9 9 9
130 130 134
79 79 83
7 8 10
44 44 49
41 41 46
43 43 48
45 45 50
45 45 50
45 45 50
51 51 55
7 19 14
56 0 15
227 2 72
248 3 80
208 7 67
51 1 16
0 0 0
0 0 0
7 2 3
22 22 23
41 41 46
54 54 58
51 51 55
44 42 44
28 28 27
24 24 28
28 28 27
23 23 23
18 17 18
17 16 16
20 20 18
20 20 18
18 18 18
19 19 18
23 23 23
23 23 23
26 26 29
39 39 41
48 48 50
48 48 50
36 36 40
19 18 19
4 3 3
0 0 0
0 0 0
51 1 16
208 7 67
248 3 80
227 2 72
90 1 28
6 15 11
43 43 48
42 41 47
41 41 46
44 44 49
43 43 48
41 41 46
39 39 41
39 39 41
34 35 40
3 2 3
94 95 98
135 135 140
59 64 62
10 10 10
130 130 134
32 32 35
0 0 0
32 32 35
192 194 187
76 77 81
192 194 187
192 194 187
94 95 98
0 0 0
28 28 27
122 122 126
32 32 35
20 21 23
84 83 84
94 95 98
0 0 0
2 1 2
7 29 10
23 232 11
23 232 11
20 153 11
7 29 10
2 4 2
2 2 1
0 0 0
94 95 98
74 74 77
37 37 37
26 26 29
102 102 105
59 64 62
0 0 0
0 0 0
68 68 71
192 194 187
0 0 0
59 64 62
192 194 187
9 9 9
1 0 0
0 0 0
94 95 98
59 58 59
19 18 19
51 51 55
122 122 126
9 9 9
0 0 0
90 90 92
192 194 187
183 187 147
82 82 81
192 194 187
17 16 16
0 0 0
32 32 35
130 130 134
7 7 7
68 68 71
135 135 140
102 102 105
2 2 2
33 33 38
41 41 46
39 39 41
42 41 47
47 45 50
45 45 50
47 45 50
28 31 34
10 0 2
162 2 52
248 3 80
229 3 74
125 1 38
7 2 3
0 0 0
2 1 1
17 16 17
36 36 40
47 45 50
47 45 50
39 39 41
32 32 35
33 33 38
32 32 35
22 22 23
22 22 23
23 23 23
27 27 24
19 19 18
17 16 16
18 17 18
23 23 23
26 26 29
24 24 28
33 33 38
48 48 50
51 51 55
36 36 40
18 17 18
2 0 0
0 0 0
3 2 0
125 1 38
227 2 72
248 3 80
208 7 67
21 3 8
24 24 28
47 45 50
42 41 47
42 41 47
45 45 50
43 43 48
41 41 46
39 39 41
43 43 48
19 18 19
36 36 40
124 124 125
74 74 77
0 0 0
113 112 110
113 112 110
0 0 0
7 29 10
36 185 19
36 185 19
36 185 19
36 185 19
36 185 19
29 82 35
2 1 1
36 185 19
36 185 19
36 185 19
36 185 19
36 185 19
20 153 11
0 0 0
20 153 11
36 185 19
36 185 19
36 185 19
36 185 19
36 185 19
0 0 0
29 82 35
36 185 19
36 185 19
36 185 19
36 185 19
36 185 19
7 29 10
25 41 26
36 185 19
36 185 19
36 185 19
36 185 19
36 185 19
25 41 26
7 29 10
36 185 19
36 185 19
36 185 19
36 185 19
36 185 19
29 82 35
1 1 0
36 185 19
36 185 19
36 185 19
36 185 19
36 185 19
29 82 35
0 0 0
0 2 0
0 0 0
0 0 0
0 0 0
0 0 0
0 0 0
0 0 0
0 0 0
0 0 0
0 0 0
0 0 0
0 0 0
0 0 0
0 0 0
0 0 0
0 0 0
0 0 0
0 0 0
0 0 0
0 0 0
0 0 0
0 2 0
0 0 0
29 82 35
36 185 19
36 185 19
36 185 19
36 185 19
20 153 11
6 7 3
7 29 10
36 185 19
36 185 19
36 185 19
36 185 19
36 185 19
7 29 10
7 29 10
36 185 19
36 185 19
36 185 19
36 185 19
36 185 19
7 29 10
6 7 3
36 185 19
36 185 19
36 185 19
36 185 19
36 185 19
29 82 35
0 0 0
20 153 11
36 185 19
36 185 19
36 185 19
36 185 19
29 82 35
0 0 0
20 153 11
36 185 19
36 185 19
36 185 19
36 185 19
20 153 11
0 0 0
29 82 35
36 185 19
36 185 19
36 185 19
36 185 19
20 153 11
2 3 1
15 15 14
149 150 146
51 51 55
7 7 7
122 122 126
79 79 83
10 8 10
45 45 50
43 43 48
39 39 41
20 21 23
24 24 28
39 39 41
41 41 46
42 41 47
7 19 14
51 1 16
208 7 67
248 3 80
211 3 68
90 1 28
10 0 2
0 0 0
0 0 0
6 5 6
22 22 23
39 39 41
44 44 49
48 48 50
51 51 55
47 45 50
43 43 48
33 33 38
36 36 40
44 42 44
32 32 35
34 35 40
41 41 46
43 43 48
48 48 50
45 45 50
41 41 46
32 32 35
18 17 18
4 3 3
0 0 0
0 0 0
10 0 2
125 1 38
227 2 72
248 3 80
210 2 67
56 0 15
6 15 11
42 41 47
41 41 46
41 41 46
41 41 46
26 26 29
20 21 23
32 32 35
39 39 41
36 36 40
32 32 35
3 2 3
94 95 98
135 135 140
59 64 62
9 9 9
130 130 134
32 32 35
1 1 1
28 28 27
183 187 147
6 6 7
0 0 0
102 102 105
68 68 71
1 1 1
28 28 27
124 124 125
37 37 37
19 18 19
88 87 91
102 102 105
1 1 1
3 2 3
7 29 10
36 185 19
29 82 35
2 1 2
1 0 0
1 0 0
2 2 2
1 1 1
94 95 98
74 74 77
37 37 37
26 26 29
94 95 98
59 58 59
1 1 1
1 1 1
59 64 62
192 194 187
1 1 1
59 58 59
192 194 187
7 7 7
1 1 1
1 1 1
102 102 105
59 64 62
17 16 17
51 51 55
130 130 134
9 9 9
1 1 1
68 68 71
102 102 105
0 0 0
12 12 13
149 150 146
14 14 14
1 1 1
32 32 35
132 132 135
10 10 10
68 68 71
139 138 142
102 102 105
2 2 2
33 33 38
39 39 41
41 41 46
34 35 40
20 21 23
26 26 29
36 36 40
42 41 47
28 31 34
7 6 3
125 1 38
235 2 74
248 3 80
169 0 49
56 0 15
0 0 0
0 0 0
2 1 2
12 12 13
26 26 29
36 36 40
48 48 50
51 51 55
47 45 50
45 45 50
42 41 47
41 41 46
47 45 50
39 39 41
36 36 40
44 44 49
45 45 50
41 41 46
41 41 46
36 36 40
28 28 27
16 15 16
2 1 1
0 0 0
0 0 0
56 0 15
169 0 49
248 3 80
246 4 78
162 2 52
9 6 9
28 31 34
47 45 50
41 41 46
41 41 46
42 41 47
22 22 23
16 15 16
28 31 34
39 39 41
41 41 46
16 15 16
37 37 37
122 122 126
71 72 76
0 0 0
113 112 110
102 102 105
0 0 0
7 19 14
64 167 23
36 185 19
36 185 19
36 185 19
36 185 19
29 82 35
1 0 0
20 153 11
36 185 19
36 185 19
36 185 19
36 185 19
29 82 35
0 0 0
20 153 11
36 185 19
36 185 19
36 185 19
36 185 19
20 153 11
0 0 0
29 82 35
36 185 19
36 185 19
36 185 19
36 185 19
36 185 19
6 7 3
7 29 10
36 185 19
36 185 19
36 185 19
36 185 19
36 185 19
7 29 10
6 7 3
36 185 19
36 185 19
36 185 19
36 185 19
36 185 19
25 41 26
1 1 0
20 153 11
36 185 19
36 185 19
36 185 19
36 185 19
29 82 35
0 0 0
0 2 0
0 0 0
0 0 0
0 0 0
0 0 0
0 0 0
0 0 0
0 0 0
0 0 0
0 0 0
0 0 0
0 0 0
0 0 0
0 0 0
0 0 0
0 0 0
0 0 0
0 0 0
0 0 0
0 0 0
0 0 0
0 0 0
0 0 0
0 2 0
7 29 10
7 29 10
7 29 10
7 29 10
7 29 10
0 0 0
0 0 0
7 29 10
7 29 10
7 29 10
7 29 10
7 29 10
0 0 0
0 0 0
7 29 10
7 29 10
7 29 10
7 29 10
7 29 10
0 2 0
0 0 0
7 29 10
7 29 10
7 29 10
7 29 10
7 29 10
2 3 1
0 0 0
10 11 5
7 29 10
7 29 10
7 29 10
7 29 10
2 4 2
0 0 0
6 7 3
7 29 10
7 29 10
7 29 10
7 29 10
10 11 5
0 0 0
2 4 2
7 29 10
7 29 10
7 29 10
7 29 10
6 15 11
0 0 0
13 13 13
149 150 146
54 54 58
6 6 7
122 122 126
84 83 84
10 11 12
45 45 50
34 35 40
3 3 3
23 23 23
15 15 14
2 2 1
33 33 38
41 41 46
44 44 49
24 24 28
21 3 8
162 2 52
246 4 78
246 4 78
169 0 49
56 0 15
0 1 0
0 0 0
0 0 0
2 1 1
10 8 10
19 18 19
32 32 35
39 39 41
41 41 46
44 44 49
47 45 50
45 45 50
43 43 48
41 41 46
39 39 41
36 36 40
26 26 29
16 15 16
9 6 9
2 1 1
0 0 0
0 0 0
1 1 0
89 6 27
208 7 67
248 3 80
248 3 80
169 0 49
21 3 8
7 19 14
42 41 47
39 39 41
39 39 41
39 39 41
10 10 12
15 15 14
22 22 23
3 2 3
24 24 28
41 41 46
33 33 38
4 3 3
94 95 98
139 138 142
59 64 62
7 8 10
122 122 126
20 21 23
0 0 0
0 0 0
4 3 3
2 1 1
0 0 0
0 0 0
0 0 0
0 0 0
16 15 16
116 116 120
32 32 35
17 16 17
84 83 84
94 95 98
0 0 0
0 0 0
0 2 0
0 0 0
0 0 0
0 0 0
0 0 0
0 0 0
0 0 0
0 0 0
90 90 92
74 74 77
39 39 41
28 28 27
91 91 95
54 54 58
0 0 0
0 0 0
2 1 1
12 12 13
1 0 0
5 5 2
13 13 13
0 0 0
0 0 0
0 0 0
91 91 95
59 58 59
17 16 17
48 48 50
118 118 122
0 0 0
0 0 0
0 0 0
0 0 0
0 0 0
2 0 0
3 2 3
0 0 0
0 0 0
22 22 23
122 122 126
7 8 10
68 68 71
139 138 142
102 102 105
5 5 6
34 35 40
44 44 49
26 26 29
10 10 10
28 28 27
0 0 0
9 9 9
36 36 40
43 43 48
36 36 40
7 8 10
89 6 27
211 3 68
248 3 80
235 2 74
162 2 52
51 1 16
0 0 0
0 0 0
0 0 0
7 2 3
16 15 16
24 24 28
28 31 34
34 35 40
43 43 48
47 45 50
43 43 48
41 41 46
42 41 47
39 39 41
28 31 34
19 18 19
12 11 11
4 3 3
0 0 0
0 0 0
0 0 0
56 0 15
162 2 52
235 2 74
248 3 80
210 2 67
90 1 28
7 8 10
33 33 38
43 43 48
41 41 46
41 41 46
41 41 46
10 10 12
20 20 18
27 27 24
0 0 0
23 23 23
45 45 50
18 17 18
39 39 41
124 124 125
68 68 71
0 0 0
113 112 110
94 95 98
0 0 0
1 0 0
7 29 10
7 29 10
7 29 10
7 29 10
7 29 10
0 2 0
0 0 0
6 15 11
7 29 10
7 29 10
7 29 10
7 29 10
2 4 2
0 0 0
6 7 3
7 29 10
7 29 10
7 29 10
7 29 10
10 11 5
0 0 0
2 3 1
7 29 10
7 29 10
7 29 10
7 29 10
7 29 10
0 0 0
0 1 0
7 29 10
7 29 10
7 29 10
7 29 10
7 29 10
0 0 0
0 0 0
7 29 10
7 29 10
7 29 10
7 29 10
7 29 10
0 1 0
0 0 0
6 15 11
7 29 10
7 29 10
7 29 10
7 29 10
0 2 0
0 0 0
0 0 0
0 0 0
0 0 0
0 0 0
0 0 0
0 0 0
0 0 0
0 0 0
0 0 0
0 0 0
0 0 0
0 0 0
0 0 0
0 0 0
0 0 0
0 0 0
0 0 0
0 0 0
0 0 0
0 0 0
0 0 0
0 0 0
0 0 0
0 0 0
0 0 0
0 0 0
0 0 0
0 0 0
0 0 0
0 0 0
0 0 0
0 0 0
0 0 0
0 0 0
0 0 0
0 0 0
0 0 0
0 0 0
0 0 0
0 0 0
0 0 0
0 0 0
0 0 0
0 0 0
0 0 0
0 0 0
0 0 0
0 0 0
0 0 0
0 0 0
0 0 0
0 0 0
0 0 0
0 0 0
0 0 0
0 0 0
0 0 0
0 0 0
0 0 0
0 0 0
0 0 0
0 0 0
0 0 0
0 0 0
0 0 0
0 0 0
0 0 0
0 0 0
0 0 0
0 0 0
0 0 0
0 0 0
0 0 0
12 11 11
146 145 141
54 54 58
5 5 6
122 122 126
84 83 84
13 13 13
51 51 55
16 17 21
27 27 24
192 194 187
113 112 110
27 27 24
17 16 17
48 48 50
41 41 46
47 45 50
28 31 34
7 7 7
90 1 28
211 3 68
248 3 80
229 3 74
165 6 52
89 6 27
10 0 2
0 0 0
0 0 0
0 0 0
0 0 0
2 1 1
7 2 3
9 6 9
10 10 10
12 11 11
10 8 10
7 7 7
7 2 3
2 1 1
0 0 0
0 0 0
0 0 0
0 0 0
10 0 2
90 1 28
169 0 49
235 2 74
248 3 80
211 3 68
90 1 28
6 7 3
28 31 34
42 41 47
39 39 41
39 39 41
44 44 49
28 31 34
6 5 6
149 150 146
135 135 137
44 42 44
7 7 7
45 45 50
34 35 40
2 1 2
94 95 98
139 138 142
59 58 59
10 10 12
130 130 134
48 48 50
19 18 19
23 23 23
28 28 27
28 28 27
28 28 27
28 31 34
28 28 27
20 21 23
45 45 44
118 118 122
28 28 27
16 15 16
84 83 84
113 112 110
22 22 23
27 27 24
24 24 28
23 23 23
23 23 23
23 23 23
23 23 23
28 28 27
28 28 27
23 23 23
102 102 105
71 72 76
39 39 41
28 28 27
94 95 98
82 82 81
20 20 18
22 22 23
20 21 23
20 20 18
23 23 23
23 23 23
23 23 23
28 28 27
28 28 27
28 28 27
116 116 120
59 58 59
17 16 17
48 48 50
130 130 134
32 32 35
20 21 23
28 28 27
28 31 34
28 28 27
28 28 27
27 27 24
23 23 23
18 18 18
48 48 50
122 122 126
6 6 7
68 68 71
139 138 142
102 102 105
6 5 6
39 39 41
48 48 50
2 2 2
84 83 84
192 194 187
76 77 81
9 9 9
26 26 29
44 44 49
43 43 48
47 45 50
16 17 21
21 3 8
162 2 52
235 2 74
248 3 80
227 2 72
162 2 52
56 0 15
10 0 2
0 1 0
0 0 0
0 0 0
0 0 0
0 0 0
3 2 3
6 5 6
6 5 6
4 3 3
4 3 3
0 1 0
0 0 0
0 0 0
0 0 0
0 0 0
21 3 8
90 1 28
169 0 49
235 2 74
248 3 80
229 3 74
125 1 38
21 3 8
16 17 21
41 41 46
41 41 46
39 39 41
41 41 46
45 45 50
33 33 38
1 1 1
149 150 146
144 143 148
47 45 50
10 8 10
51 51 55
24 24 28
44 42 44
122 122 126
59 64 62
0 0 0
113 112 110
94 95 98
0 0 0
2 2 2
0 0 0
0 0 0
0 0 0
0 0 0
0 0 0
0 0 0
0 0 0
0 0 0
0 0 0
0 0 0
0 0 0
0 0 0
0 0 0
0 0 0
0 0 0
0 0 0
0 0 0
0 0 0
0 0 0
0 0 0
0 0 0
0 0 0
0 0 0
0 0 0
0 0 0
0 0 0
0 0 0
0 0 0
0 0 0
0 0 0
0 0 0
0 0 0
0 0 0
0 0 0
0 0 0
0 0 0
0 0 0
0 0 0
0 0 0
0 0 0
0 0 0
0 0 0
0 0 0
0 0 0
0 0 0
0 0 0
0 0 0
0 0 0
0 0 0
0 0 0
0 0 0
0 0 0
0 0 0
0 0 0
0 0 0
0 0 0
0 0 0
0 0 0
0 0 0
0 0 0
0 0 0
0 0 0
0 0 0
0 0 0
0 0 0
0 0 0
0 0 0
0 0 0
0 0 0
0 0 0
0 0 0
0 0 0
0 0 0
0 0 0
0 2 0
0 2 0
0 2 0
0 2 0
0 1 0
0 0 0
0 0 0
0 1 0
0 2 0
0 2 0
0 2 0
0 1 0
0 0 0
0 0 0
0 1 0
0 2 0
0 2 0
0 2 0
0 1 0
0 0 0
0 0 0
0 1 0
0 2 0
0 2 0
0 2 0
0 2 0
0 0 0
0 0 0
0 1 0
0 2 0
0 2 0
0 2 0
0 2 0
0 1 0
0 0 0
0 1 0
0 2 0
0 2 0
0 2 0
0 2 0
0 1 0
0 0 0
0 1 0
2 2 1
2 3 1
2 4 2
2 4 2
3 4 4
2 2 2
12 11 11
139 138 142
51 51 55
4 4 6
122 122 126
88 87 91
12 12 13
51 51 55
24 24 28
22 22 23
113 112 110
102 102 105
19 18 19
23 23 23
45 45 50
41 41 46
39 39 41
42 41 47
41 41 46
7 19 14
21 3 8
125 1 38
211 3 68
248 3 80
248 3 80
208 7 67
125 1 38
56 0 15
21 3 8
0 1 0
0 0 0
0 0 0
0 0 0
0 0 0
0 0 0
0 0 0
0 0 0
0 0 0
0 0 0
0 1 0
21 3 8
56 0 15
125 1 38
208 7 67
248 3 80
248 3 80
227 2 72
125 1 38
21 3 8
7 19 14
41 41 46
43 43 48
39 39 41
39 39 41
39 39 41
43 43 48
26 26 29
10 10 10
102 102 105
113 112 110
33 33 38
10 10 12
44 44 49
32 32 35
1 1 1
94 95 98
135 135 140
79 79 83
0 0 0
102 102 105
130 130 134
116 116 120
118 118 122
124 124 125
124 124 125
124 124 125
124 124 125
124 124 125
122 122 126
130 130 134
91 91 95
16 15 16
44 42 44
44 42 44
139 138 142
122 122 126
118 118 122
118 118 122
122 122 126
122 122 126
124 124 125
130 130 134
130 130 134
118 118 122
116 116 120
130 130 134
33 33 38
54 54 58
37 37 37
54 54 58
124 124 125
116 116 120
116 116 120
118 118 122
122 122 126
122 122 126
122 122 126
124 124 125
130 130 134
130 130 134
130 130 134
122 122 126
23 23 23
36 36 40
18 17 18
113 112 110
122 122 126
116 116 120
118 118 122
122 122 126
118 118 122
122 122 126
122 122 126
118 118 122
113 112 110
122 122 126
90 90 92
0 0 0
88 87 91
139 138 142
94 95 98
5 4 7
39 39 41
41 41 46
2 1 2
48 48 50
118 118 122
84 83 84
6 6 7
41 41 46
44 44 49
41 41 46
43 43 48
51 51 55
34 35 40
6 15 11
56 0 15
162 2 52
229 3 74
248 3 80
246 4 78
210 2 67
162 2 52
90 1 28
51 1 16
10 0 2
2 0 0
0 0 0
0 0 0
0 0 0
0 0 0
0 0 0
10 0 2
21 3 8
56 0 15
90 1 28
162 2 52
210 2 67
248 3 80
248 3 80
229 3 74
162 2 52
51 1 16
6 15 11
33 33 38
44 44 49
39 39 41
39 39 41
39 39 41
41 41 46
43 43 48
32 32 35
2 2 2
84 83 84
116 116 120
48 48 50
10 10 12
51 51 55
19 18 19
44 44 49
122 122 126
59 64 62
0 0 0
118 118 122
94 95 98
0 0 0
3 3 3
2 3 2
2 4 2
2 4 2
2 3 2
2 2 1
0 0 0
0 0 0
0 1 0
0 2 0
0 2 0
0 2 0
0 2 0
0 1 0
0 0 0
0 1 0
0 2 0
0 2 0
0 2 0
0 2 0
0 1 0
0 0 0
0 0 0
0 2 0
0 2 0
0 2 0
0 2 0
0 1 0
0 0 0
0 0 0
0 1 0
0 2 0
0 2 0
0 2 0
0 2 0
0 0 0
0 0 0
0 1 0
0 2 0
0 2 0
0 2 0
0 2 0
0 0 0
0 0 0
0 1 0
0 2 0
0 2 0
0 2 0
0 2 0
0 0 0
0 0 0
0 0 0
0 0 0
0 0 0
0 0 0
0 0 0
0 0 0
0 0 0
0 0 0
0 0 0
0 0 0
0 0 0
0 0 0
0 0 0
0 0 0
0 0 0
0 0 0
0 0 0
0 0 0
0 0 0
0 0 0
0 0 0
0 0 0
0 0 0
0 0 0
0 0 0
0 0 0
0 0 0
0 0 0
0 0 0
0 0 0
0 0 0
0 0 0
0 0 0
0 0 0
0 0 0
0 0 0
0 0 0
0 0 0
0 0 0
0 0 0
0 0 0
0 0 0
0 0 0
0 0 0
0 0 0
0 0 0
0 0 0
0 0 0
0 0 0
0 0 0
0 0 0
0 0 0
0 0 0
0 0 0
0 0 0
0 0 0
0 0 0
0 0 0
0 0 0
0 0 0
0 0 0
0 0 0
0 0 0
0 0 0
0 0 0
0 0 0
2 2 2
0 0 0
0 0 0
0 0 0
0 0 0
0 0 0
0 0 0
5 5 2
139 138 142
59 58 59
4 4 6
135 135 140
90 90 92
5 5 6
41 41 46
41 41 46
12 12 13
17 16 17
15 15 14
20 20 18
59 64 62
41 41 46
41 41 46
41 41 46
41 41 46
41 41 46
47 45 50
33 33 38
7 19 14
51 1 16
125 1 38
210 2 67
246 4 78
248 3 80
235 2 74
211 3 68
165 6 52
125 1 38
125 1 38
90 1 28
89 6 27
89 6 27
89 6 27
90 1 28
90 1 28
125 5 39
165 6 52
208 7 67
235 2 74
248 3 80
248 3 80
210 2 67
125 1 38
51 1 16
6 15 11
32 32 35
47 45 50
41 41 46
41 41 46
41 41 46
39 39 41
36 36 40
36 36 40
34 35 40
6 6 7
10 11 12
20 21 23
12 12 13
59 58 59
41 41 46
36 36 40
7 7 7
102 102 105
132 132 135
122 122 126
37 37 37
0 0 0
18 18 18
14 14 14
14 14 14
17 16 17
17 16 17
17 16 16
16 15 16
17 16 17
19 18 19
18 17 18
0 0 0
54 54 58
118 118 122
17 16 17
15 15 14
20 21 23
14 14 14
13 13 13
14 14 14
15 15 14
17 16 16
18 17 18
17 16 17
13 13 13
13 13 13
7 8 10
9 9 9
113 112 110
88 87 91
3 3 3
12 12 13
15 15 14
14 14 14
15 15 14
17 16 16
17 16 16
17 16 16
15 15 14
16 15 16
17 16 17
18 18 18
3 4 4
20 21 23
116 116 120
39 39 41
3 3 2
18 18 18
14 14 14
14 14 14
14 14 14
13 13 13
15 15 14
16 15 16
15 15 14
14 14 14
14 14 14
0 0 0
37 37 37
124 124 125
132 132 135
102 102 105
9 6 9
39 39 41
41 41 46
23 23 23
0 0 0
19 18 19
7 7 7
44 42 44
51 51 55
36 36 40
43 43 48
43 43 48
43 43 48
47 45 50
45 45 50
26 26 29
6 15 11
51 1 16
125 1 38
210 2 67
248 3 80
248 3 80
248 3 80
227 2 72
208 7 67
169 0 49
165 6 52
165 6 52
162 2 52
165 6 52
165 6 52
208 7 67
227 2 72
246 4 78
248 3 80
247 2 78
229 3 74
169 0 49
125 1 38
51 1 16
6 15 11
26 26 29
43 43 48
43 43 48
41 41 46
39 39 41
39 39 41
39 39 41
39 39 41
39 39 41
39 39 41
10 10 12
10 10 10
24 24 28
10 10 10
51 51 55
43 43 48
12 12 13
45 45 44
135 135 140
59 64 62
0 0 0
124 124 125
102 102 105
1 1 1
0 0 0
0 0 0
0 0 0
0 0 0
0 0 0
0 0 0
2 2 1
1 1 1
0 0 0
0 0 0
0 0 0
0 0 0
0 0 0
0 0 0
0 0 0
0 0 0
0 0 0
0 0 0
0 0 0
0 0 0
0 0 0
0 0 0
0 0 0
0 0 0
0 0 0
0 0 0
0 0 0
0 0 0
0 0 0
0 0 0
0 0 0
0 0 0
0 0 0
0 0 0
0 0 0
0 0 0
0 0 0
0 0 0
0 0 0
0 0 0
0 0 0
0 0 0
0 0 0
0 0 0
0 0 0
0 0 0
0 0 0
0 0 0
0 0 0
0 0 0
0 0 0
0 0 0
0 0 0
0 0 0
0 0 0
0 0 0
0 0 0
0 0 0
0 0 0
0 0 0
0 0 0
0 0 0
0 0 0
0 0 0
0 0 0
0 0 0
0 0 0
0 0 0
0 0 0
0 0 0
0 0 0
0 0 0
0 0 0
0 0 0
0 0 0
0 0 0
0 0 0
0 0 0
0 0 0
0 0 0
0 0 0
0 0 0
0 0 0
0 0 0
0 0 0
0 0 0
0 0 0
0 0 0
0 0 0
0 0 0
0 0 0
0 0 0
0 0 0
0 0 0
0 0 0
0 0 0
0 0 0
0 0 0
0 0 0
0 0 0
0 0 0
0 0 0
0 0 0
0 0 0
0 0 0
0 0 0
0 0 0
0 0 0
0 0 0
0 0 0
0 0 0
0 0 0
0 0 0
0 0 0
0 0 0
0 1 0
0 0 0
0 0 0
0 2 0
32 31 22
53 52 44
53 60 47
62 61 53
62 61 53
70 68 47
149 150 146
74 74 77
3 2 0
79 79 83
102 102 105
7 7 7
34 34 31
44 42 44
48 48 50
44 42 44
48 48 50
68 68 71
51 51 55
44 42 44
43 43 48
42 41 47
41 41 46
41 41 46
41 41 46
41 41 46
42 41 47
28 31 34
16 17 21
21 3 8
56 0 15
125 1 38
208 7 67
235 2 74
247 2 78
248 3 80
248 3 80
248 3 80
248 3 80
248 3 80
246 4 78
248 3 80
248 3 80
248 3 80
248 3 80
235 2 74
208 7 67
125 1 38
89 6 27
21 3 8
7 19 14
28 31 34
41 41 46
41 41 46
39 39 41
41 41 46
41 41 46
39 39 41
39 39 41
39 39 41
36 36 40
36 36 40
33 33 38
32 32 35
43 43 48
68 68 71
51 51 55
41 41 46
41 41 46
6 6 5
102 102 105
130 130 134
124 124 125
122 122 126
84 83 84
68 68 71
68 68 71
71 72 76
71 72 76
68 68 71
68 68 71
68 68 71
68 68 71
74 74 77
71 72 76
91 91 95
124 124 125
132 132 135
118 118 122
79 79 83
68 68 71
68 68 71
68 68 71
68 68 71
68 68 71
71 72 76
68 68 71
71 72 76
74 74 77
68 68 71
71 72 76
113 112 110
124 124 125
130 130 134
113 112 110
74 74 77
68 68 71
71 72 76
68 68 71
68 68 71
68 68 71
68 68 71
68 68 71
68 68 71
68 68 71
68 68 71
82 82 81
118 118 122
130 130 134
130 130 134
88 87 91
71 72 76
68 68 71
68 68 71
68 68 71
68 68 71
68 68 71
68 68 71
71 72 76
71 72 76
68 68 71
79 79 83
118 118 122
122 122 126
130 130 134
102 102 105
5 5 6
39 39 41
43 43 48
42 41 47
39 39 41
39 39 41
59 58 59
59 64 62
36 36 40
43 43 48
43 43 48
43 43 48
43 43 48
42 41 47
41 41 46
44 44 49
43 43 48
28 31 34
7 19 14
21 3 8
56 0 15
125 1 38
169 0 49
211 3 68
235 2 74
248 3 80
248 3 80
248 3 80
248 3 80
248 3 80
246 4 78
246 4 78
235 2 74
208 7 67
162 2 52
90 1 28
51 1 16
10 8 10
7 19 14
33 33 38
43 43 48
43 43 48
42 41 47
42 41 47
43 43 48
42 41 47
42 41 47
42 41 47
42 41 47
41 41 46
42 41 47
43 43 48
44 42 44
48 48 50
74 74 77
54 54 58
33 33 38
3 2 3
74 74 77
118 118 122
19 18 19
0 0 0
122 122 126
90 90 92
0 0 0
23 23 23
52 57 52
74 74 77
59 64 62
40 40 37
10 10 10
0 0 0
0 0 0
1 1 1
0 0 0
0 0 0
0 0 0
0 0 0
0 0 0
0 0 0
0 0 0
0 0 0
0 0 0
0 0 0
0 0 0
0 0 0
0 0 0
0 0 0
0 0 0
0 0 0
0 0 0
0 0 0
0 0 0
0 0 0
0 0 0
0 0 0
0 0 0
0 0 0
0 0 0
0 0 0
0 0 0
0 0 0
0 0 0
0 0 0
0 0 0
0 0 0
0 0 0
0 0 0
0 0 0
0 0 0
0 0 0
0 0 0
0 0 0
0 0 0
0 0 0
0 0 0
0 0 0
0 0 0
0 0 0
0 0 0
0 0 0
0 0 0
0 0 0
0 0 0
0 0 0
0 0 0
0 0 0
0 0 0
0 0 0
0 0 0
0 0 0
0 0 0
0 0 0
0 0 0
0 0 0
0 0 0
0 0 0
0 0 0
0 0 0
0 0 0
0 0 0
0 0 0
0 0 0
0 0 0
0 0 0
0 0 0
0 0 0
0 0 0
0 0 0
0 0 0
0 0 0
0 0 0
0 0 0
0 0 0
0 0 0
0 0 0
0 0 0
0 0 0
0 0 0
0 0 0
0 0 0
0 0 0
0 0 0
0 0 0
0 0 0
0 0 0
0 0 0
0 0 0
0 0 0
0 0 0
0 0 0
0 0 0
0 0 0
0 0 0
0 0 0
0 0 0
0 0 0
0 0 0
0 0 0
0 0 0
0 0 0
0 0 0
62 61 53
118 118 122
113 112 110
79 79 83
76 77 81
79 79 83
79 79 83
76 77 81
79 79 83
34 35 40
0 0 0
0 0 1
4 4 8
0 0 4
0 0 4
0 0 4
0 0 4
2 2 5
2 2 5
0 0 1
0 0 4
4 4 8
23 23 23
41 41 46
45 45 50
44 44 49
45 45 50
45 45 50
43 43 48
47 45 50
51 51 55
45 45 50
28 31 34
16 17 21
19 18 19
51 1 16
90 1 28
125 1 38
162 2 52
165 6 52
169 0 49
169 0 49
169 0 49
165 6 52
162 2 52
125 1 38
89 6 27
51 1 16
17 16 16
7 19 14
24 24 28
41 41 46
51 51 55
47 45 50
42 41 47
41 41 46
42 41 47
42 41 47
43 43 48
43 43 48
43 43 48
43 43 48
43 43 48
42 41 47
42 41 47
45 45 50
54 54 58
45 45 50
41 41 46
36 36 40
7 8 10
39 39 41
130 130 134
124 124 125
130 130 134
135 135 140
139 138 142
144 143 148
149 150 146
149 150 146
144 143 148
144 143 148
144 143 148
144 143 148
144 143 148
144 143 148
144 143 148
144 143 148
139 138 142
135 135 140
139 138 142
144 143 148
144 143 148
144 143 148
144 143 148
149 150 146
149 150 146
149 150 146
144 143 148
144 143 148
144 143 148
144 143 148
144 143 148
139 138 142
135 135 137
135 135 137
139 138 142
144 143 148
144 143 148
144 143 148
144 143 148
144 143 148
144 143 148
144 143 148
144 143 148
144 143 148
144 143 148
144 143 148
149 150 146
139 138 142
135 135 140
139 138 142
144 143 148
144 143 148
144 143 148
144 143 148
144 143 148
144 143 148
144 143 148
144 143 148
149 150 146
144 143 148
144 143 148
139 138 142
135 135 140
130 130 134
124 124 125
130 130 134
37 37 37
4 4 6
33 33 38
39 39 41
39 39 41
39 39 41
33 33 38
28 31 34
39 39 41
39 39 41
36 36 40
33 33 38
32 32 35
32 32 35
32 32 35
33 33 38
36 36 40
44 42 44
42 41 47
33 33 38
20 21 23
6 15 11
7 7 7
21 3 8
51 1 16
89 6 27
90 1 28
90 1 28
90 1 28
90 1 28
89 6 27
56 0 15
21 3 8
10 0 2
3 4 4
7 19 14
20 21 23
28 31 34
36 36 40
33 33 38
32 32 35
32 32 35
32 32 35
33 33 38
33 33 38
32 32 35
33 33 38
33 33 38
32 32 35
32 32 35
33 33 38
34 35 40
33 33 38
41 41 46
36 36 40
28 31 34
13 13 13
15 15 14
84 83 84
27 27 24
0 0 0
14 14 14
132 132 135
91 91 95
102 102 105
144 143 148
146 145 141
135 135 137
135 135 137
146 145 141
139 138 142
102 102 105
27 30 25
0 0 0
0 0 0
0 0 0
0 0 0
0 0 0
0 0 0
0 0 0
0 0 0
0 0 0
0 0 0
0 0 0
0 0 0
0 0 0
0 0 0
0 0 0
0 0 0
0 0 0
0 0 0
0 0 0
0 0 0
0 0 0
0 0 0
0 0 0
0 0 0
0 0 0
0 0 0
0 0 0
0 0 0
0 0 0
0 0 0
0 0 0
0 0 0
0 0 0
0 0 0
0 0 0
0 0 0
0 0 0
0 0 0
0 0 0
0 0 0
0 0 0
0 0 0
0 0 0
0 0 0
0 0 0
0 0 0
0 0 0
0 0 0
0 0 0
0 0 0
0 0 0
0 0 0
0 0 0
0 0 0
0 0 0
0 0 0
0 0 0
0 0 0
0 0 0
0 0 0
0 0 0
0 0 0
0 0 0
0 0 0
0 0 0
0 0 0
0 0 0
0 0 0
0 0 0
0 0 0
0 0 0
0 0 0
0 0 0
0 0 0
0 0 0
0 0 0
0 0 0
0 0 0
0 0 0
0 0 0
0 0 0
0 0 0
0 0 0
0 0 0
0 0 0
0 0 0
0 0 0
0 0 0
0 0 0
0 0 0
0 0 0
0 0 0
0 0 0
0 0 0
0 0 0
0 0 0
0 0 0
0 0 0
0 0 0
0 0 0
0 0 0
0 0 0
0 0 0
0 0 0
0 0 0
0 0 0
1 1 1
6 6 5
102 102 105
122 122 126
43 43 48
60 58 2
99 92 38
99 92 38
99 92 38
99 92 38
99 92 38
99 92 38
99 92 38
107 102 43
107 102 43
99 92 38
119 114 45
119 114 45
107 102 43
99 92 38
99 92 38
99 92 38
107 102 43
99 92 38
60 58 2
2 1 1
0 0 4
17 16 17
17 16 17
12 12 13
7 8 10
10 10 12
9 9 9
9 9 9
12 12 13
16 15 16
18 17 18
12 12 13
2 4 2
0 0 0
0 0 0
0 0 0
0 0 0
0 0 0
0 0 0
0 0 0
0 0 0
0 0 0
0 0 0
0 0 0
6 6 7
10 11 12
12 11 11
10 8 10
10 10 12
10 10 12
10 11 12
10 10 12
10 8 10
7 8 10
7 8 10
9 9 9
9 9 9
9 9 9
10 10 12
10 10 12
10 10 12
10 10 12
10 8 10
10 8 10
12 12 13
9 9 9
6 6 7
39 39 41
116 116 120
122 122 126
130 130 134
113 112 110
59 58 59
54 54 58
59 58 59
59 58 59
59 58 59
54 54 58
54 54 58
54 54 58
54 54 58
54 54 58
54 54 58
54 54 58
54 54 58
59 58 59
59 58 59
54 54 58
54 54 58
54 54 58
59 58 59
59 58 59
59 58 59
54 54 58
54 54 58
51 51 55
51 51 55
51 51 55
54 54 58
59 58 59
59 58 59
59 58 59
59 58 59
54 54 58
59 58 59
59 58 59
54 54 58
54 54 58
54 54 58
59 58 59
59 58 59
59 58 59
54 54 58
54 54 58
51 51 55
54 54 58
59 58 59
59 58 59
59 58 59
54 54 58
54 54 58
54 54 58
54 54 58
54 54 58
54 54 58
54 54 58
54 54 58
54 54 58
54 54 58
54 54 58
54 54 58
59 64 62
113 112 110
130 130 134
124 124 125
113 112 110
44 42 44
15 15 14
19 19 18
20 21 23
17 16 17
17 16 16
19 18 19
19 18 19
19 18 19
18 18 18
17 16 17
15 15 14
15 15 14
17 16 16
17 16 17
19 18 19
22 22 23
20 20 18
20 20 18
22 22 23
22 22 23
19 18 19
14 14 14
7 19 14
6 15 11
6 15 11
6 15 11
6 15 11
6 15 11
6 15 11
6 15 11
7 19 14
17 16 17
22 22 23
23 23 23
23 23 23
20 20 18
18 17 18
17 16 17
18 18 18
18 18 18
19 19 18
18 18 18
18 18 18
19 19 18
19 18 19
19 19 18
19 18 19
19 19 18
22 22 23
18 18 18
18 18 18
12 12 13
0 0 0
0 0 0
0 0 0
0 0 4
0 0 0
0 0 0
1 1 1
54 54 58
149 150 146
144 143 148
91 91 95
33 33 38
2 2 5
0 0 0
0 0 4
24 24 28
59 64 62
116 116 120
132 132 135
23 23 23
0 0 0
1 1 1
0 0 0
0 0 0
0 0 0
0 0 0
0 0 0
0 0 0
0 0 0
0 0 0
0 0 0
0 0 0
0 0 0
0 0 0
0 0 0
0 0 0
0 0 0
0 0 0
0 0 0
0 0 0
0 0 0
0 0 0
0 0 0
0 0 0
0 0 0
0 0 0
0 0 0
0 0 0
0 0 0
0 0 0
0 0 0
0 0 0
0 0 0
0 0 0
0 0 0
0 0 0
0 0 0
0 0 0
0 0 0
0 0 0
0 0 0
0 0 0
0 0 0
0 0 0
0 0 0
0 0 0
0 0 0
0 0 0
0 0 0
0 0 0
0 0 0
0 0 0
0 0 0
0 0 0
0 0 0
0 0 0
0 0 0
0 0 0
0 0 0
0 0 0
0 0 0
0 0 0
0 0 0
0 0 0
0 0 0
0 0 0
0 0 0
0 0 0
0 0 0
0 0 0
0 0 0
0 0 0
0 0 0
0 0 0
0 0 0
0 0 0
0 0 0
0 0 0
0 0 0
0 0 0
0 0 0
0 0 0
0 0 0
0 0 0
0 0 0
0 0 0
0 0 0
0 0 0
0 0 0
0 0 0
0 0 0
0 0 0
0 0 0
0 0 0
0 0 0
0 0 0
0 0 0
0 0 0
0 0 0
0 0 0
0 0 0
0 0 0
0 0 0
0 0 0
1 1 1
0 0 0
99 98 93
116 116 120
10 11 5
161 149 0
255 240 4
255 248 6
255 248 6
255 244 4
255 244 2
255 244 4
255 248 6
255 248 6
255 246 2
255 244 2
255 244 2
255 244 2
255 246 2
255 244 2
255 244 2
255 244 2
255 246 2
255 248 6
255 248 6
255 240 4
193 184 2
60 58 2
0 0 0
12 11 11
68 68 71
84 83 84
82 82 81
88 87 91
88 87 91
88 87 91
88 87 91
88 87 91
88 87 91
88 87 91
91 91 95
94 95 98
91 91 95
90 90 92
88 87 91
88 87 91
90 90 92
90 90 92
90 90 92
88 87 91
88 87 91
90 90 92
91 91 95
90 90 92
88 87 91
84 83 84
84 83 84
88 87 91
88 87 91
85 86 83
84 83 84
84 83 84
82 82 81
82 82 81
82 82 81
82 82 81
84 83 84
85 86 83
85 86 83
88 87 91
88 87 91
88 87 91
88 87 91
102 102 105
132 132 135
130 130 134
124 124 125
130 130 134
94 95 98
68 68 71
74 74 77
74 74 77
71 72 76
68 68 71
68 68 71
68 68 71
68 68 71
68 68 71
68 68 71
68 68 71
68 68 71
68 68 71
59 64 62
59 64 62
68 68 71
68 68 71
68 68 71
68 68 71
68 68 71
68 68 71
68 68 71
68 68 71
68 68 71
68 68 71
68 68 71
68 68 71
68 68 71
68 68 71
68 68 71
68 68 71
68 68 71
68 68 71
68 68 71
68 68 71
68 68 71
68 68 71
68 68 71
68 68 71
68 68 71
68 68 71
68 68 71
68 68 71
68 68 71
68 68 71
68 68 71
68 68 71
68 68 71
68 68 71
71 72 76
68 68 71
68 68 71
71 72 76
68 68 71
68 68 71
71 72 76
74 74 77
74 74 77
76 77 81
68 68 71
102 102 105
130 130 134
130 130 134
130 130 134
130 130 134
118 118 122
118 118 122
124 124 125
124 124 125
124 124 125
122 122 126
118 118 122
116 116 120
116 116 120
118 118 122
116 116 120
118 118 122
118 118 122
118 118 122
118 118 122
122 122 126
122 122 126
122 122 126
124 124 125
122 122 126
118 118 122
122 122 126
122 122 126
124 124 125
124 124 125
122 122 126
122 122 126
122 122 126
122 122 126
122 122 126
124 124 125
124 124 125
122 122 126
118 118 122
118 118 122
118 118 122
118 118 122
118 118 122
118 118 122
118 118 122
122 122 126
118 118 122
116 116 120
116 116 120
116 116 120
116 116 120
116 116 120
116 116 120
116 116 120
118 118 122
116 116 120
22 22 23
0 0 0
10 11 5
55 51 10
60 58 14
80 78 44
55 51 10
0 0 0
9 6 9
102 102 105
59 58 59
0 0 0
10 11 5
60 58 14
80 78 44
60 58 14
24 23 7
0 0 0
0 0 0
113 112 110
94 95 98
0 0 0
2 2 2
0 0 0
0 0 0
0 0 0
0 0 0
0 0 0
0 0 0
0 0 0
0 0 0
0 0 0
0 0 0
0 0 0
0 0 0
0 0 0
0 0 0
0 0 0
0 0 0
0 0 0
0 0 0
0 0 0
0 0 0
0 0 0
0 0 0
0 0 0
0 0 0
0 0 0
0 0 0
0 0 0
0 0 0
0 0 0
0 0 0
0 0 0
0 0 0
0 0 0
0 0 0
0 0 0
0 0 0
0 0 0
0 0 0
0 0 0
0 0 0
0 0 0
0 0 0
0 0 0
0 0 0
0 0 0
0 0 0
0 0 0
0 0 0
0 0 0
0 0 0
0 0 0
0 0 0
0 0 0
0 0 0
0 0 0
0 0 0
0 0 0
0 0 0
0 0 0
0 0 0
0 0 0
0 0 0
0 0 0
0 0 0
0 0 0
0 0 0
0 0 0
0 0 0
0 0 0
0 0 0
0 0 0
0 0 0
0 0 0
0 0 0
0 0 0
0 0 0
0 0 0
0 0 0
0 0 0
0 0 0
0 0 0
0 0 0
0 0 0
0 0 0
0 0 0
0 0 0
0 0 0
0 0 0
0 0 0
0 0 0
0 0 0
0 0 0
0 0 0
0 0 0
0 0 0
0 0 0
0 0 0
0 0 0
0 0 0
0 0 0
0 0 0
1 1 1
0 0 0
34 34 31
139 138 142
16 17 21
161 149 0
255 252 2
253 229 3
253 237 3
255 244 4
255 244 2
255 244 2
255 244 2
255 244 2
255 244 2
255 244 2
255 240 2
255 240 2
255 240 2
255 240 2
255 240 2
255 244 2
255 244 4
255 244 4
255 244 4
254 238 2
253 229 3
255 244 2
239 226 2
60 58 2
0 0 0
28 28 27
102 102 105
130 130 134
130 130 134
130 130 134
130 130 134
130 130 134
130 130 134
130 130 134
124 124 125
124 124 125
130 130 134
130 130 134
130 130 134
130 130 134
130 130 134
130 130 134
130 130 134
130 130 134
130 130 134
130 130 134
130 130 134
130 130 134
132 132 135
132 132 135
130 130 134
130 130 134
130 130 134
130 130 134
130 130 134
130 130 134
124 124 125
124 124 125
124 124 125
124 124 125
124 124 125
124 124 125
124 124 125
130 130 134
130 130 134
130 130 134
124 124 125
124 124 125
122 122 126
116 116 120
118 118 122
118 118 122
118 118 122
118 118 122
130 130 134
135 135 137
135 135 137
132 132 135
130 130 134
130 130 134
132 132 135
130 130 134
130 130 134
130 130 134
130 130 134
130 130 134
124 124 125
122 122 126
122 122 126
122 122 126
124 124 125
124 124 125
124 124 125
124 124 125
124 124 125
130 130 134
130 130 134
130 130 134
130 130 134
132 132 135
132 132 135
130 130 134
130 130 134
130 130 134
130 130 134
130 130 134
130 130 134
130 130 134
130 130 134
130 130 134
130 130 134
124 124 125
130 130 134
130 130 134
130 130 134
130 130 134
130 130 134
130 130 134
130 130 134
130 130 134
124 124 125
130 130 134
130 130 134
130 130 134
130 130 134
124 124 125
130 130 134
130 130 134
130 130 134
130 130 134
132 132 135
135 135 137
135 135 137
132 132 135
122 122 126
118 118 122
122 122 126
118 118 122
118 118 122
118 118 122
118 118 122
122 122 126
124 124 125
124 124 125
122 122 126
118 118 122
116 116 120
116 116 120
118 118 122
118 118 122
118 118 122
122 122 126
118 118 122
116 116 120
118 118 122
118 118 122
118 118 122
118 118 122
118 118 122
118 118 122
116 116 120
116 116 120
116 116 120
116 116 120
116 116 120
116 116 120
116 116 120
116 116 120
116 116 120
116 116 120
116 116 120
116 116 120
116 116 120
116 116 120
116 116 120
116 116 120
116 116 120
116 116 120
116 116 120
116 116 120
116 116 120
113 112 110
113 112 110
113 112 110
113 112 110
113 112 110
102 102 105
113 112 110
113 112 110
59 64 62
0 0 0
55 51 10
93 188 35
87 201 32
193 184 2
162 214 95
162 214 95
93 188 35
7 29 10
0 0 0
0 2 0
99 92 38
87 201 32
87 201 32
162 214 95
87 201 32
87 201 32
64 167 23
0 0 0
68 68 71
122 122 126
0 0 0
0 0 0
0 0 0
0 0 0
0 0 0
0 0 0
0 0 0
0 0 0
0 0 0
0 0 0
0 0 0
0 0 0
0 0 0
0 0 0
0 0 0
0 0 0
0 0 0
0 0 0
0 0 0
0 0 0
0 0 0
0 0 0
0 0 0
0 0 0
0 0 0
0 0 0
0 0 0
0 0 0
0 0 0
0 0 0
0 0 0
0 0 0
0 0 0
0 0 0
0 0 0
0 0 0
0 0 0
0 0 0
0 0 0
0 0 0
0 0 0
0 0 0
0 0 0
0 0 0
0 0 0
0 0 0
0 0 0
0 0 0
0 0 0
0 0 0
0 0 0
0 0 0
0 0 0
0 0 0
0 0 0
0 0 0
0 0 0
0 0 0
0 0 0
0 0 0
0 0 0
0 0 0
0 0 0
0 0 0
0 0 0
0 0 0
0 0 0
0 0 0
0 0 0
0 0 0
0 0 0
0 0 0
0 0 0
0 0 0
0 0 0
0 0 0
0 0 0
0 0 0
0 0 0
0 0 0
0 0 0
0 0 0
0 0 0
0 0 0
0 0 0
0 0 0
0 0 0
0 0 0
0 0 0
0 0 0
0 0 0
0 0 0
0 0 0
0 0 0
0 0 0
0 0 0
0 0 0
0 0 0
0 0 0
0 0 0
0 0 0
0 0 0
0 0 0
2 2 2
0 0 0
85 86 83
102 102 105
55 51 10
255 244 4
253 229 3
253 237 3
238 225 4
193 184 2
193 184 2
193 184 2
193 184 2
193 184 2
193 184 2
193 184 2
193 184 2
193 184 2
193 184 2
193 184 2
193 184 2
193 184 2
193 184 2
193 184 2
193 184 2
224 210 0
255 240 2
253 229 3
254 238 2
239 226 2
46 42 3
0 0 0
15 13 11
37 37 37
32 32 35
28 28 27
26 26 29
28 28 27
28 28 27
26 26 29
28 28 27
24 24 28
23 23 23
24 24 28
28 28 27
26 26 29
26 26 29
26 26 29
28 28 27
28 28 27
28 28 27
28 28 27
28 28 27
28 28 27
28 28 27
28 28 27
28 28 27
28 28 27
28 28 27
28 28 27
28 28 27
28 28 27
28 28 27
28 28 27
28 28 27
28 28 27
28 28 27
28 28 27
28 28 27
28 28 27
28 28 27
28 28 27
28 28 27
28 28 27
28 28 27
28 28 27
28 28 27
28 28 27
28 31 34
28 31 34
28 28 27
28 28 27
28 28 27
26 26 29
26 26 29
28 28 27
28 28 27
28 28 27
28 28 27
28 28 27
28 28 27
28 28 27
26 26 29
28 28 27
28 28 27
28 28 27
26 26 29
28 28 27
24 24 28
26 26 29
26 26 29
26 26 29
28 28 27
26 26 29
28 28 27
28 31 34
32 32 35
32 32 35
28 28 27
26 26 29
26 26 29
26 26 29
26 26 29
26 26 29
26 26 29
28 28 27
26 26 29
26 26 29
28 28 27
28 28 27
28 31 34
28 28 27
26 26 29
28 28 27
28 31 34
28 28 27
28 28 27
28 28 27
28 28 27
26 26 29
26 26 29
26 26 29
24 24 28
26 26 29
26 26 29
24 24 28
27 27 24
26 26 29
26 26 29
26 26 29
28 28 27
28 28 27
28 28 27
28 28 27
28 28 27
28 28 27
28 28 27
28 28 27
26 26 29
26 26 29
28 28 27
28 28 27
28 28 27
28 28 27
28 28 27
28 28 27
28 28 27
28 28 27
28 28 27
28 28 27
28 28 27
28 28 27
26 26 29
26 26 29
28 28 27
28 28 27
28 28 27
28 28 27
28 28 27
26 26 29
26 26 29
26 26 29
24 24 28
24 24 28
23 23 23
24 24 28
24 24 28
24 24 28
26 26 29
24 24 28
24 24 28
23 23 23
23 23 23
23 23 23
27 27 24
24 24 28
24 24 28
26 26 29
28 28 27
26 26 29
26 26 29
26 26 29
26 26 29
26 26 29
18 18 18
0 0 0
0 0 1
60 58 2
193 184 2
87 201 32
93 188 35
93 188 35
162 214 95
162 214 95
93 188 35
5 5 2
60 58 14
162 214 95
87 201 32
93 188 35
64 167 23
93 188 35
162 214 95
93 188 35
1 1 1
68 68 71
116 116 120
0 0 0
0 0 0
0 0 0
0 0 0
0 0 0
0 0 0
0 0 0
0 0 0
0 0 0
0 0 0
0 0 0
0 0 0
0 0 0
0 0 0
0 0 0
0 0 0
0 0 0
0 0 0
0 0 0
0 0 0
0 0 0
0 0 0
0 0 0
0 0 0
0 0 0
0 0 0
0 0 0
0 0 0
0 0 0
0 0 0
0 0 0
0 0 0
0 0 0
0 0 0
0 0 0
0 0 0
0 0 0
0 0 0
0 0 0
0 0 0
0 0 0
0 0 0
0 0 0
0 0 0
0 0 0
0 0 0
0 0 0
0 0 0
0 0 0
0 0 0
0 0 0
0 0 0
0 0 0
0 0 0
0 0 0
0 0 0
0 0 0
0 0 0
0 0 0
0 0 0
0 0 0
0 0 0
0 0 0
0 0 0
0 0 0
0 0 0
0 0 0
0 0 0
0 0 0
0 0 0
0 0 0
0 0 0
0 0 0
0 0 0
0 0 0
0 0 0
0 0 0
0 0 0
0 0 0
0 0 0
0 0 0
0 0 0
0 0 0
0 0 0
0 0 0
0 0 0
0 0 0
0 0 0
0 0 0
0 0 0
0 0 0
0 0 0
0 0 0
0 0 0
0 0 0
0 0 0
0 0 0
0 0 0
0 0 0
0 0 0
0 0 0
0 0 0
0 0 0
2 2 1
0 0 0
113 112 110
54 54 58
99 92 38
255 248 6
253 237 3
238 225 4
46 42 3
1 0 0
5 5 2
3 2 0
3 2 0
3 2 3
2 2 2
2 2 1
2 2 2
2 2 1
3 3 2
3 3 2
2 3 1
2 3 1
4 3 0
2 3 1
4 3 0
18 17 5
99 92 38
239 226 2
253 229 3
255 248 6
184 170 1
4 4 6
10 9 4
0 0 0
0 0 0
0 0 0
0 0 0
0 0 0
0 0 0
0 0 0
0 0 0
0 0 0
0 0 0
0 0 0
0 0 0
0 0 0
0 0 0
0 0 0
0 0 0
0 0 0
0 0 0
0 0 0
0 0 0
0 0 0
0 0 0
0 0 0
0 0 0
0 0 0
0 0 0
0 0 0
0 0 0
0 0 0
0 0 0
0 0 0
0 0 0
0 0 0
0 0 0
0 0 0
0 0 0
0 0 0
0 0 0
0 0 0
0 0 0
0 0 0
0 0 0
0 0 0
0 0 0
0 0 0
0 0 0
0 0 0
0 0 0
0 0 0
0 0 0
0 0 0
0 0 0
0 0 0
0 0 0
0 0 0
0 0 0
0 0 0
0 0 0
0 0 0
0 0 0
0 0 0
0 0 0
0 0 0
0 0 0
0 0 0
0 0 0
0 0 0
0 0 0
0 0 0
0 0 0
0 0 0
0 0 0
0 0 0
0 0 0
0 0 0
0 0 0
0 0 0
0 0 0
0 0 0
0 0 0
0 0 0
0 0 0
0 0 0
0 0 0
0 0 0
0 0 0
0 0 0
0 0 0
0 0 0
0 0 0
0 0 0
0 0 0
0 0 0
0 0 0
0 0 0
0 0 0
0 0 0
0 0 0
0 0 0
0 0 0
0 0 0
0 0 0
0 0 0
0 0 0
0 0 0
0 0 0
0 0 0
0 0 0
0 0 0
0 0 0
0 0 0
0 0 0
0 0 0
0 0 0
0 0 0
0 0 0
0 0 0
0 0 0
0 0 0
0 0 0
0 0 0
0 0 0
0 0 0
0 0 0
0 0 0
0 0 0
0 0 0
0 0 0
0 0 0
0 0 0
0 0 0
0 0 0
0 0 0
0 0 0
0 0 0
0 0 0
0 0 0
0 0 0
0 0 0
0 0 0
0 0 0
0 0 0
0 0 0
0 0 0
0 0 0
0 0 0
0 0 0
0 0 0
0 0 0
0 0 0
0 0 0
0 0 0
0 0 0
0 0 0
0 0 0
0 0 0
0 0 0
0 0 0
0 0 0
0 0 0
0 0 0
0 0 0
2 3 1
0 0 0
24 23 7
193 184 2
162 214 95
87 201 32
64 167 23
99 92 38
87 201 32
87 201 32
25 41 26
64 167 23
162 214 95
93 188 35
99 92 38
93 188 35
87 201 32
162 214 95
99 92 38
0 0 0
102 102 105
94 95 98
0 0 0
2 2 2
0 0 0
0 0 0
0 0 0
0 0 0
0 0 0
0 0 0
0 0 0
0 0 0
0 0 0
0 0 0
0 0 0
0 0 0
0 0 0
0 0 0
0 0 0
0 0 0
0 0 0
0 0 0
0 0 0
0 0 0
0 0 0
0 0 0
0 0 0
0 0 0
0 0 0
0 0 0
0 0 0
0 0 0
0 0 0
0 0 0
0 0 0
0 0 0
0 0 0
0 0 0
0 0 0
0 0 0
0 0 0
0 0 0
0 0 0
0 0 0
0 0 0
0 0 0
0 0 0
0 0 0
0 0 0
0 0 0
0 0 0
0 0 0
0 0 0
0 0 0
0 0 0
0 0 0
0 0 0
0 0 0
0 0 0
0 0 0
0 0 0
0 0 0
0 0 0
0 0 0
0 0 0
0 0 0
0 0 0
0 0 0
0 0 0
0 0 0
0 0 0
0 0 0
0 0 0
0 0 0
0 0 0
0 0 0
0 0 0
0 0 0
0 0 0
0 0 0
0 0 0
0 0 0
0 0 0
0 0 0
0 0 0
0 0 0
0 0 0
0 0 0
0 0 0
0 0 0
0 0 0
0 0 0
0 0 0
0 0 0
0 0 0
0 0 0
0 0 0
0 0 0
0 0 0
0 0 0
0 0 0
0 0 0
0 0 0
0 0 0
0 0 0
0 1 0
0 0 0
123 122 110
42 41 47
99 92 38
255 248 6
255 244 4
193 184 2
1 1 0
0 0 0
0 0 0
0 0 0
0 0 0
0 0 0
0 0 0
0 0 0
0 0 0
0 0 0
0 0 0
0 0 0
0 0 0
0 0 0
0 0 0
0 0 0
0 0 0
0 0 0
0 0 1
161 149 0
255 248 6
253 237 3
238 225 4
46 42 3
24 24 28
3 2 3
5 5 2
6 5 2
4 3 3
5 5 2
4 3 3
4 3 3
4 3 3
4 3 3
3 3 3
3 3 3
3 3 3
3 3 3
3 3 3
4 3 3
3 3 3
3 3 3
4 3 3
4 3 3
4 3 3
3 3 2
4 3 3
3 2 3
3 2 3
2 2 2
3 3 3
3 3 2
3 3 3
3 2 3
3 2 3
3 3 2
3 3 3
3 3 3
3 3 3
4 3 3
3 3 3
3 3 3
3 3 3
3 3 3
3 3 3
3 3 2
3 3 2
3 3 3
3 3 3
3 3 3
3 3 3
3 3 3
3 2 3
3 2 3
3 3 3
3 3 2
2 2 2
2 2 2
3 3 3
3 3 3
3 3 3
3 2 3
3 2 3
3 3 3
3 3 3
2 2 2
3 3 3
2 2 2
3 2 3
2 2 2
2 2 2
3 2 3
3 3 3
4 3 3
4 3 3
3 3 3
4 3 3
3 3 3
3 3 3
3 3 3
3 3 3
3 3 3
3 3 3
4 3 3
3 3 3
3 3 3
3 3 2
3 3 3
3 3 3
3 2 3
3 2 3
3 3 2
3 2 3
3 2 3
3 3 3
3 3 3
3 3 3
3 4 4
3 3 3
3 3 3
3 3 3
3 3 3
3 3 3
3 3 3
3 3 3
3 3 3
3 3 3
3 3 2
3 3 2
3 3 2
3 3 3
3 3 3
3 3 3
3 3 3
3 3 3
4 3 3
3 3 3
3 3 3
4 3 3
4 3 3
4 3 3
3 3 3
4 3 3
3 4 4
3 4 4
4 3 3
3 3 3
3 4 4
6 6 5
6 6 5
3 4 4
3 4 4
4 3 3
3 4 4
4 3 3
3 4 4
3 4 4
4 3 3
3 4 4
4 3 3
4 3 3
4 3 3
4 3 3
4 3 3
3 4 4
3 4 4
3 4 4
6 6 5
4 3 3
4 3 3
4 3 3
4 3 3
3 4 4
4 3 3
5 5 2
3 4 4
4 3 3
4 3 3
3 3 2
4 3 3
4 3 3
3 4 4
6 6 5
4 3 3
4 3 3
3 3 2
2 2 1
2 3 1
2 3 1
0 2 0
93 188 35
162 214 95
87 201 32
87 201 32
64 167 23
55 51 10
64 167 23
10 11 5
60 58 14
64 167 23
60 58 14
87 201 32
87 201 32
87 201 32
93 188 35
24 23 7
14 14 14
149 150 146
52 57 52
0 0 0
2 2 2
0 0 0
0 0 0
0 0 0
0 0 0
0 0 0
0 0 0
0 0 0
0 0 0
0 0 0
0 0 0
0 0 0
0 0 0
0 0 0
0 0 0
0 0 0
0 0 0
0 0 0
0 0 0
0 0 0
0 0 0
0 0 0
0 0 0
0 0 0
0 0 0
0 0 0
0 0 0
0 0 0
0 0 0
0 0 0
0 0 0
0 0 0
0 0 0
0 0 0
0 0 0
0 0 0
0 0 0
0 0 0
0 0 0
0 0 0
0 0 0
0 0 0
0 0 0
0 0 0
0 0 0
0 0 0
0 0 0
0 0 0
0 0 0
0 0 0
0 0 0
0 0 0
0 0 0
0 0 0
0 0 0
0 0 0
0 0 0
0 0 0
0 0 0
0 0 0
0 0 0
0 0 0
0 0 0
0 0 0
0 0 0
0 0 0
0 0 0
0 0 0
0 0 0
0 0 0
0 0 0
0 0 0
0 0 0
0 0 0
0 0 0
0 0 0
0 0 0
0 0 0
0 0 0
0 0 0
0 0 0
0 0 0
0 0 0
0 0 0
0 0 0
0 0 0
0 0 0
0 0 0
0 0 0
0 0 0
0 0 0
0 0 0
0 0 0
0 0 0
0 0 0
0 0 0
0 0 0
0 0 0
0 0 0
0 0 0
0 0 0
0 0 0
0 1 0
0 0 0
123 122 110
42 41 47
99 92 38
255 248 6
255 240 4
193 184 2
10 9 4
39 39 41
51 51 55
48 48 50
48 48 50
51 51 55
51 51 55
51 51 55
51 51 55
48 48 50
48 48 50
48 48 50
48 48 50
48 48 50
48 48 50
51 51 55
51 51 55
28 28 27
0 2 0
46 42 3
253 229 3
253 237 3
255 244 4
60 58 2
34 35 40
22 20 11
3 2 0
6 5 2
4 3 3
4 3 3
2 2 2
2 2 1
2 2 2
2 2 1
2 2 1
2 2 1
2 2 1
3 2 3
3 2 0
3 2 0
2 2 1
3 2 0
2 2 1
2 2 1
2 2 1
3 2 0
3 2 0
3 2 0
2 2 1
2 2 1
2 2 1
2 1 1
2 2 1
2 2 1
2 2 2
2 2 1
2 2 1
2 2 1
2 1 1
2 1 1
2 1 1
2 2 1
2 1 1
2 1 1
2 2 0
2 2 1
2 2 1
2 2 1
2 2 1
2 1 1
2 2 1
2 2 1
2 1 1
1 1 1
2 1 1
1 1 1
2 1 1
1 1 1
2 1 1
2 2 1
2 2 2
2 1 1
2 2 1
2 2 1
2 1 2
2 2 2
2 2 1
2 1 1
2 2 1
2 2 2
2 1 1
2 2 1
2 2 1
2 1 1
2 2 2
2 2 2
2 2 2
2 2 2
2 2 1
2 2 1
2 2 1
2 1 1
1 1 1
2 1 1
2 2 1
2 1 1
2 2 1
2 2 1
2 1 1
2 2 1
2 2 1
2 2 1
2 2 1
2 2 1
2 1 1
2 2 1
2 1 1
2 2 2
2 2 1
2 2 1
2 2 2
2 1 1
2 2 2
2 1 2
2 1 1
2 2 1
2 2 2
2 2 1
2 2 1
2 2 1
2 1 2
2 1 1
2 2 2
2 2 2
2 1 2
2 2 1
2 1 1
2 2 1
2 2 2
2 2 1
2 2 1
2 2 2
3 2 3
3 3 2
3 3 2
3 2 3
3 3 3
3 2 3
3 2 3
3 3 2
3 3 2
3 3 2
3 3 3
3 3 2
3 3 2
3 3 2
3 3 2
3 3 2
3 3 2
4 3 3
3 3 2
3 2 0
3 2 0
3 3 2
4 3 3
4 3 3
3 3 2
4 3 3
3 3 2
3 3 2
3 3 2
4 3 3
4 3 3
3 3 2
3 3 2
3 3 2
2 3 2
3 2 3
3 2 3
3 3 2
3 3 2
3 3 2
4 3 3
2 2 2
2 2 1
2 1 1
2 1 1
3 2 0
4 3 0
1 1 0
24 23 7
93 188 35
87 201 32
87 201 32
162 214 95
93 188 35
0 0 0
2 1 1
0 0 0
46 42 3
87 201 32
87 201 32
87 201 32
162 214 95
60 58 14
0 0 0
74 74 77
144 143 148
10 10 10
0 0 0
1 1 1
0 0 0
0 0 0
0 0 0
0 0 0
0 0 0
0 0 0
0 0 0
0 0 0
0 0 0
0 0 0
0 0 0
0 0 0
0 0 0
0 0 0
0 0 0
0 0 0
0 0 0
0 0 0
0 0 0
0 0 0
0 0 0
0 0 0
0 0 0
0 0 0
0 0 0
0 0 0
0 0 0
0 0 0
0 0 0
0 0 0
0 0 0
0 0 0
0 0 0
0 0 0
0 0 0
0 0 0
0 0 0
0 0 0
0 0 0
0 0 0
0 0 0
0 0 0
0 0 0
0 0 0
0 0 0
0 0 0
0 0 0
0 0 0
0 0 0
0 0 0
0 0 0
0 0 0
0 0 0
0 0 0
0 0 0
0 0 0
0 0 0
0 0 0
0 0 0
0 0 0
0 0 0
0 0 0
0 0 0
0 0 0
0 0 0
0 0 0
0 0 0
0 0 0
0 0 0
0 0 0
0 0 0
0 0 0
0 0 0
0 0 0
0 0 0
0 0 0
0 0 0
0 0 0
0 0 0
0 0 0
0 0 0
0 0 0
0 0 0
0 0 0
0 0 0
0 0 0
0 0 0
0 0 0
0 0 0
0 0 0
0 0 0
0 0 0
0 0 0
0 0 0
0 0 0
0 0 0
0 0 0
0 0 0
0 0 0
0 0 0
0 0 0
0 1 0
0 0 0
123 122 110
42 41 47
99 92 38
255 248 6
255 240 4
193 184 2
10 11 5
90 90 92
99 98 93
90 90 92
90 90 92
91 91 95
90 90 92
90 90 92
90 90 92
90 90 92
90 90 92
85 86 83
85 86 83
85 86 83
85 86 83
85 86 83
90 90 92
102 102 105
36 36 40
24 23 7
238 225 4
253 237 3
255 244 2
60 58 2
41 41 46
44 42 32
4 3 0
6 7 3
5 5 2
2 3 1
2 2 1
2 2 1
2 2 1
2 2 1
3 2 0
4 3 0
5 5 2
6 5 2
6 5 2
6 5 2
6 5 2
5 5 2
5 5 2
6 5 2
5 5 2
5 5 2
5 5 2
5 5 2
5 5 2
5 5 2
5 5 2
5 5 2
5 5 2
5 5 2
5 5 2
5 5 2
5 5 2
5 5 2
5 5 2
3 2 0
2 2 0
2 2 1
2 1 1
2 1 1
2 2 1
2 2 0
2 1 1
1 1 1
1 0 0
1 1 0
2 2 0
2 2 0
3 2 0
4 3 0
4 3 0
3 3 2
5 5 2
5 5 2
5 5 2
5 5 2
5 5 2
5 5 2
5 5 2
5 5 2
5 5 2
5 5 2
5 5 2
5 5 2
5 5 2
5 5 2
6 5 2
5 5 2
5 5 2
5 5 2
3 3 2
2 3 1
3 2 0
2 2 1
1 1 1
1 1 0
1 0 0
1 1 1
1 1 0
0 2 0
3 2 0
2 2 0
3 2 0
5 5 2
5 5 2
6 5 2
5 5 2
6 5 2
5 5 2
5 5 2
5 5 2
4 3 0
3 2 0
2 2 1
2 1 1
2 2 1
2 2 1
2 2 0
2 1 1
1 1 1
1 1 1
2 1 1
0 2 0
2 2 0
3 2 0
3 2 0
2 3 1
4 3 0
5 5 2
5 5 2
5 5 2
5 5 2
5 5 2
5 5 2
4 3 0
3 2 0
2 1 1
2 1 1
2 2 1
2 2 1
2 2 1
2 2 1
2 2 1
3 2 0
2 1 1
2 2 1
3 2 0
3 2 0
4 3 0
5 5 2
5 5 2
5 5 2
6 5 2
5 5 2
5 5 2
6 5 2
5 5 2
5 5 2
6 5 2
6 5 2
6 5 2
6 5 2
6 5 2
6 5 2
6 5 2
6 5 2
6 5 2
6 5 2
6 5 2
6 5 2
6 5 2
5 5 2
6 5 2
5 5 2
4 3 0
4 3 0
3 2 0
3 2 0
3 2 0
2 1 1
1 1 0
1 1 0
2 1 1
2 1 1
3 2 0
4 3 0
0 0 0
24 23 7
93 188 35
87 201 32
87 201 32
64 167 23
5 5 2
0 2 0
0 1 0
24 23 7
93 188 35
87 201 32
93 188 35
60 58 14
0 0 0
34 34 31
144 143 148
59 58 59
0 0 0
1 1 1
0 0 0
0 0 0
0 0 0
0 0 0
0 0 0
0 0 0
0 0 0
0 0 0
0 0 0
0 0 0
0 0 0
0 0 0
0 0 0
0 0 0
0 0 0
0 0 0
0 0 0
0 0 0
0 0 0
0 0 0
0 0 0
0 0 0
0 0 0
0 0 0
0 0 0
0 0 0
0 0 0
0 0 0
0 0 0
0 0 0
0 0 0
0 0 0
0 0 0
0 0 0
0 0 0
0 0 0
0 0 0
0 0 0
0 0 0
0 0 0
0 0 0
0 0 0
0 0 0
0 0 0
0 0 0
0 0 0
0 0 0
0 0 0
0 0 0
0 0 0
0 0 0
0 0 0
0 0 0
0 0 0
0 0 0
0 0 0
0 0 0
0 0 0
0 0 0
0 0 0
0 0 0
0 0 0
0 0 0
0 0 0
0 0 0
0 0 0
0 0 0
0 0 0
0 0 0
0 0 0
0 0 0
0 0 0
0 0 0
0 0 0
0 0 0
0 0 0
0 0 0
0 0 0
0 0 0
0 0 0
0 0 0
0 0 0
0 0 0
0 0 0
0 0 0
0 0 0
0 0 0
0 0 0
0 0 0
0 0 0
0 0 0
0 0 0
0 0 0
0 0 0
0 0 0
0 0 0
0 0 0
0 0 0
0 0 0
0 0 0
0 0 0
0 0 0
0 1 0
0 0 0
123 122 110
42 41 47
99 92 38
255 248 6
255 244 4
193 184 2
12 11 11
82 82 81
32 22 13
18 17 5
16 15 11
16 15 11
16 15 11
16 15 11
16 15 11
18 17 5
16 15 11
16 15 11
18 17 5
18 17 5
18 17 5
22 20 11
24 23 7
67 64 46
68 68 71
24 23 7
238 225 4
253 237 3
255 247 5
60 58 2
42 41 47
53 52 44
6 5 2
6 7 3
5 5 2
2 3 1
2 2 1
2 2 1
2 2 1
4 3 0
6 5 2
4 3 0
4 3 0
6 5 2
7 6 3
7 6 3
7 6 3
7 6 3
6 5 2
6 5 2
6 5 2
6 5 2
6 5 2
6 5 2
6 5 2
6 5 2
6 5 2
6 5 2
6 5 2
6 5 2
6 5 2
6 5 2
6 5 2
4 3 0
3 2 0
4 3 0
5 5 2
3 2 0
2 2 1
2 1 1
1 1 1
2 1 1
2 1 1
1 1 0
1 1 0
2 2 1
3 3 2
2 0 0
1 0 0
2 1 1
3 2 0
3 2 0
3 2 0
4 3 0
4 3 0
4 3 0
4 3 0
4 3 0
4 3 0
4 3 0
4 3 0
4 3 0
4 3 0
4 3 0
4 3 0
4 3 0
4 3 0
4 3 0
4 3 0
2 1 1
3 2 0
6 5 2
5 5 2
2 2 1
2 1 1
2 1 1
1 1 1
1 1 1
1 1 0
2 2 1
4 3 0
5 5 2
3 2 0
2 1 1
3 2 0
4 3 0
4 3 0
4 3 0
3 2 0
2 1 1
3 2 0
4 3 0
6 5 2
3 2 0
2 2 0
2 1 1
1 1 0
2 2 1
2 1 1
2 1 1
1 1 1
1 1 0
2 1 1
3 2 0
4 3 0
4 3 0
2 1 1
1 0 0
2 0 0
3 2 0
4 3 0
4 3 0
4 3 0
4 3 0
3 2 0
4 3 0
5 5 2
3 2 0
2 1 1
2 2 0
2 2 1
2 2 1
2 2 1
2 2 1
2 2 0
3 2 0
4 3 0
4 3 0
2 1 1
2 1 1
3 2 0
4 3 0
3 2 0
3 2 0
4 3 0
3 2 0
3 2 0
4 3 0
3 2 0
3 2 0
4 3 0
4 3 0
4 3 0
4 3 0
4 3 0
4 3 0
4 3 0
4 3 0
4 3 0
4 3 0
4 3 0
4 3 0
4 3 0
3 2 0
2 1 1
3 2 0
5 5 2
5 5 2
3 2 0
2 1 1
1 1 0
1 1 0
1 1 0
2 2 0
3 2 0
4 3 0
4 3 0
0 0 0
0 0 0
46 42 3
46 42 3
0 0 0
0 0 0
21 3 8
21 3 8
0 0 0
7 6 3
46 42 3
6 7 3
0 0 0
45 45 44
144 143 148
88 87 91
0 0 0
1 1 1
0 0 0
0 0 0
0 0 0
0 0 0
0 0 0
0 0 0
0 0 0
0 0 0
0 0 0
0 0 0
0 0 0
0 0 0
0 0 0
0 0 0
0 0 0
0 0 0
0 0 0
0 0 0
0 0 0
0 0 0
0 0 0
0 0 0
0 0 0
0 0 0
0 0 0
0 0 0
0 0 0
0 0 0
0 0 0
0 0 0
0 0 0
0 0 0
0 0 0
0 0 0
0 0 0
0 0 0
0 0 0
0 0 0
0 0 0
0 0 0
0 0 0
0 0 0
0 0 0
0 0 0
0 0 0
0 0 0
0 0 0
0 0 0
0 0 0
0 0 0
0 0 0
0 0 0
0 0 0
0 0 0
0 0 0
0 0 0
0 0 0
0 0 0
0 0 0
0 0 0
0 0 0
0 0 0
0 0 0
0 0 0
0 0 0
0 0 0
0 0 0
0 0 0
0 0 0
0 0 0
0 0 0
0 0 0
0 0 0
0 0 0
0 0 0
0 0 0
0 0 0
0 0 0
0 0 0
0 0 0
0 0 0
0 0 0
0 0 0
0 0 0
0 0 0
0 0 0
0 0 0
0 0 0
0 0 0
0 0 0
0 0 0
0 0 0
0 0 0
0 0 0
0 0 0
0 0 0
0 0 0
0 0 0
0 0 0
0 0 0
0 0 0
0 0 0
0 0 0
0 0 0
0 0 0
123 122 110
42 41 47
99 92 38
255 248 6
255 244 4
193 184 2
15 13 11
82 82 81
22 20 11
10 9 4
10 9 4
10 11 5
10 9 4
10 11 5
10 11 5
10 11 5
10 11 5
10 11 5
10 11 5
10 11 5
10 11 5
18 17 5
18 17 5
40 37 22
68 68 71
24 23 7
238 225 4
253 237 3
255 248 6
60 58 2
45 45 50
53 52 44
6 5 2
6 7 3
5 5 2
4 3 0
2 3 1
2 3 1
5 5 2
4 3 0
4 3 0
25 25 16
38 38 35
37 37 37
33 33 38
37 37 37
37 37 37
37 37 37
37 37 37
37 37 37
37 37 37
37 37 37
36 36 40
37 37 37
37 37 37
37 37 37
33 33 38
37 37 37
37 37 37
36 36 40
37 37 37
37 37 37
37 37 37
40 40 37
34 34 31
18 17 5
2 2 0
6 5 2
4 3 0
2 2 0
2 1 1
2 1 1
2 2 1
3 2 0
4 3 0
2 1 1
0 0 0
22 20 11
34 34 31
38 38 35
34 34 31
38 38 35
38 38 35
38 38 35
38 38 35
38 38 35
38 38 35
38 38 35
38 38 35
38 38 35
38 38 35
38 38 35
38 38 35
38 38 35
40 40 37
38 38 35
38 38 35
38 38 35
34 34 31
34 34 31
25 25 16
6 5 2
4 3 0
6 5 2
3 2 0
2 1 1
2 2 1
2 2 1
3 2 0
4 3 0
4 3 0
4 3 0
25 25 16
34 34 31
38 38 35
38 38 35
40 40 37
40 40 37
38 38 35
34 34 31
27 27 24
18 17 5
2 2 0
6 5 2
4 3 0
3 2 0
1 1 1
1 1 1
2 1 1
1 1 1
2 1 1
2 1 1
2 2 0
6 5 2
3 2 0
3 2 0
25 25 16
38 38 35
38 38 35
38 38 35
38 38 35
38 38 35
34 34 31
34 34 31
32 31 22
16 15 11
2 1 1
6 5 2
4 3 0
2 1 1
2 2 1
1 1 0
1 1 1
2 2 1
3 2 0
6 5 2
3 2 0
6 5 2
25 25 16
34 34 31
38 38 35
38 38 35
40 40 37
38 38 35
38 38 35
38 38 35
38 38 35
40 40 37
38 38 35
38 38 35
38 38 35
40 40 37
40 40 37
40 40 37
40 40 37
38 38 35
38 38 35
38 38 35
40 40 37
40 40 37
38 38 35
38 38 35
40 40 37
40 40 37
38 38 35
25 25 16
6 5 2
3 2 0
6 5 2
3 2 0
1 1 0
1 1 0
1 1 0
2 1 1
3 2 0
4 3 0
4 3 0
0 2 0
56 0 15
210 2 67
90 1 28
51 1 16
169 0 49
211 3 68
211 3 68
125 1 38
21 3 8
169 0 49
125 1 38
10 0 2
37 37 37
149 150 146
45 45 44
1 1 1
2 2 2
0 0 0
0 0 0
0 0 0
0 0 0
0 0 0
0 0 0
0 0 0
0 0 0
0 0 0
0 0 0
0 0 0
0 0 0
0 0 0
0 0 0
0 0 0
0 0 0
0 0 0
0 0 0
0 0 0
0 0 0
0 0 0
0 0 0
0 0 0
0 0 0
0 0 0
0 0 0
0 0 0
0 0 0
0 0 0
0 0 0
0 0 0
0 0 0
0 0 0
0 0 0
0 0 0
0 0 0
0 0 0
0 0 0
0 0 0
0 0 0
0 0 0
0 0 0
0 0 0
0 0 0
0 0 0
0 0 0
0 0 0
0 0 0
0 0 0
0 0 0
0 0 0
0 0 0
0 0 0
0 0 0
0 0 0
0 0 0
0 0 0
0 0 0
0 0 0
0 0 0
0 0 0
0 0 0
0 0 0
0 0 0
0 0 0
0 0 0
0 0 0
0 0 0
0 0 0
0 0 0
0 0 0
0 0 0
0 0 0
0 0 0
0 0 0
0 0 0
0 0 0
0 0 0
0 0 0
0 0 0
0 0 0
0 0 0
0 0 0
0 0 0
0 0 0
0 0 0
0 0 0
0 0 0
0 0 0
0 0 0
0 0 0
0 0 0
0 0 0
0 0 0
0 0 0
0 0 0
0 0 0
0 0 0
0 0 0
0 0 0
0 0 0
0 0 0
0 0 0
0 0 0
0 0 0
123 122 110
42 41 47
99 92 38
255 248 6
255 244 4
193 184 2
15 13 11
82 82 81
22 20 11
10 9 4
10 11 5
10 11 5
10 11 5
10 11 5
10 11 5
10 11 5
10 11 5
10 11 5
10 11 5
10 11 5
18 17 5
18 17 5
18 17 5
44 42 32
68 68 71
24 23 7
238 225 4
253 237 3
255 248 6
60 58 2
45 45 50
53 52 44
6 5 2
6 7 3
5 5 2
4 3 0
4 3 0
6 5 2
5 5 2
15 13 11
52 57 52
41 41 46
20 21 23
32 31 22
40 37 22
40 37 22
40 37 22
40 37 22
40 37 22
40 37 22
40 37 22
40 37 22
40 37 22
40 37 22
40 37 22
40 37 22
40 37 22
40 37 22
40 37 22
40 37 22
40 37 22
40 37 22
40 37 22
32 31 22
33 33 38
54 54 58
44 42 32
6 5 2
5 5 2
4 3 0
3 2 0
3 2 0
3 2 0
5 5 2
1 1 0
15 13 11
48 48 50
42 41 47
28 31 34
28 28 27
28 28 27
27 27 24
28 28 27
28 28 27
28 28 27
28 28 27
28 28 27
27 27 24
28 28 27
27 27 24
27 27 24
27 27 24
27 27 24
28 28 27
28 28 27
28 28 27
27 27 24
23 23 23
27 27 24
33 33 38
45 45 50
54 54 58
22 20 11
1 0 0
6 5 2
4 3 0
4 3 0
4 3 0
6 5 2
2 2 0
10 11 5
52 57 52
51 51 55
33 33 38
28 28 27
24 24 28
26 26 29
26 26 29
28 31 34
26 26 29
28 31 34
54 54 58
40 40 37
4 3 0
6 5 2
5 5 2
2 3 1
2 2 1
1 1 1
2 1 1
2 3 1
3 2 0
6 5 2
2 2 0
16 15 11
51 51 55
41 41 46
26 26 29
28 28 27
28 28 27
24 24 28
24 24 28
24 24 28
24 24 28
34 35 40
54 54 58
45 45 44
6 5 2
5 5 2
4 3 0
3 2 0
2 2 1
2 2 0
3 2 0
6 5 2
1 1 0
27 27 24
59 58 59
41 41 46
26 26 29
27 27 24
26 26 29
28 28 27
28 28 27
28 28 27
27 27 24
28 28 27
28 28 27
28 28 27
26 26 29
28 28 27
28 28 27
28 28 27
28 28 27
28 28 27
26 26 29
28 28 27
28 28 27
28 28 27
28 28 27
27 27 24
28 28 27
28 28 27
28 28 27
28 31 34
42 41 47
52 57 52
25 25 16
1 0 0
5 5 2
3 2 0
2 1 1
2 0 0
2 1 1
3 2 0
10 0 2
0 0 0
56 0 15
248 3 80
208 7 67
51 1 16
210 2 67
247 2 78
227 2 72
227 2 72
248 3 80
125 1 38
89 6 27
248 3 80
169 0 49
0 0 0
91 91 95
102 102 105
0 0 0
2 2 2
0 0 0
0 0 0
0 0 0
0 0 0
0 0 0
0 0 0
0 0 0
0 0 0
0 0 0
0 0 0
0 0 0
0 0 0
0 0 0
0 0 0
0 0 0
0 0 0
0 0 0
0 0 0
0 0 0
0 0 0
0 0 0
0 0 0
0 0 0
0 0 0
0 0 0
0 0 0
0 0 0
0 0 0
0 0 0
0 0 0
0 0 0
0 0 0
0 0 0
0 0 0
0 0 0
0 0 0
0 0 0
0 0 0
0 0 0
0 0 0
0 0 0
0 0 0
0 0 0
0 0 0
0 0 0
0 0 0
0 0 0
0 0 0
0 0 0
0 0 0
0 0 0
0 0 0
0 0 0
0 0 0
0 0 0
0 0 0
0 0 0
0 0 0
0 0 0
0 0 0
0 0 0
0 0 0
0 0 0
0 0 0
0 0 0
0 0 0
0 0 0
0 0 0
0 0 0
0 0 0
0 0 0
0 0 0
0 0 0
0 0 0
0 0 0
0 0 0
0 0 0
0 0 0
0 0 0
0 0 0
0 0 0
0 0 0
0 0 0
0 0 0
0 0 0
0 0 0
0 0 0
0 0 0
0 0 0
0 0 0
0 0 0
0 0 0
0 0 0
0 0 0
0 0 0
0 0 0
0 0 0
0 0 0
0 0 0
0 0 0
0 0 0
0 0 0
0 0 0
0 0 0
0 0 0
123 122 110
42 41 47
99 92 38
255 248 6
255 244 4
193 184 2
15 13 11
82 82 81
22 20 11
10 9 4
10 11 5
10 11 5
18 17 5
18 17 5
18 17 5
18 17 5
10 11 5
10 11 5
10 11 5
18 17 5
18 17 5
18 17 5
18 17 5
44 42 32
68 68 71
24 23 7
238 225 4
253 237 3
255 248 6
60 58 2
45 45 50
53 52 44
4 3 0
6 7 3
5 5 2
4 3 0
6 5 2
6 5 2
22 20 11
59 64 62
24 24 28
60 58 2
184 170 1
224 210 0
224 210 0
224 210 0
224 210 0
224 210 0
224 210 0
224 210 0
224 210 0
224 210 0
224 210 0
224 210 0
224 210 0
224 210 0
224 210 0
224 210 0
224 210 0
224 210 0
238 225 4
224 210 0
224 210 0
216 202 3
161 149 0
46 42 3
34 35 40
45 45 44
5 5 2
6 5 2
5 5 2
4 3 0
6 5 2
4 3 0
25 25 16
59 58 59
20 21 23
60 58 2
161 149 0
193 184 2
210 195 0
210 195 0
210 195 0
210 195 0
210 195 0
210 195 0
210 195 0
210 195 0
210 195 0
210 195 0
210 195 0
210 195 0
210 195 0
210 195 0
210 195 0
210 195 0
210 195 0
210 195 0
210 195 0
184 170 1
99 92 38
19 18 19
54 54 58
38 38 35
6 5 2
7 6 3
4 3 0
6 5 2
7 6 3
22 20 11
68 68 71
26 26 29
60 58 2
161 149 0
193 184 2
193 184 2
193 184 2
193 184 2
193 184 2
193 184 2
161 149 0
32 22 13
44 44 49
52 57 52
4 3 0
6 5 2
2 3 1
3 2 0
2 1 1
2 1 1
2 3 1
5 5 2
3 2 0
20 20 18
59 64 62
20 21 23
60 58 2
161 149 0
193 184 2
193 184 2
193 184 2
193 184 2
193 184 2
193 184 2
161 149 0
46 42 3
34 35 40
53 52 44
6 5 2
6 5 2
6 5 2
4 3 0
4 3 0
7 6 3
3 2 0
34 34 31
51 51 55
20 20 18
99 92 38
184 170 1
210 195 0
210 195 0
210 195 0
210 195 0
210 195 0
210 195 0
210 195 0
210 195 0
210 195 0
210 195 0
210 195 0
210 195 0
210 195 0
210 195 0
210 195 0
210 195 0
210 195 0
210 195 0
210 195 0
210 195 0
210 195 0
210 195 0
210 195 0
193 184 2
161 149 0
99 92 38
20 20 18
51 51 55
40 40 37
2 1 1
6 5 2
4 3 0
2 0 0
3 2 0
2 0 0
10 8 10
2 1 1
125 5 39
169 0 49
10 0 2
90 1 28
246 4 78
227 2 72
227 2 72
227 2 72
229 3 74
227 2 72
21 3 8
56 0 15
169 0 49
10 0 2
51 51 55
144 143 148
20 20 18
0 0 0
1 1 1
0 0 0
0 0 0
0 0 0
0 0 0
0 0 0
0 0 0
0 0 0
0 0 0
0 0 0
0 0 0
0 0 0
0 0 0
0 0 0
0 0 0
0 0 0
0 0 0
0 0 0
0 0 0
0 0 0
0 0 0
0 0 0
0 0 0
0 0 0
0 0 0
0 0 0
0 0 0
0 0 0
0 0 0
0 0 0
0 0 0
0 0 0
0 0 0
0 0 0
0 0 0
0 0 0
0 0 0
0 0 0
0 0 0
0 0 0
0 0 0
0 0 0
0 0 0
0 0 0
0 0 0
0 0 0
0 0 0
0 0 0
0 0 0
0 0 0
0 0 0
0 0 0
0 0 0
0 0 0
0 0 0
0 0 0
0 0 0
0 0 0
0 0 0
0 0 0
0 0 0
0 0 0
0 0 0
0 0 0
0 0 0
0 0 0
0 0 0
0 0 0
0 0 0
0 0 0
0 0 0
0 0 0
0 0 0
0 0 0
0 0 0
0 0 0
0 0 0
0 0 0
0 0 0
0 0 0
0 0 0
0 0 0
0 0 0
0 0 0
0 0 0
0 0 0
0 0 0
0 0 0
0 0 0
0 0 0
0 0 0
0 0 0
0 0 0
0 0 0
0 0 0
0 0 0
0 0 0
0 0 0
0 0 0
0 0 0
0 0 0
0 0 0
0 0 0
0 0 0
0 0 0
123 122 110
42 41 47
99 92 38
255 248 6
255 244 4
193 184 2
15 13 11
82 82 81
24 23 7
10 9 4
10 11 5
18 17 5
18 17 5
18 17 5
18 17 5
18 17 5
18 17 5
18 17 5
18 17 5
18 17 5
18 17 5
24 23 7
18 17 5
44 42 32
68 68 71
24 23 7
238 225 4
253 237 3
255 250 4
60 58 2
45 45 50
53 52 44
6 5 2
10 9 4
6 5 2
6 5 2
6 7 3
10 9 4
68 68 71
20 21 23
161 149 0
255 248 6
255 244 4
253 237 3
254 238 2
254 238 2
254 238 2
255 239 3
255 239 3
255 239 3
254 238 2
254 238 2
255 239 3
254 238 2
255 239 3
255 239 3
255 239 3
254 238 2
255 239 3
254 238 2
255 240 4
255 240 4
255 240 4
255 239 3
255 250 4
239 226 2
60 58 2
28 31 34
45 45 44
6 5 2
10 9 4
6 7 3
6 5 2
16 15 11
68 68 71
20 20 18
161 149 0
255 248 6
255 244 2
254 238 2
254 238 2
255 239 3
254 238 2
254 238 2
255 240 2
255 240 4
255 240 4
255 240 4
255 240 4
255 240 4
255 240 4
255 240 4
255 240 4
255 239 3
254 238 2
254 238 2
255 240 4
255 244 4
255 240 4
255 244 4
255 250 4
184 170 1
32 22 13
76 77 81
32 31 22
4 3 0
6 5 2
5 5 2
10 9 4
71 72 76
28 31 34
161 149 0
255 244 2
255 244 2
255 240 4
255 244 4
255 240 4
255 240 2
255 240 4
255 244 4
255 250 4
224 210 0
46 42 3
54 54 58
45 45 44
2 1 1
6 5 2
4 3 0
2 3 1
2 3 1
5 5 2
4 3 0
10 11 5
68 68 71
20 20 18
161 149 0
255 250 4
255 248 6
255 240 2
255 240 2
255 239 3
255 240 2
255 244 2
255 244 4
255 250 4
239 226 2
60 58 2
28 31 34
53 52 44
4 3 0
6 7 3
6 5 2
10 9 4
6 5 2
34 34 31
54 54 58
24 23 7
193 184 2
255 250 4
255 244 4
255 240 4
255 240 4
255 240 4
255 240 2
255 240 2
255 239 3
255 239 3
255 240 2
255 240 4
255 240 2
255 240 2
255 240 2
255 239 3
255 239 3
255 240 4
255 240 2
255 240 4
255 240 4
255 240 4
255 240 4
255 240 4
255 240 4
255 239 3
255 239 3
255 244 4
255 250 4
193 184 2
24 23 7
51 51 55
38 38 35
4 3 0
7 6 3
7 2 3
2 0 0
17 16 16
28 28 27
0 1 0
21 3 8
0 0 0
0 0 0
90 1 28
235 2 74
227 2 72
227 2 72
227 2 72
227 2 72
227 2 72
51 1 16
0 0 0
21 3 8
10 0 2
6 15 11
124 124 125
124 124 125
3 3 2
1 1 1
0 0 0
0 0 0
0 0 0
0 0 0
0 0 0
0 0 0
0 0 0
0 0 0
0 0 0
0 0 0
0 0 0
0 0 0
0 0 0
0 0 0
0 0 0
0 0 0
0 0 0
0 0 0
0 0 0
0 0 0
0 0 0
0 0 0
0 0 0
0 0 0
0 0 0
0 0 0
0 0 0
0 0 0
0 0 0
0 0 0
0 0 0
0 0 0
0 0 0
0 0 0
0 0 0
0 0 0
0 0 0
0 0 0
0 0 0
0 0 0
0 0 0
0 0 0
0 0 0
0 0 0
0 0 0
0 0 0
0 0 0
0 0 0
0 0 0
0 0 0
0 0 0
0 0 0
0 0 0
0 0 0
0 0 0
0 0 0
0 0 0
0 0 0
0 0 0
0 0 0
0 0 0
0 0 0
0 0 0
0 0 0
0 0 0
0 0 0
0 0 0
0 0 0
0 0 0
0 0 0
0 0 0
0 0 0
0 0 0
0 0 0
0 0 0
0 0 0
0 0 0
0 0 0
0 0 0
0 0 0
0 0 0
0 0 0
0 0 0
0 0 0
0 0 0
0 0 0
0 0 0
0 0 0
0 0 0
0 0 0
0 0 0
0 0 0
0 0 0
0 0 0
0 0 0
0 0 0
0 0 0
0 0 0
0 0 0
0 0 0
0 0 0
0 0 0
0 0 0
0 0 0
123 122 110
41 41 46
99 92 38
255 248 6
255 240 4
193 184 2
12 11 11
82 82 81
22 20 11
6 7 3
10 9 4
18 17 5
18 17 5
18 17 5
18 17 5
18 17 5
18 17 5
18 17 5
18 17 5
18 17 5
18 17 5
18 17 5
18 17 5
60 58 14
59 58 59
46 42 3
253 229 3
253 237 3
255 240 4
46 42 3
42 41 47
53 52 44
6 5 2
10 9 4
6 7 3
6 7 3
4 3 0
45 45 44
41 41 46
99 92 38
255 252 2
253 229 3
255 239 3
255 244 4
253 237 3
254 238 2
254 238 2
255 240 4
255 239 3
254 238 2
253 237 3
254 238 2
254 238 2
253 237 3
254 238 2
254 238 2
253 237 3
253 237 3
254 238 2
254 238 2
254 238 2
254 238 2
255 239 3
255 244 2
253 229 3
255 240 2
238 225 4
46 42 3
54 54 58
32 31 22
10 9 4
10 9 4
1 1 0
48 48 50
16 17 21
161 149 0
255 248 6
253 229 3
255 240 4
255 250 4
255 250 4
255 247 5
255 247 5
255 246 2
255 246 2
255 247 5
255 247 5
255 247 5
255 248 6
255 247 5
255 247 5
255 247 5
255 247 5
255 247 5
255 247 5
255 247 5
255 247 5
255 247 5
255 250 4
255 240 2
239 226 2
255 248 6
184 170 1
24 24 28
68 68 71
2 3 1
6 7 3
0 0 0
38 38 35
45 45 50
60 58 2
255 248 6
253 237 3
253 237 3
255 247 5
255 248 6
255 248 6
255 250 4
255 246 2
255 246 2
253 229 3
255 246 2
216 202 3
24 23 7
68 68 71
18 17 5
6 5 2
5 5 2
5 5 2
5 5 2
7 6 3
1 0 0
45 45 44
34 35 40
119 114 45
255 250 4
253 229 3
255 240 4
255 248 6
255 246 2
255 250 4
255 247 5
255 248 6
255 246 2
253 229 3
255 239 3
255 244 4
60 58 2
51 51 55
25 25 16
4 3 0
6 7 3
5 5 2
10 9 4
59 64 62
25 25 16
193 184 2
255 250 4
239 226 2
255 240 2
255 246 2
255 247 5
255 250 4
255 250 4
255 247 5
255 247 5
255 246 2
255 246 2
255 250 4
255 250 4
255 246 2
255 247 5
255 246 2
255 247 5
255 247 5
255 247 5
255 247 5
255 248 6
255 247 5
255 247 5
255 247 5
255 247 5
255 247 5
255 244 2
255 240 2
239 226 2
255 250 4
210 195 0
18 17 5
68 68 71
25 25 16
10 9 4
10 9 4
10 9 4
39 39 41
2 4 2
90 1 28
210 2 67
90 1 28
1 0 0
51 1 16
235 2 74
227 2 72
227 2 72
227 2 72
235 2 74
227 2 72
21 3 8
10 0 2
169 0 49
208 7 67
21 3 8
20 21 23
144 143 148
44 42 44
0 0 0
2 2 2
0 0 0
0 0 0
0 0 0
0 0 0
0 0 0
0 0 0
0 0 0
0 0 0
0 0 0
0 0 0
0 0 0
0 0 0
0 0 0
0 0 0
0 0 0
0 0 0
0 0 0
0 0 0
0 0 0
0 0 0
0 0 0
0 0 0
0 0 0
0 0 0
0 0 0
0 0 0
0 0 0
0 0 0
0 0 0
0 0 0
0 0 0
0 0 0
0 0 0
0 0 0
0 0 0
0 0 0
0 0 0
0 0 0
0 0 0
0 0 0
0 0 0
0 0 0
0 0 0
0 0 0
0 0 0
0 0 0
0 0 0
0 0 0
0 0 0
0 0 0
0 0 0
0 0 0
0 0 0
0 0 0
0 0 0
0 0 0
0 0 0
0 0 0
0 0 0
0 0 0
0 0 0
0 0 0
0 0 0
0 0 0
0 0 0
0 0 0
0 0 0
0 0 0
0 0 0
0 0 0
0 0 0
0 0 0
0 0 0
0 0 0
0 0 0
0 0 0
0 0 0
0 0 0
0 0 0
0 0 0
0 0 0
0 0 0
0 0 0
0 0 0
0 0 0
0 0 0
0 0 0
0 0 0
0 0 0
0 0 0
0 0 0
0 0 0
0 0 0
0 0 0
0 0 0
0 0 0
0 0 0
0 0 0
0 0 0
0 0 0
0 0 0
0 0 0
0 0 0
127 128 122
41 41 46
99 92 38
255 248 6
255 240 4
193 184 2
15 13 11
85 86 83
46 42 3
40 37 22
67 64 46
67 64 46
67 64 46
67 64 46
67 64 46
53 52 44
53 52 44
53 52 44
53 52 44
67 64 46
67 64 46
67 64 46
67 64 46
74 74 77
10 10 12
161 149 0
255 244 2
254 238 2
224 210 0
18 17 5
54 54 58
53 52 44
7 6 3
10 11 5
10 9 4
10 9 4
10 9 4
59 58 59
25 25 16
216 202 3
253 237 3
255 240 4
224 210 0
99 92 38
60 58 2
60 58 2
60 58 2
60 58 2
60 58 2
60 58 2
60 58 2
60 58 2
60 58 2
60 58 2
60 58 2
60 58 2
60 58 2
60 58 2
60 58 2
60 58 2
60 58 2
60 58 2
60 58 2
161 149 0
253 229 3
253 229 3
255 250 4
161 149 0
24 24 28
53 60 47
10 9 4
10 11 5
22 20 11
51 51 55
46 42 3
253 237 3
253 229 3
255 244 4
216 202 3
119 114 45
99 92 38
99 92 38
99 92 38
99 92 38
99 92 38
99 92 38
99 92 38
99 92 38
99 92 38
99 92 38
99 92 38
99 92 38
99 92 38
99 92 38
99 92 38
99 92 38
99 92 38
99 92 38
99 92 38
210 195 0
255 248 6
253 229 3
255 247 5
60 58 2
45 45 50
32 31 22
10 9 4
10 9 4
59 58 59
16 17 21
193 184 2
255 244 4
253 237 3
224 210 0
119 114 45
99 92 38
107 102 43
99 92 38
99 92 38
161 149 0
254 238 2
253 229 3
255 250 4
99 92 38
41 41 46
44 42 32
4 3 0
7 6 3
5 5 2
6 5 2
6 7 3
10 9 4
59 58 59
32 22 13
224 210 0
253 237 3
255 244 4
224 210 0
119 114 45
99 92 38
99 92 38
99 92 38
99 92 38
161 149 0
239 226 2
253 237 3
255 248 6
161 149 0
24 24 28
53 52 44
4 3 0
10 11 5
3 2 0
34 34 31
34 35 40
99 92 38
255 248 6
253 229 3
255 246 2
193 184 2
99 92 38
99 92 38
99 92 38
99 92 38
99 92 38
99 92 38
99 92 38
99 92 38
99 92 38
99 92 38
99 92 38
99 92 38
99 92 38
99 92 38
99 92 38
99 92 38
99 92 38
99 92 38
99 92 38
99 92 38
99 92 38
99 92 38
99 92 38
99 92 38
184 170 1
254 238 2
239 226 2
255 250 4
161 149 0
33 33 38
68 68 71
18 17 5
10 9 4
32 31 22
26 26 29
51 1 16
227 2 72
235 2 74
169 0 49
0 0 0
0 0 0
125 1 38
247 2 78
247 2 78
247 2 78
235 2 74
90 1 28
0 0 0
51 1 16
227 2 72
246 4 78
162 2 52
0 0 0
113 112 110
90 90 92
0 0 0
2 2 2
0 0 0
0 0 0
0 0 0
0 0 0
0 0 0
0 0 0
0 0 0
0 0 0
0 0 0
0 0 0
0 0 0
0 0 0
0 0 0
0 0 0
0 0 0
0 0 0
0 0 0
0 0 0
0 0 0
0 0 0
0 0 0
0 0 0
0 0 0
0 0 0
0 0 0
0 0 0
0 0 0
0 0 0
0 0 0
0 0 0
0 0 0
0 0 0
0 0 0
0 0 0
0 0 0
0 0 0
0 0 0
0 0 0
0 0 0
0 0 0
0 0 0
0 0 0
0 0 0
0 0 0
0 0 0
0 0 0
0 0 0
0 0 0
0 0 0
0 0 0
0 0 0
0 0 0
0 0 0
0 0 0
0 0 0
0 0 0
0 0 0
0 0 0
0 0 0
0 0 0
0 0 0
0 0 0
0 0 0
0 0 0
0 0 0
0 0 0
0 0 0
0 0 0
0 0 0
0 0 0
0 0 0
0 0 0
0 0 0
0 0 0
0 0 0
0 0 0
0 0 0
0 0 0
0 0 0
0 0 0
0 0 0
0 0 0
0 0 0
0 0 0
0 0 0
0 0 0
0 0 0
0 0 0
0 0 0
0 0 0
0 0 0
0 0 0
0 0 0
0 0 0
0 0 0
0 0 0
0 0 0
0 0 0
0 0 0
0 0 0
0 0 0
0 0 0
0 0 0
127 128 122
42 41 47
99 92 38
255 248 6
255 240 4
193 184 2
15 13 11
91 90 77
89 86 60
68 68 71
36 36 40
34 34 31
32 32 35
28 31 34
28 31 34
28 31 34
28 31 34
28 31 34
28 31 34
28 31 34
28 31 34
28 28 27
34 34 31
25 25 16
119 114 45
255 240 4
253 229 3
255 248 6
161 149 0
0 0 0
71 72 76
44 42 32
7 6 3
10 11 5
10 9 4
7 6 3
25 25 16
51 51 55
60 58 2
255 244 4
253 237 3
253 237 3
60 58 2
0 0 0
0 0 0
0 0 0
0 0 0
0 0 0
0 0 0
0 0 0
0 0 0
0 0 0
0 0 0
0 0 0
0 0 0
0 0 0
0 0 0
0 0 0
0 0 0
0 0 0
0 0 0
0 0 0
0 0 0
0 0 1
119 114 45
255 248 6
253 237 3
224 210 0
25 25 16
59 58 59
18 17 5
18 17 5
53 52 44
41 41 46
119 114 45
255 247 5
253 237 3
224 210 0
24 23 7
0 0 1
0 0 0
0 0 0
0 0 0
0 0 0
0 0 0
0 0 0
0 0 0
0 0 0
0 0 0
0 0 0
0 0 0
0 0 0
0 0 0
0 0 0
0 0 0
0 0 0
0 0 0
0 0 0
0 0 1
18 17 5
193 184 2
253 237 3
255 244 2
161 149 0
33 33 38
62 61 53
18 17 5
32 22 13
59 64 62
32 22 13
224 210 0
253 229 3
253 237 3
60 58 2
0 0 0
0 0 0
0 0 0
0 0 0
0 0 0
0 0 1
161 149 0
255 244 4
255 248 6
161 149 0
26 26 29
52 57 52
4 3 0
10 9 4
6 5 2
7 6 3
6 5 2
25 25 16
54 54 58
60 58 2
255 239 3
253 237 3
239 226 2
46 42 3
0 0 0
0 0 0
0 0 1
0 0 0
0 0 0
0 0 1
99 92 38
255 244 4
255 239 3
216 202 3
25 25 16
59 58 59
10 11 5
18 17 5
10 9 4
52 57 52
24 24 28
161 149 0
255 244 4
255 244 4
193 184 2
6 7 3
0 0 1
0 0 0
0 0 0
0 0 0
0 0 0
0 0 0
0 0 0
0 0 0
0 0 0
0 0 0
0 0 0
0 0 0
0 0 0
0 0 0
0 0 0
0 0 0
0 0 0
0 0 0
0 0 0
0 0 0
0 0 0
0 0 0
0 0 0
0 0 0
2 1 1
161 149 0
255 248 6
255 240 4
238 225 4
24 23 7
68 68 71
24 23 7
7 6 3
48 48 50
20 21 23
90 1 28
235 2 74
229 3 74
208 7 67
1 0 0
0 0 0
0 1 0
51 1 16
90 1 28
125 1 38
51 1 16
2 1 1
1 0 0
56 0 15
227 2 72
227 2 72
208 7 67
2 1 1
94 95 98
113 112 110
0 0 0
2 2 2
0 0 0
0 0 0
0 0 0
0 0 0
0 0 0
0 0 0
0 0 0
0 0 0
0 0 0
0 0 0
0 0 0
0 0 0
0 0 0
0 0 0
0 0 0
0 0 0
0 0 0
0 0 0
0 0 0
0 0 0
0 0 0
0 0 0
0 0 0
0 0 0
0 0 0
0 0 0
0 0 0
0 0 0
0 0 0
0 0 0
0 0 0
0 0 0
0 0 0
0 0 0
0 0 0
0 0 0
0 0 0
0 0 0
0 0 0
0 0 0
0 0 0
0 0 0
0 0 0
0 0 0
0 0 0
0 0 0
0 0 0
0 0 0
0 0 0
0 0 0
0 0 0
0 0 0
0 0 0
0 0 0
0 0 0
0 0 0
0 0 0
0 0 0
0 0 0
0 0 0
0 0 0
0 0 0
0 0 0
0 0 0
0 0 0
0 0 0
0 0 0
0 0 0
0 0 0
0 0 0
0 0 0
0 0 0
0 0 0
0 0 0
0 0 0
0 0 0
0 0 0
0 0 0
0 0 0
0 0 0
0 0 0
0 0 0
0 0 0
0 0 0
0 0 0
0 0 0
0 0 0
0 0 0
0 0 0
0 0 0
0 0 0
0 0 0
0 0 0
0 0 0
0 0 0
0 0 0
0 0 0
0 0 0
0 0 0
0 0 0
0 0 0
0 0 0
0 0 0
127 128 122
42 41 47
99 92 38
255 248 6
255 240 2
193 184 2
9 9 9
99 98 93
59 64 62
24 23 7
161 149 0
184 170 1
184 170 1
184 170 1
184 170 1
184 170 1
184 170 1
184 170 1
184 170 1
184 170 1
184 170 1
184 170 1
184 170 1
224 210 0
255 247 5
253 229 3
255 247 5
224 210 0
24 23 7
6 5 6
82 82 81
25 25 16
10 9 4
10 11 5
10 11 5
10 9 4
44 42 32
42 41 47
60 58 2
255 244 4
255 244 4
210 195 0
4 3 0
3 2 0
15 13 11
15 15 14
15 15 14
15 15 14
13 13 13
13 13 13
15 13 11
13 13 13
15 15 14
15 15 14
15 15 14
16 14 12
13 13 13
16 14 12
15 15 14
13 13 13
13 13 13
16 14 12
15 13 11
0 0 0
46 42 3
239 226 2
255 239 3
238 225 4
24 23 7
54 54 58
32 22 13
10 9 4
53 60 47
26 26 29
161 149 0
255 244 2
255 246 2
161 149 0
0 0 1
6 5 2
6 5 2
5 5 2
6 5 2
6 5 2
6 5 2
6 5 2
5 5 2
6 5 2
6 5 2
6 5 2
7 6 3
7 6 3
7 6 3
6 5 2
7 6 3
7 6 3
7 6 3
7 6 3
6 5 2
0 0 0
99 92 38
255 240 2
255 240 4
184 170 1
24 24 28
59 64 62
18 17 5
32 31 22
54 54 58
46 42 3
238 225 4
253 237 3
238 225 4
24 23 7
0 0 0
6 5 2
6 5 2
10 9 4
6 7 3
0 0 0
107 102 43
255 247 5
255 244 4
161 149 0
16 17 21
62 61 53
10 9 4
10 9 4
7 6 3
10 9 4
5 5 2
32 31 22
51 51 55
60 58 2
255 239 3
254 238 2
216 202 3
7 6 3
1 1 0
6 7 3
10 9 4
10 9 4
6 5 2
0 0 0
46 42 3
238 225 4
255 239 3
238 225 4
24 23 7
59 58 59
25 25 16
18 17 5
18 17 5
62 61 53
17 16 17
193 184 2
254 238 2
255 244 2
99 92 38
0 0 0
10 9 4
7 6 3
6 5 2
5 5 2
6 5 2
7 6 3
6 5 2
5 5 2
6 5 2
6 5 2
7 6 3
6 5 2
6 5 2
7 6 3
7 6 3
6 5 2
6 5 2
6 5 2
6 5 2
6 5 2
6 5 2
7 6 3
10 9 4
6 5 2
0 0 0
46 42 3
238 225 4
253 237 3
254 238 2
60 58 2
59 58 59
44 42 32
10 0 2
68 68 71
28 31 34
56 0 15
246 4 78
248 3 80
162 2 52
0 1 0
56 0 15
169 0 49
162 2 52
90 1 28
0 0 0
0 0 0
7 2 3
3 2 0
21 3 8
227 2 72
247 2 78
169 0 49
0 0 0
102 102 105
102 102 105
0 0 0
2 2 2
0 0 0
0 0 0
0 0 0
0 0 0
0 0 0
0 0 0
0 0 0
0 0 0
0 0 0
0 0 0
0 0 0
0 0 0
0 0 0
0 0 0
0 0 0
0 0 0
0 0 0
0 0 0
0 0 0
0 0 0
0 0 0
0 0 0
0 0 0
0 0 0
0 0 0
0 0 0
0 0 0
0 0 0
0 0 0
0 0 0
0 0 0
0 0 0
0 0 0
0 0 0
0 0 0
0 0 0
0 0 0
0 0 0
0 0 0
0 0 0
0 0 0
0 0 0
0 0 0
0 0 0
0 0 0
0 0 0
0 0 0
0 0 0
0 0 0
0 0 0
0 0 0
0 0 0
0 0 0
0 0 0
0 0 0
0 0 0
0 0 0
0 0 0
0 0 0
0 0 0
0 0 0
0 0 0
0 0 0
0 0 0
0 0 0
0 0 0
0 0 0
0 0 0
0 0 0
0 0 0
0 0 0
0 0 0
0 0 0
0 0 0
0 0 0
0 0 0
0 0 0
0 0 0
0 0 0
0 0 0
0 0 0
0 0 0
0 0 0
0 0 0
0 0 0
0 0 0
0 0 0
0 0 0
0 0 0
0 0 0
0 0 0
0 0 0
0 0 0
0 0 0
0 0 0
0 0 0
0 0 0
0 0 0
0 0 0
0 0 0
0 0 0
0 0 0
0 0 0
127 128 122
42 41 47
99 92 38
255 248 6
255 240 2
193 184 2
17 16 16
71 72 76
24 23 7
216 202 3
255 250 4
255 244 2
255 244 2
255 246 2
255 246 2
255 246 2
255 246 2
255 246 2
255 246 2
255 246 2
255 246 2
255 246 2
255 246 2
255 240 2
253 229 3
254 238 2
210 195 0
46 42 3
0 0 0
52 57 52
82 82 81
18 17 5
24 23 7
18 17 5
18 17 5
10 9 4
44 42 32
34 35 40
60 58 2
255 244 2
255 244 4
193 184 2
0 0 1
59 58 59
102 102 105
99 98 93
101 101 93
99 98 93
99 98 93
99 98 93
99 98 93
99 98 93
101 101 93
101 101 93
101 101 93
99 98 93
99 98 93
99 98 93
99 98 93
99 98 93
99 98 93
101 101 93
94 95 98
28 31 34
24 23 7
238 225 4
255 239 3
238 225 4
24 23 7
59 64 62
40 37 22
24 23 7
62 61 53
16 17 21
161 149 0
255 246 2
255 244 2
107 102 43
1 2 4
68 68 71
94 95 98
88 87 91
88 87 91
88 87 91
88 87 91
88 87 91
85 86 83
85 86 83
88 87 91
88 87 91
90 90 92
90 90 92
90 90 92
90 90 92
88 87 91
90 90 92
88 87 91
91 91 95
76 77 81
4 4 8
60 58 2
255 240 4
255 244 4
193 184 2
12 12 13
59 64 62
18 17 5
32 31 22
54 54 58
46 42 3
238 225 4
255 239 3
238 225 4
24 23 7
41 41 46
90 90 92
85 86 83
88 87 91
88 87 91
10 10 12
119 114 45
255 248 6
255 244 4
161 149 0
10 10 12
62 61 53
10 9 4
10 9 4
10 9 4
10 9 4
6 5 2
40 37 22
45 45 50
60 58 2
255 240 4
255 240 4
224 210 0
18 17 5
51 51 55
91 91 95
85 86 83
85 86 83
88 87 91
28 31 34
46 42 3
238 225 4
255 239 3
238 225 4
24 23 7
59 58 59
32 31 22
18 17 5
24 23 7
59 64 62
15 15 14
210 195 0
255 239 3
255 240 2
60 58 2
7 8 10
82 82 81
91 91 95
85 86 83
85 86 83
84 83 84
85 86 83
85 86 83
84 83 84
84 83 84
85 86 83
85 86 83
85 86 83
85 86 83
85 86 83
85 86 83
84 83 84
84 83 84
85 86 83
85 86 83
85 86 83
85 86 83
88 87 91
90 90 92
82 82 81
20 21 23
10 9 4
216 202 3
254 238 2
255 244 4
60 58 2
54 54 58
70 68 47
18 17 5
74 74 77
59 64 62
0 0 0
162 2 52
210 2 67
51 1 16
2 0 0
169 0 49
246 4 78
235 2 74
248 3 80
125 1 38
2 1 1
2 0 0
0 0 0
0 1 0
90 1 28
208 7 67
51 1 16
0 3 1
130 130 134
74 74 77
0 0 0
2 2 2
0 0 0
0 0 0
0 0 0
0 0 0
0 0 0
0 0 0
0 0 0
0 0 0
0 0 0
0 0 0
0 0 0
0 0 0
0 0 0
0 0 0
0 0 0
0 0 0
0 0 0
0 0 0
0 0 0
0 0 0
0 0 0
0 0 0
0 0 0
0 0 0
0 0 0
0 0 0
0 0 0
0 0 0
0 0 0
0 0 0
0 0 0
0 0 0
0 0 0
0 0 0
0 0 0
0 0 0
0 0 0
0 0 0
0 0 0
0 0 0
0 0 0
0 0 0
0 0 0
0 0 0
0 0 0
0 0 0
0 0 0
0 0 0
0 0 0
0 0 0
0 0 0
0 0 0
0 0 0
0 0 0
0 0 0
0 0 0
0 0 0
0 0 0
0 0 0
0 0 0
0 0 0
0 0 0
0 0 0
0 0 0
0 0 0
0 0 0
0 0 0
0 0 0
0 0 0
0 0 0
0 0 0
0 0 0
0 0 0
0 0 0
0 0 0
0 0 0
0 0 0
0 0 0
0 0 0
0 0 0
0 0 0
0 0 0
0 0 0
0 0 0
0 0 0
0 0 0
0 0 0
0 0 0
0 0 0
0 0 0
0 0 0
0 0 0
0 0 0
0 0 0
0 0 0
0 0 0
0 0 0
0 0 0
0 0 0
0 0 0
0 0 0
0 0 0
0 0 0
123 122 110
42 41 47
99 92 38
255 248 6
255 240 2
193 184 2
18 17 5
19 18 19
99 92 38
255 252 2
239 226 2
253 229 3
253 229 3
253 229 3
253 229 3
253 229 3
253 229 3
253 229 3
253 229 3
253 229 3
253 229 3
253 229 3
253 229 3
253 229 3
253 237 3
193 184 2
60 58 2
24 23 7
1 1 0
34 35 40
74 74 77
40 37 22
18 17 5
18 17 5
18 17 5
18 17 5
44 42 32
34 35 40
60 58 2
255 244 4
255 247 5
193 184 2
2 2 5
91 91 95
62 61 53
38 38 35
40 40 37
40 40 37
38 38 35
34 34 31
34 34 31
38 38 35
40 40 37
38 38 35
38 38 35
38 38 35
38 38 35
38 38 35
38 38 35
40 40 37
40 40 37
38 38 35
74 74 77
74 74 77
24 23 7
238 225 4
255 239 3
239 226 2
24 23 7
59 64 62
55 51 10
24 23 7
74 72 46
20 21 23
161 149 0
255 247 5
255 248 6
119 114 45
16 17 21
113 112 110
68 68 71
62 61 53
52 57 52
52 57 52
52 57 52
52 57 52
52 57 52
52 57 52
52 57 52
52 57 52
52 57 52
52 57 52
52 57 52
52 57 52
52 57 52
52 57 52
52 57 52
59 58 59
104 103 92
41 41 46
60 58 2
255 244 4
255 244 4
193 184 2
10 10 12
62 61 53
24 23 7
40 37 22
59 64 62
46 42 3
238 225 4
255 239 3
238 225 4
24 23 7
79 79 83
74 74 77
52 57 52
62 61 53
101 101 93
34 35 40
99 92 38
255 248 6
255 244 4
184 170 1
10 10 12
62 61 53
18 17 5
10 11 5
10 9 4
10 9 4
7 6 3
40 37 22
45 45 50
60 58 2
255 244 4
255 240 4
216 202 3
18 17 5
79 79 83
74 72 46
62 61 53
62 61 53
91 90 77
68 68 71
46 42 3
238 225 4
255 240 4
238 225 4
24 23 7
59 58 59
32 31 22
18 17 5
24 23 7
62 61 53
13 13 13
210 195 0
255 239 3
255 244 2
60 58 2
34 35 40
101 101 93
62 61 53
62 61 53
62 61 53
52 57 52
52 57 52
52 57 52
52 57 52
52 57 52
62 61 53
62 61 53
62 61 53
62 61 53
62 61 53
62 61 53
62 61 53
62 61 53
62 61 53
62 61 53
62 61 53
52 57 52
62 61 53
62 61 53
85 86 83
74 74 77
18 17 5
216 202 3
255 240 4
255 248 6
60 58 2
51 51 55
67 64 46
18 17 5
53 52 44
113 112 110
12 12 13
2 1 1
21 3 8
21 3 8
0 0 0
162 2 52
247 2 78
227 2 72
227 2 72
227 2 72
21 3 8
0 0 0
90 1 28
162 2 52
89 6 27
7 6 3
0 0 0
54 54 58
149 150 146
28 28 27
0 0 0
2 1 1
0 0 0
0 0 0
0 0 0
0 0 0
0 0 0
0 0 0
0 0 0
0 0 0
0 0 0
0 0 0
0 0 0
0 0 0
0 0 0
0 0 0
0 0 0
0 0 0
0 0 0
0 0 0
0 0 0
0 0 0
0 0 0
0 0 0
0 0 0
0 0 0
0 0 0
0 0 0
0 0 0
0 0 0
0 0 0
0 0 0
0 0 0
0 0 0
0 0 0
0 0 0
0 0 0
0 0 0
0 0 0
0 0 0
0 0 0
0 0 0
0 0 0
0 0 0
0 0 0
0 0 0
0 0 0
0 0 0
0 0 0
0 0 0
0 0 0
0 0 0
0 0 0
0 0 0
0 0 0
0 0 0
0 0 0
0 0 0
0 0 0
0 0 0
0 0 0
0 0 0
0 0 0
0 0 0
0 0 0
0 0 0
0 0 0
0 0 0
0 0 0
0 0 0
0 0 0
0 0 0
0 0 0
0 0 0
0 0 0
0 0 0
0 0 0
0 0 0
0 0 0
0 0 0
0 0 0
0 0 0
0 0 0
0 0 0
0 0 0
0 0 0
0 0 0
0 0 0
1 1 1
1 1 1
1 1 1
2 2 1
2 2 2
2 2 2
2 2 2
2 1 1
0 0 0
0 0 0
0 0 0
0 0 0
0 0 0
0 0 0
0 0 0
0 0 0
0 0 0
123 122 110
42 41 47
99 92 38
255 248 6
255 240 2
193 184 2
10 11 5
3 2 3
99 92 38
255 244 2
253 229 3
253 237 3
253 229 3
253 229 3
253 229 3
253 229 3
253 237 3
253 229 3
253 229 3
253 229 3
253 237 3
253 237 3
253 229 3
253 229 3
253 237 3
238 225 4
239 226 2
239 226 2
193 184 2
99 92 38
27 27 24
59 64 62
40 37 22
10 9 4
18 17 5
18 17 5
44 42 32
34 35 40
60 58 2
255 247 5
255 248 6
193 184 2
4 4 8
82 82 81
6 5 2
0 0 0
0 0 0
0 0 0
0 0 0
0 0 0
0 0 0
0 0 0
0 0 0
0 0 0
0 0 0
0 0 0
0 0 0
0 0 0
0 0 0
0 0 0
0 0 0
0 0 0
32 31 22
71 72 76
24 23 7
239 226 2
255 240 4
239 226 2
24 23 7
59 64 62
60 58 14
46 42 3
74 72 46
16 17 21
161 149 0
255 247 5
255 247 5
107 102 43
28 31 34
68 68 71
0 0 0
0 0 0
0 0 0
0 0 0
0 0 0
0 0 0
0 0 0
0 0 0
0 0 0
0 0 0
0 0 0
0 0 0
0 0 0
0 0 0
0 0 0
0 0 0
0 0 0
0 0 0
67 64 46
45 45 50
60 58 2
255 244 4
255 244 4
193 184 2
10 10 12
62 61 53
24 23 7
40 37 22
59 58 59
46 42 3
238 225 4
255 239 3
238 225 4
24 23 7
76 77 81
25 25 16
0 0 0
0 0 0
70 68 47
33 33 38
99 92 38
255 247 5
255 244 4
161 149 0
10 10 12
62 61 53
18 17 5
18 17 5
10 9 4
10 11 5
10 9 4
40 37 22
45 45 50
60 58 2
255 240 4
255 240 4
216 202 3
18 17 5
68 68 71
24 23 7
6 5 2
7 6 3
44 42 32
68 68 71
46 42 3
238 225 4
255 240 4
238 225 4
24 23 7
59 64 62
40 37 22
24 23 7
24 23 7
62 61 53
10 10 12
210 195 0
255 240 4
255 247 5
60 58 2
45 45 50
70 68 47
0 0 0
3 2 0
1 0 0
0 0 0
0 0 0
0 0 0
1 0 0
3 2 0
3 2 0
4 3 0
6 5 2
4 3 0
6 5 2
4 3 0
4 3 0
4 3 0
4 3 0
1 1 0
1 0 0
1 0 0
1 0 0
0 0 0
22 20 11
68 68 71
24 23 7
216 202 3
255 240 4
255 248 6
60 58 2
44 44 49
53 52 44
18 17 5
22 20 11
113 112 110
88 87 91
0 0 0
125 5 39
246 4 78
125 1 38
21 3 8
169 0 49
247 2 78
235 2 74
208 7 67
10 0 2
162 2 52
248 3 80
248 3 80
227 2 72
21 3 8
23 23 23
149 150 146
76 77 81
0 0 0
1 1 1
0 0 0
0 0 0
0 0 0
0 0 0
0 0 0
0 0 0
0 0 0
0 0 0
1 1 1
2 2 2
2 2 2
2 2 2
2 2 2
1 1 1
1 1 1
1 1 1
0 0 0
0 0 0
0 0 0
0 0 0
0 0 0
0 0 0
0 0 0
0 0 0
0 0 0
0 0 0
0 0 0
0 0 0
0 0 0
0 0 0
0 0 0
0 0 0
0 0 0
0 0 0
0 0 0
0 0 0
0 0 0
0 0 0
0 0 0
0 0 0
0 0 0
0 0 0
0 0 0
0 0 0
0 0 0
0 0 0
0 0 0
0 0 0
0 0 0
0 0 0
0 0 0
0 0 0
0 0 0
0 0 0
0 0 0
0 0 0
0 0 0
0 0 0
0 0 0
0 0 0
0 0 0
0 0 0
0 0 0
0 0 0
0 0 0
0 0 0
0 0 0
0 0 0
0 0 0
0 0 0
0 0 0
0 0 0
0 0 0
0 0 0
0 0 0
0 0 0
0 0 0
0 0 0
0 0 0
2 3 1
3 3 2
2 3 1
2 2 2
3 2 3
2 2 1
0 0 0
0 0 0
0 0 0
0 0 0
0 0 0
0 0 0
0 0 0
0 0 0
0 0 0
0 0 0
0 0 1
0 0 0
0 0 0
0 0 0
0 0 0
0 0 0
0 0 0
0 0 0
0 0 0
123 122 110
42 41 47
99 92 38
255 248 6
255 240 2
193 184 2
16 15 11
18 17 18
24 23 7
238 225 4
255 250 4
255 240 2
255 244 2
255 244 2
255 244 2
255 244 2
255 244 2
255 240 2
255 240 2
255 244 2
255 240 2
255 240 2
255 240 2
255 240 2
255 240 4
255 247 5
255 244 4
255 239 3
255 244 4
255 248 6
193 184 2
24 23 7
59 58 59
40 37 22
18 17 5
18 17 5
44 42 32
34 35 40
60 58 2
255 247 5
255 248 6
193 184 2
4 4 8
82 82 81
10 9 4
2 1 2
2 2 2
2 2 1
2 2 1
2 2 1
2 2 1
2 2 1
2 2 1
2 2 1
2 2 1
2 2 1
2 2 1
2 2 1
2 2 1
2 2 1
3 3 3
1 1 1
32 31 22
71 72 76
24 23 7
239 226 2
255 240 4
239 226 2
24 23 7
59 64 62
60 58 14
46 42 3
89 86 60
16 17 21
161 149 0
255 247 5
255 247 5
107 102 43
28 31 34
68 68 71
2 1 2
5 5 2
3 3 2
3 3 2
2 2 2
2 2 2
2 2 2
2 2 2
3 3 2
3 3 2
3 3 2
2 2 2
2 3 2
3 3 2
3 2 0
2 2 1
4 3 3
2 1 2
53 60 47
45 45 50
60 58 2
255 244 4
255 244 4
184 170 1
10 10 12
70 68 47
46 42 3
55 51 10
59 58 59
46 42 3
238 225 4
255 239 3
238 225 4
24 23 7
74 74 77
32 31 22
4 3 0
3 2 0
70 68 47
33 33 38
99 92 38
255 247 5
255 244 4
161 149 0
10 10 12
62 61 53
18 17 5
18 17 5
10 11 5
18 17 5
10 9 4
44 42 32
45 45 50
60 58 2
255 240 4
255 240 4
216 202 3
18 17 5
68 68 71
24 23 7
10 9 4
10 9 4
44 42 32
68 68 71
46 42 3
238 225 4
255 240 4
238 225 4
24 23 7
59 64 62
40 37 22
24 23 7
24 23 7
62 61 53
10 10 12
210 195 0
255 240 4
255 248 6
60 58 2
44 44 49
74 72 46
7 6 3
10 11 5
10 9 4
6 7 3
7 6 3
7 6 3
6 7 3
10 9 4
10 9 4
10 11 5
10 11 5
10 11 5
10 11 5
10 11 5
10 9 4
10 9 4
10 9 4
7 6 3
6 7 3
6 7 3
10 9 4
6 5 2
22 20 11
68 68 71
24 23 7
216 202 3
255 240 4
255 248 6
60 58 2
44 44 49
53 52 44
18 17 5
10 9 4
74 74 77
130 130 134
0 2 0
90 1 28
247 2 78
247 2 78
125 5 39
10 0 2
125 1 38
169 0 49
51 1 16
56 0 15
246 4 78
227 2 72
229 3 74
208 7 67
7 2 3
59 58 59
139 138 142
2 1 1
0 0 0
0 0 0
0 0 0
0 0 0
0 0 0
0 0 0
0 0 0
0 0 0
0 0 0
1 1 1
0 0 0
0 0 0
0 0 0
0 0 0
0 0 0
0 0 0
0 0 0
0 0 0
0 0 0
0 0 0
1 1 0
2 2 1
3 2 3
2 3 1
4 3 0
4 3 0
2 2 0
0 0 0
0 0 0
0 0 0
0 0 0
0 0 0
0 0 0
0 0 0
0 0 0
0 0 0
0 0 0
0 0 0
0 0 0
0 0 0
0 0 0
0 0 0
0 0 0
0 0 0
0 0 0
0 0 0
0 0 0
0 0 0
0 0 0
0 0 0
0 0 0
0 0 0
0 0 0
0 0 0
0 0 0
0 0 0
0 0 0
0 0 0
0 0 0
0 0 0
0 0 0
0 0 0
0 0 0
0 0 0
0 0 0
0 0 0
0 0 0
0 0 0
0 0 0
0 0 0
0 0 0
0 0 0
0 0 0
0 0 0
0 0 0
0 0 0
0 0 0
0 0 0
0 0 0
0 0 0
2 4 2
0 0 0
0 0 0
4 3 0
18 17 5
18 17 5
6 5 2
2 3 1
6 6 5
17 16 16
27 27 24
34 34 31
45 45 44
59 58 59
59 64 62
68 68 71
40 40 37
0 0 0
1 1 1
1 1 1
0 0 0
0 0 0
0 0 0
0 0 0
0 0 0
0 0 0
123 122 110
42 41 47
99 92 38
255 248 6
255 244 4
193 184 2
20 20 18
54 54 58
0 0 0
60 58 2
193 184 2
224 210 0
224 210 0
224 210 0
224 210 0
224 210 0
224 210 0
224 210 0
224 210 0
224 210 0
224 210 0
224 210 0
224 210 0
224 210 0
224 210 0
224 210 0
224 210 0
253 237 3
255 244 2
239 226 2
255 252 2
184 170 1
14 14 14
74 74 77
46 42 3
24 23 7
44 42 32
34 35 40
60 58 2
255 247 5
255 244 4
193 184 2
7 8 10
82 82 81
7 6 3
0 0 0
1 1 0
1 1 0
1 1 0
1 1 0
1 1 0
1 1 0
1 1 0
1 1 0
1 1 0
1 1 0
1 1 0
1 1 0
1 1 0
1 1 0
2 2 1
0 0 0
27 27 24
71 72 76
24 23 7
238 225 4
255 239 3
239 226 2
24 23 7
59 64 62
60 58 14
46 42 3
80 78 44
16 17 21
161 149 0
255 247 5
255 247 5
119 114 45
28 31 34
68 68 71
0 0 0
3 3 2
1 1 1
1 1 0
1 1 0
1 1 0
1 1 0
1 1 0
1 1 0
1 1 0
1 1 0
1 1 0
1 1 0
1 1 0
1 1 0
1 1 0
2 2 1
0 0 0
53 60 47
45 45 50
60 58 2
255 244 4
255 244 4
184 170 1
10 10 12
68 68 71
46 42 3
55 51 10
59 64 62
46 42 3
238 225 4
255 239 3
238 225 4
24 23 7
71 72 76
25 25 16
2 2 0
0 0 0
70 68 47
33 33 38
99 92 38
255 248 6
255 244 4
161 149 0
10 10 12
62 61 53
24 23 7
18 17 5
18 17 5
18 17 5
18 17 5
44 42 32
43 43 48
60 58 2
255 240 4
255 239 3
216 202 3
18 17 5
68 68 71
22 20 11
6 7 3
6 5 2
40 37 22
68 68 71
46 42 3
238 225 4
255 240 4
238 225 4
24 23 7
59 64 62
40 37 22
24 23 7
24 23 7
59 64 62
10 11 12
210 195 0
255 240 4
255 244 4
60 58 2
42 41 47
70 68 47
4 3 0
10 9 4
6 7 3
6 5 2
5 5 2
5 5 2
6 5 2
6 7 3
6 7 3
10 9 4
10 9 4
10 9 4
10 9 4
10 9 4
10 9 4
6 7 3
7 6 3
7 6 3
6 5 2
6 5 2
6 7 3
4 3 0
25 25 16
71 72 76
24 23 7
216 202 3
255 239 3
255 244 4
60 58 2
45 45 50
53 52 44
6 5 2
7 6 3
34 34 31
139 138 142
37 37 37
10 0 2
169 0 49
246 4 78
247 6 78
56 0 15
0 2 0
0 2 0
0 3 1
125 5 39
247 6 78
235 2 74
235 2 74
89 6 27
0 0 0
116 116 120
91 91 95
0 0 0
2 2 2
0 0 0
0 0 0
0 0 0
0 0 0
0 0 0
0 0 0
0 0 0
1 1 1
0 0 0
6 6 5
52 57 52
68 68 71
59 64 62
52 57 52
44 42 44
34 34 31
23 23 23
12 12 13
7 6 3
5 5 2
10 9 4
7 6 3
10 9 4
0 2 0
0 0 0
0 0 0
2 3 1
0 0 0
0 0 0
0 0 0
0 0 0
0 0 0
0 0 0
0 0 0
0 0 0
0 0 0
0 0 0
0 0 0
0 0 0
0 0 0
0 0 0
0 0 0
0 0 0
0 0 0
0 0 0
0 0 0
0 0 0
0 0 0
0 0 0
0 0 0
0 0 0
0 0 0
0 0 0
0 0 0
0 0 0
0 0 0
0 0 0
0 0 0
0 0 0
0 0 0
0 0 0
0 0 0
0 0 0
0 0 0
0 0 0
0 0 0
0 0 0
0 0 0
0 0 0
0 0 0
0 0 0
1 1 0
1 1 0
0 0 0
0 0 0
1 1 0
1 1 0
1 1 0
2 3 1
4 3 0
99 92 38
142 136 46
60 58 14
99 92 38
211 204 111
142 136 46
0 0 0
10 11 5
28 28 27
37 37 37
39 39 41
48 48 50
52 57 52
52 57 52
82 82 81
149 150 146
99 98 93
0 0 0
0 0 0
2 2 2
0 0 0
0 0 0
0 0 0
0 0 0
0 0 0
123 122 110
42 41 47
99 92 38
255 248 6
255 240 4
193 184 2
16 15 11
84 83 84
12 11 11
0 0 0
1 0 0
10 9 4
10 9 4
10 9 4
10 9 4
10 9 4
10 9 4
10 9 4
10 9 4
10 9 4
10 9 4
10 9 4
10 9 4
10 11 5
10 11 5
10 11 5
18 17 5
60 58 2
193 184 2
255 244 2
239 226 2
255 250 4
60 58 2
51 51 55
74 72 46
24 23 7
53 52 44
34 35 40
60 58 2
255 247 5
255 244 4
193 184 2
7 8 10
82 82 81
7 6 3
0 0 0
1 1 0
0 0 0
0 0 0
0 0 0
0 0 0
0 0 0
0 0 0
0 0 0
0 0 0
0 0 0
0 0 0
0 0 0
0 0 0
0 0 0
2 2 1
0 0 0
27 27 24
71 72 76
24 23 7
238 225 4
255 239 3
239 226 2
24 23 7
59 64 62
60 58 14
46 42 3
80 78 44
16 17 21
161 149 0
255 247 5
255 247 5
119 114 45
28 31 34
68 68 71
0 0 0
2 2 2
1 1 0
1 1 0
1 1 0
1 1 0
1 1 0
1 1 0
1 1 0
1 1 0
0 0 0
0 0 0
0 0 0
0 0 0
0 0 0
0 0 0
2 2 1
0 0 0
53 52 44
45 45 50
60 58 2
255 244 4
255 244 4
184 170 1
10 10 12
68 68 71
46 42 3
60 58 14
59 64 62
46 42 3
238 225 4
255 239 3
238 225 4
24 23 7
71 72 76
25 25 16
2 1 1
0 0 0
70 68 47
33 33 38
99 92 38
255 247 5
255 244 4
161 149 0
10 10 12
62 61 53
24 23 7
24 23 7
18 17 5
18 17 5
18 17 5
44 42 32
43 43 48
60 58 2
255 244 4
255 239 3
216 202 3
18 17 5
68 68 71
18 17 5
6 7 3
4 3 0
40 37 22
59 64 62
46 42 3
238 225 4
255 239 3
238 225 4
24 23 7
59 64 62
40 37 22
24 23 7
32 22 13
68 68 71
13 13 13
210 195 0
255 240 4
255 244 4
60 58 2
42 41 47
70 68 47
6 5 2
10 9 4
7 6 3
6 5 2
5 5 2
6 5 2
6 5 2
7 6 3
10 9 4
10 9 4
10 9 4
10 9 4
10 9 4
10 9 4
10 9 4
10 9 4
6 7 3
7 6 3
7 6 3
7 6 3
7 6 3
4 3 0
25 25 16
71 72 76
24 23 7
216 202 3
255 239 3
255 244 4
60 58 2
45 45 50
45 45 44
2 1 1
10 9 4
7 6 3
102 102 105
122 122 126
3 4 4
10 0 2
162 2 52
208 7 67
51 1 16
0 0 1
2 0 0
0 0 0
21 3 8
169 0 49
169 0 49
56 0 15
0 0 0
59 58 59
144 143 148
22 22 23
0 0 0
1 1 1
0 0 0
0 0 0
0 0 0
0 0 0
0 0 0
0 0 0
3 3 3
0 0 0
15 15 14
130 130 134
130 130 134
59 58 59
48 48 50
48 48 50
45 45 44
39 39 41
34 34 31
20 20 18
5 5 2
10 11 5
176 169 84
211 204 111
55 51 10
107 102 43
142 136 46
60 58 14
2 2 0
2 2 0
0 0 0
1 1 0
1 1 0
0 0 0
1 0 0
1 1 0
1 1 0
0 0 0
0 0 0
0 0 0
0 0 0
0 0 0
0 0 0
0 0 0
0 0 0
0 0 0
0 0 0
0 0 0
0 0 0
0 0 0
0 0 0
0 0 0
0 0 0
0 0 0
0 0 0
0 0 0
0 0 0
0 0 0
0 0 0
0 0 0
0 0 0
0 0 0
0 0 0
0 0 0
0 0 0
0 0 0
0 0 0
0 0 0
3 3 3
3 2 3
3 3 3
0 1 0
2 4 2
0 0 4
0 0 4
2 2 2
0 3 1
0 0 1
0 0 1
0 0 1
2 2 5
10 9 4
211 204 111
211 204 111
142 136 46
107 102 43
255 251 34
161 149 0
4 4 8
39 39 41
33 33 38
33 33 38
32 32 35
32 32 35
32 32 35
32 32 35
0 0 0
16 17 21
144 143 148
90 90 92
13 13 13
0 0 0
1 1 1
0 0 0
0 0 0
0 0 0
0 0 0
123 122 110
42 41 47
99 92 38
255 248 6
255 244 4
193 184 2
15 13 11
102 102 105
74 74 77
9 9 9
0 0 0
0 0 0
0 0 0
0 0 0
0 0 0
0 0 0
0 0 0
0 0 0
0 0 0
0 0 0
0 0 0
0 0 0
0 0 0
0 0 0
0 0 0
0 0 0
0 0 0
0 0 0
10 9 4
193 184 2
254 238 2
255 240 4
184 170 1
24 24 28
82 82 81
24 23 7
53 52 44
34 35 40
60 58 2
255 247 5
255 244 4
193 184 2
4 4 8
82 82 81
7 6 3
0 0 0
1 1 0
0 0 0
0 0 0
0 0 0
0 0 0
0 0 0
0 0 0
0 0 0
0 0 0
0 0 0
0 0 0
0 0 0
0 0 0
0 0 0
2 2 1
0 0 0
32 31 22
71 72 76
24 23 7
239 226 2
255 239 3
239 226 2
24 23 7
59 64 62
60 58 14
46 42 3
80 78 44
16 17 21
161 149 0
255 246 2
255 247 5
107 102 43
28 31 34
68 68 71
0 0 0
2 2 2
1 1 0
1 1 0
1 1 0
1 1 0
1 1 0
0 0 0
0 0 0
0 0 0
0 0 0
0 0 0
0 0 0
0 0 0
0 0 0
0 0 0
2 2 1
0 0 0
53 52 44
45 45 50
60 58 2
255 244 4
255 244 4
193 184 2
10 10 12
70 68 47
46 42 3
60 58 14
59 58 59
46 42 3
238 225 4
255 239 3
238 225 4
24 23 7
71 72 76
25 25 16
2 2 0
0 0 0
70 68 47
33 33 38
99 92 38
255 247 5
255 244 4
161 149 0
12 12 13
68 68 71
24 23 7
24 23 7
24 23 7
24 23 7
24 23 7
60 58 14
45 45 50
60 58 2
255 244 4
255 239 3
224 210 0
18 17 5
68 68 71
18 17 5
6 5 2
4 3 0
32 31 22
59 64 62
46 42 3
238 225 4
255 239 3
238 225 4
24 23 7
59 64 62
55 51 10
32 22 13
46 42 3
68 68 71
12 12 13
210 195 0
255 240 4
255 244 4
60 58 2
42 41 47
70 68 47
6 5 2
10 9 4
7 6 3
6 7 3
7 6 3
7 6 3
7 6 3
6 7 3
10 9 4
10 9 4
10 11 5
10 11 5
10 11 5
10 9 4
10 9 4
10 9 4
10 9 4
7 6 3
6 7 3
6 7 3
10 9 4
6 5 2
32 31 22
74 74 77
24 23 7
216 202 3
253 237 3
255 244 4
60 58 2
51 51 55
45 45 44
1 0 0
10 9 4
10 9 4
32 31 22
130 130 134
116 116 120
20 21 23
0 0 0
0 0 0
2 4 2
99 92 38
184 170 1
161 149 0
24 23 7
0 0 0
0 0 0
0 0 0
59 64 62
149 150 146
59 58 59
0 0 0
1 1 1
0 0 0
0 0 0
0 0 0
0 0 0
0 0 0
1 1 1
0 0 0
0 0 0
20 20 18
116 116 120
116 116 120
0 0 4
10 8 10
32 32 35
28 31 34
28 31 34
28 31 34
28 31 34
33 33 38
33 33 38
24 23 7
237 228 39
255 251 34
60 58 14
211 204 111
211 204 111
176 169 84
0 0 0
4 4 6
1 2 4
0 0 4
0 0 1
2 3 1
0 0 1
0 0 4
0 0 4
2 2 1
0 1 0
4 3 3
3 3 2
3 3 2
0 0 0
0 0 0
0 0 0
0 0 0
0 0 0
0 0 0
0 0 0
0 0 0
0 0 0
0 0 0
0 0 0
0 0 0
0 0 0
0 0 0
0 0 0
0 0 0
0 0 0
0 0 0
0 0 0
0 0 0
0 0 0
0 0 0
0 0 0
0 0 0
1 1 0
1 1 0
0 0 0
0 0 0
1 0 0
24 23 7
18 17 5
46 42 3
46 42 3
24 23 7
18 17 5
46 42 3
46 42 3
46 42 3
46 42 3
18 17 5
216 202 3
255 244 2
161 149 0
99 92 38
255 252 2
161 149 0
10 10 12
71 72 76
74 74 77
76 77 81
76 77 81
74 74 77
71 72 76
68 68 71
16 14 12
18 17 5
28 31 34
102 102 105
146 145 141
59 64 62
0 0 0
2 2 2
1 1 0
1 1 1
0 0 0
123 122 110
42 41 47
99 92 38
255 248 6
255 240 4
193 184 2
16 15 11
88 87 91
99 98 93
90 90 92
59 64 62
48 48 50
48 48 50
48 48 50
48 48 50
45 45 44
45 45 44
45 45 44
45 45 44
45 45 44
45 45 44
45 45 44
45 45 44
45 45 44
45 45 44
45 45 44
44 42 44
16 15 11
0 0 0
60 58 2
255 240 2
253 237 3
238 225 4
32 22 13
74 74 77
46 42 3
60 58 14
34 35 40
60 58 2
255 247 5
255 244 4
193 184 2
7 8 10
82 82 81
7 6 3
0 0 0
1 1 0
0 0 0
0 0 0
0 0 0
0 0 0
0 0 0
0 0 0
0 0 0
0 0 0
0 0 0
0 0 0
0 0 0
0 0 0
0 0 0
2 2 1
0 0 0
32 31 22
74 74 77
24 23 7
239 226 2
255 239 3
239 226 2
24 23 7
59 64 62
60 58 14
46 42 3
74 72 46
16 17 21
161 149 0
255 250 4
255 250 4
107 102 43
24 24 28
68 68 71
0 0 0
2 2 2
1 1 0
1 1 0
1 1 0
0 0 0
0 0 0
0 0 0
0 0 0
0 0 0
0 0 0
0 0 0
0 0 0
0 0 0
0 0 0
0 0 0
2 2 1
0 0 0
53 52 44
45 45 50
60 58 2
255 244 4
255 244 2
193 184 2
12 12 13
68 68 71
46 42 3
60 58 14
59 64 62
46 42 3
238 225 4
255 240 4
238 225 4
24 23 7
68 68 71
25 25 16
3 2 0
1 0 0
70 68 47
28 31 34
99 92 38
255 247 5
255 244 4
184 170 1
16 17 21
70 68 47
24 23 7
24 23 7
24 23 7
24 23 7
24 23 7
60 58 14
47 45 50
60 58 2
255 244 4
255 239 3
216 202 3
18 17 5
68 68 71
16 15 11
5 5 2
3 2 0
32 31 22
59 64 62
46 42 3
238 225 4
255 239 3
238 225 4
24 23 7
59 64 62
55 51 10
46 42 3
46 42 3
59 64 62
10 11 12
210 195 0
255 240 4
255 247 5
60 58 2
42 41 47
74 72 46
18 17 5
18 17 5
18 17 5
10 11 5
10 11 5
10 11 5
10 11 5
18 17 5
18 17 5
18 17 5
18 17 5
18 17 5
18 17 5
18 17 5
18 17 5
18 17 5
18 17 5
10 11 5
10 11 5
10 11 5
18 17 5
10 11 5
40 37 22
74 74 77
24 23 7
216 202 3
255 240 4
255 244 4
60 58 2
51 51 55
45 45 44
0 0 0
7 6 3
7 6 3
6 5 2
25 25 16
102 102 105
135 135 140
91 91 95
12 12 13
24 23 7
239 226 2
255 246 2
255 252 2
99 92 38
0 0 1
54 54 58
118 118 122
149 150 146
59 64 62
0 0 0
2 2 2
0 0 0
0 0 0
0 0 0
0 0 0
0 0 0
1 1 1
0 0 0
0 0 0
85 86 83
135 135 137
76 77 81
18 17 18
18 17 5
32 32 35
76 77 81
74 74 77
76 77 81
76 77 81
76 77 81
71 72 76
59 64 62
18 17 5
216 202 3
253 229 3
60 58 2
193 184 2
255 244 2
184 170 1
5 5 2
46 42 3
46 42 3
46 42 3
46 42 3
18 17 5
46 42 3
46 42 3
46 42 3
18 17 5
18 17 5
0 0 0
0 0 0
0 0 0
0 0 0
1 1 0
0 0 0
0 0 0
0 0 0
0 0 0
0 0 0
0 0 0
0 0 0
0 0 0
0 0 0
0 0 0
0 0 0
0 0 0
0 0 0
0 0 0
0 0 0
0 0 0
0 0 0
0 0 0
0 0 0
0 0 0
0 0 0
2 2 1
2 2 0
23 23 23
123 122 110
123 122 110
145 142 98
176 169 84
89 86 60
211 204 111
211 204 111
176 169 84
99 92 38
211 204 111
211 204 111
211 204 111
211 204 111
46 42 3
216 202 3
255 250 4
161 149 0
99 92 38
255 252 2
161 149 0
4 4 8
41 41 46
39 39 41
41 41 46
41 41 46
36 36 40
36 36 40
28 31 34
32 22 13
216 202 3
161 149 0
60 58 2
44 44 49
149 150 146
82 82 81
0 0 0
3 3 2
1 1 1
0 0 0
123 122 110
41 41 46
99 92 38
255 248 6
255 244 4
193 184 2
16 15 11
82 82 81
25 25 16
59 64 62
99 98 93
99 98 93
99 98 93
99 98 93
99 98 93
99 98 93
99 98 93
99 98 93
99 98 93
99 98 93
99 98 93
99 98 93
94 95 98
91 91 95
99 98 93
99 98 93
102 102 105
85 86 83
12 12 13
60 58 2
253 237 3
254 238 2
239 226 2
24 23 7
68 68 71
60 58 14
60 58 14
34 35 40
60 58 2
255 244 4
255 244 4
193 184 2
7 8 10
82 82 81
7 6 3
0 0 0
1 1 0
0 0 0
0 0 0
0 0 0
0 0 0
0 0 0
0 0 0
0 0 0
0 0 0
0 0 0
0 0 0
0 0 0
0 0 0
0 0 0
2 2 1
0 0 0
32 31 22
76 77 81
24 23 7
238 225 4
255 239 3
239 226 2
24 23 7
59 64 62
60 58 14
46 42 3
74 72 46
20 21 23
161 149 0
255 246 2
255 247 5
107 102 43
24 24 28
68 68 71
0 0 0
2 2 2
1 1 0
1 1 0
0 0 0
0 0 0
0 0 0
0 0 0
0 0 0
0 0 0
0 0 0
0 0 0
0 0 0
0 0 0
0 0 0
0 0 0
2 2 1
0 0 0
53 52 44
45 45 50
60 58 2
255 244 4
255 240 4
193 184 2
12 12 13
68 68 71
46 42 3
55 51 10
59 64 62
46 42 3
238 225 4
255 240 2
238 225 4
24 23 7
68 68 71
20 20 18
3 2 0
1 0 0
70 68 47
28 31 34
99 92 38
255 248 6
255 248 6
184 170 1
7 8 10
89 86 60
60 58 14
60 58 14
60 58 14
60 58 14
60 58 14
80 78 44
51 51 55
60 58 2
255 244 4
254 238 2
216 202 3
18 17 5
71 72 76
16 15 11
4 3 0
2 2 0
32 31 22
68 68 71
46 42 3
238 225 4
255 239 3
238 225 4
24 23 7
59 64 62
55 51 10
46 42 3
46 42 3
62 61 53
10 10 12
193 184 2
255 240 4
255 247 5
60 58 2
42 41 47
89 86 60
24 23 7
24 23 7
24 23 7
24 23 7
24 23 7
18 17 5
18 17 5
24 23 7
24 23 7
24 23 7
24 23 7
24 23 7
24 23 7
18 17 5
18 17 5
18 17 5
18 17 5
18 17 5
18 17 5
18 17 5
18 17 5
24 23 7
60 58 14
82 82 81
18 17 5
216 202 3
255 240 4
255 244 4
60 58 2
51 51 55
45 45 44
0 0 0
7 6 3
5 5 2
6 6 5
2 1 1
2 1 1
53 52 44
132 132 135
76 77 81
18 17 5
224 210 0
253 229 3
254 238 2
60 58 2
24 24 28
149 150 146
101 101 93
27 27 24
0 0 0
2 1 2
0 0 0
0 0 0
0 0 0
0 0 0
0 0 0
0 0 0
1 1 1
4 3 3
113 112 110
132 132 135
26 26 29
60 58 2
193 184 2
161 149 0
7 8 10
39 39 41
39 39 41
41 41 46
41 41 46
41 41 46
39 39 41
32 32 35
10 11 5
216 202 3
255 240 4
60 58 2
210 195 0
255 248 6
184 170 1
32 22 13
211 204 111
211 204 111
211 204 111
211 204 111
80 78 44
211 204 111
211 204 111
211 204 111
74 72 46
176 169 84
133 128 66
107 126 73
104 103 92
25 25 16
2 2 0
1 1 0
0 0 0
0 0 0
0 0 0
0 0 0
0 0 0
0 0 0
0 0 0
0 0 0
0 0 0
0 0 0
0 0 0
0 0 0
0 0 0
0 0 0
0 0 0
0 0 0
0 0 0
0 0 0
0 0 0
0 0 0
3 3 2
0 0 0
158 151 59
211 204 111
211 204 111
211 204 111
158 151 59
60 58 14
237 228 39
255 251 34
158 151 59
80 78 44
255 251 34
237 228 39
237 228 39
237 228 39
46 42 3
216 202 3
255 248 6
161 149 0
99 92 38
255 252 2
161 149 0
4 4 8
36 36 40
33 33 38
33 33 38
33 33 38
33 33 38
36 36 40
33 33 38
46 42 3
238 225 4
255 248 6
255 248 6
161 149 0
16 17 21
132 132 135
45 45 44
0 0 0
4 3 3
0 0 0
123 122 110
41 41 46
99 92 38
255 248 6
255 240 4
193 184 2
15 13 11
82 82 81
10 11 5
0 0 0
10 9 4
12 11 11
12 11 11
15 13 11
16 15 11
16 15 11
16 15 11
15 13 11
16 15 11
16 15 11
16 15 11
16 15 11
15 13 11
15 13 11
16 15 11
22 20 11
25 25 16
82 82 81
51 51 55
60 58 2
253 237 3
254 238 2
239 226 2
24 23 7
68 68 71
60 58 14
67 64 46
34 35 40
60 58 2
255 244 4
255 244 4
193 184 2
7 8 10
82 82 81
10 9 4
0 0 0
1 1 0
0 0 0
0 0 0
0 0 0
0 0 0
0 0 0
0 0 0
0 0 0
0 0 0
0 0 0
0 0 0
0 0 0
0 0 0
0 0 0
1 1 1
0 0 0
32 31 22
76 77 81
24 23 7
238 225 4
255 239 3
239 226 2
24 23 7
59 64 62
60 58 14
46 42 3
74 72 46
20 21 23
161 149 0
255 246 2
255 247 5
107 102 43
28 31 34
68 68 71
0 0 0
2 2 2
1 1 0
1 1 0
1 1 0
1 1 0
1 1 0
0 0 0
0 0 0
0 0 0
0 0 0
0 0 0
0 0 0
0 0 0
0 0 0
0 0 0
2 2 1
0 0 0
53 52 44
45 45 50
60 58 2
255 244 4
255 244 2
193 184 2
12 12 13
68 68 71
46 42 3
55 51 10
59 58 59
46 42 3
238 225 4
255 239 3
238 225 4
24 23 7
68 68 71
25 25 16
2 2 0
0 1 0
70 68 47
33 33 38
99 92 38
255 248 6
253 237 3
224 210 0
24 23 7
28 31 34
45 45 50
45 45 50
45 45 50
45 45 50
44 44 49
51 51 55
7 8 10
161 149 0
255 244 4
255 240 4
193 184 2
7 7 7
71 72 76
15 13 11
4 3 0
2 2 0
32 31 22
59 64 62
46 42 3
238 225 4
255 239 3
238 225 4
24 23 7
59 64 62
60 58 14
46 42 3
46 42 3
62 61 53
10 10 12
193 184 2
255 239 3
255 247 5
60 58 2
42 41 47
89 86 60
46 42 3
40 37 22
44 42 32
44 42 32
53 52 44
53 52 44
53 52 44
67 64 46
67 64 46
67 64 46
67 64 46
67 64 46
67 64 46
67 64 46
67 64 46
53 52 44
53 52 44
44 42 32
44 42 32
44 42 32
53 52 44
60 58 14
89 86 60
42 41 47
55 51 10
253 237 3
253 237 3
255 240 4
46 42 3
51 51 55
45 45 44
0 0 0
7 6 3
3 3 2
3 3 2
6 5 2
7 7 7
0 0 0
67 64 46
113 112 110
18 17 5
224 210 0
253 237 3
255 244 4
60 58 2
59 64 62
127 128 122
0 0 0
0 0 0
2 2 2
0 0 0
0 0 0
0 0 0
0 0 0
0 0 0
0 0 0
1 1 1
0 0 0
101 101 93
118 118 122
16 15 11
161 149 0
255 248 6
255 250 4
161 149 0
10 10 12
39 39 41
33 33 38
33 33 38
33 33 38
33 33 38
36 36 40
33 33 38
18 17 5
216 202 3
255 244 4
60 58 2
210 195 0
255 248 6
184 170 1
46 42 3
237 228 39
237 228 39
237 228 39
237 228 39
60 58 14
193 184 2
237 228 39
237 228 39
60 58 14
176 169 84
211 204 111
211 204 111
211 204 111
158 151 59
0 0 0
2 3 1
0 0 0
0 0 0
0 0 0
0 0 0
0 0 0
0 0 0
0 0 0
0 0 0
0 0 0
0 0 0
0 0 0
0 0 0
0 0 0
0 0 0
0 0 0
0 0 0
0 0 0
0 0 0
0 0 0
0 0 0
2 2 0
1 1 1
60 58 2
193 184 2
184 170 1
210 195 0
184 170 1
60 58 2
253 229 3
253 229 3
184 170 1
60 58 2
253 229 3
253 229 3
253 229 3
210 195 0
24 23 7
216 202 3
255 248 6
161 149 0
99 92 38
255 252 2
161 149 0
2 2 5
39 39 41
36 36 40
36 36 40
36 36 40
39 39 41
41 41 46
34 35 40
46 42 3
255 240 4
255 244 4
253 229 3
255 252 2
161 149 0
24 24 28
124 124 125
16 15 11
1 1 1
1 1 0
123 122 110
41 41 46
99 92 38
255 248 6
255 240 4
193 184 2
15 13 11
82 82 81
15 13 11
2 2 1
2 2 0
1 1 0
1 1 0
2 1 1
2 2 0
1 1 0
1 1 0
2 2 0
2 2 0
1 1 0
2 2 0
2 1 1
1 1 0
2 2 0
2 2 0
5 5 2
0 0 0
45 45 44
59 58 59
55 51 10
253 237 3
253 237 3
239 226 2
24 23 7
68 68 71
60 58 14
67 64 46
34 35 40
60 58 2
255 244 4
255 244 4
193 184 2
4 4 8
82 82 81
10 9 4
0 0 0
1 1 0
0 0 0
0 0 0
0 0 0
0 0 0
0 0 0
0 0 0
0 0 0
0 0 0
0 0 0
0 0 0
0 0 0
0 0 0
0 0 0
1 1 1
0 0 0
32 31 22
76 77 81
24 23 7
238 225 4
255 239 3
239 226 2
24 23 7
68 68 71
60 58 14
46 42 3
80 78 44
24 24 28
161 149 0
255 247 5
255 247 5
107 102 43
28 31 34
68 68 71
0 0 0
2 2 2
1 1 0
1 1 0
1 1 0
1 1 0
1 1 0
0 0 0
0 0 0
0 0 0
0 0 0
0 0 0
0 0 0
0 0 0
0 0 0
0 0 0
2 2 1
0 0 0
53 60 47
45 45 50
60 58 2
255 240 4
255 244 4
184 170 1
10 10 12
68 68 71
46 42 3
55 51 10
59 58 59
46 42 3
238 225 4
254 238 2
238 225 4
24 23 7
68 68 71
25 25 16
2 2 0
0 0 0
70 68 47
45 45 50
46 42 3
253 229 3
239 226 2
253 229 3
210 195 0
107 102 43
99 92 38
99 92 38
99 92 38
99 92 38
99 92 38
99 92 38
161 149 0
255 240 4
253 229 3
255 250 4
161 149 0
0 0 4
74 74 77
10 11 5
2 3 1
1 1 0
32 31 22
59 64 62
46 42 3
238 225 4
255 239 3
238 225 4
24 23 7
59 64 62
60 58 14
46 42 3
46 42 3
62 61 53
10 10 12
210 195 0
255 240 4
255 244 4
60 58 2
42 41 47
89 86 60
74 72 46
51 51 55
20 21 23
20 21 23
24 24 28
26 26 29
26 26 29
28 31 34
26 26 29
26 26 29
26 26 29
28 31 34
28 31 34
28 31 34
28 31 34
26 26 29
24 24 28
24 24 28
24 24 28
26 26 29
26 26 29
26 26 29
20 21 23
55 51 10
216 202 3
254 238 2
255 240 2
210 195 0
6 5 2
59 64 62
40 40 37
0 0 0
5 5 2
4 3 3
3 3 2
3 3 2
6 7 3
3 2 3
62 61 53
102 102 105
18 17 5
224 210 0
254 238 2
255 247 5
60 58 2
59 58 59
127 128 122
2 1 2
1 1 1
0 0 0
0 0 0
0 0 0
0 0 0
0 0 0
0 0 0
2 2 2
0 0 0
59 58 59
135 135 140
10 10 12
184 170 1
255 252 2
239 226 2
255 248 6
161 149 0
16 17 21
44 44 49
36 36 40
34 35 40
34 35 40
36 36 40
41 41 46
41 41 46
18 17 5
224 210 0
255 239 3
60 58 2
210 195 0
255 250 4
193 184 2
46 42 3
253 229 3
253 229 3
253 229 3
253 229 3
60 58 2
184 170 1
253 229 3
253 229 3
60 58 2
184 170 1
224 210 0
210 195 0
210 195 0
60 58 2
2 2 1
2 2 0
0 0 0
0 0 0
0 0 0
0 0 0
0 0 0
0 0 0
0 0 0
0 0 0
0 0 0
0 0 0
0 0 0
0 0 0
0 0 0
0 0 0
0 0 0
0 0 0
0 0 0
0 0 0
0 0 0
0 0 0
0 0 0
2 2 0
0 0 1
10 9 4
10 9 4
24 23 7
60 58 2
55 51 10
119 114 45
161 149 0
99 92 38
46 42 3
161 149 0
119 114 45
119 114 45
99 92 38
18 17 5
210 195 0
253 229 3
161 149 0
99 92 38
254 238 2
161 149 0
4 4 8
26 26 29
22 22 23
20 21 23
22 22 23
24 24 28
26 26 29
24 24 28
10 11 5
99 92 38
224 210 0
253 237 3
239 226 2
255 250 4
60 58 2
76 77 81
99 98 93
0 0 0
3 2 0
123 122 110
41 41 46
99 92 38
255 248 6
255 240 4
193 184 2
16 14 12
85 86 83
10 11 5
0 0 0
3 2 0
2 2 1
2 3 1
2 3 1
2 3 1
2 2 1
2 2 1
2 3 1
2 3 1
2 3 1
2 3 1
3 2 0
3 2 0
2 3 1
4 3 3
5 5 2
1 1 1
40 40 37
54 54 58
55 51 10
253 237 3
255 239 3
239 226 2
24 23 7
68 68 71
60 58 14
67 64 46
36 36 40
60 58 2
255 247 5
255 244 4
193 184 2
4 4 8
82 82 81
10 9 4
0 0 0
0 0 0
0 0 0
0 0 0
0 0 0
0 0 0
0 0 0
0 0 0
0 0 0
0 0 0
0 0 0
0 0 0
0 0 0
0 0 0
0 0 0
1 1 1
0 0 0
32 31 22
74 74 77
24 23 7
238 225 4
255 239 3
239 226 2
24 23 7
68 68 71
67 64 46
46 42 3
89 86 60
24 24 28
161 149 0
255 247 5
255 247 5
107 102 43
28 31 34
68 68 71
0 0 0
2 2 2
1 1 0
1 1 0
1 1 0
0 0 0
0 0 0
0 0 0
0 0 0
0 0 0
0 0 0
0 0 0
0 0 0
0 0 0
0 0 0
0 0 0
2 2 1
0 0 0
62 61 53
45 45 50
60 58 2
255 240 4
255 244 4
184 170 1
10 10 12
68 68 71
46 42 3
60 58 14
59 64 62
46 42 3
238 225 4
254 238 2
238 225 4
24 23 7
68 68 71
25 25 16
2 1 1
0 0 0
53 52 44
68 68 71
0 0 0
161 149 0
255 246 2
239 226 2
254 238 2
255 248 6
255 248 6
255 244 4
255 240 2
254 238 2
255 244 2
255 247 5
255 244 4
253 229 3
255 246 2
224 210 0
24 23 7
16 17 21
76 77 81
3 2 0
3 3 2
1 0 0
32 31 22
59 64 62
46 42 3
238 225 4
254 238 2
238 225 4
24 23 7
68 68 71
60 58 14
46 42 3
46 42 3
59 64 62
10 10 12
193 184 2
255 239 3
255 244 4
60 58 2
34 35 40
80 78 44
48 48 50
46 42 3
161 149 0
161 149 0
161 149 0
161 149 0
161 149 0
161 149 0
161 149 0
161 149 0
161 149 0
161 149 0
161 149 0
161 149 0
161 149 0
161 149 0
161 149 0
161 149 0
161 149 0
184 170 1
161 149 0
161 149 0
184 170 1
239 226 2
255 240 4
253 229 3
255 246 2
60 58 2
0 0 0
82 82 81
34 34 31
0 0 0
5 5 2
3 3 2
2 3 1
2 3 1
6 6 5
0 0 0
62 61 53
102 102 105
18 17 5
224 210 0
254 238 2
255 247 5
60 58 2
59 64 62
124 124 125
0 0 0
0 0 0
0 0 0
0 0 0
0 0 0
0 0 0
0 0 0
0 0 0
0 0 0
6 6 5
135 135 137
45 45 50
119 114 45
255 250 4
239 226 2
254 238 2
184 170 1
55 51 10
12 12 13
26 26 29
22 22 23
20 21 23
20 21 23
24 24 28
24 24 28
22 22 23
10 9 4
210 195 0
238 225 4
46 42 3
184 170 1
253 229 3
184 170 1
24 23 7
119 114 45
161 149 0
119 114 45
119 114 45
32 22 13
99 92 38
161 149 0
161 149 0
46 42 3
99 92 38
46 42 3
24 23 7
18 17 5
0 0 1
4 3 0
0 0 0
0 0 0
0 0 0
0 0 0
0 0 0
0 0 0
0 0 0
0 0 0
0 0 0
0 0 0
0 0 0
0 0 0
0 0 0
0 0 0
0 0 0
0 0 0
0 0 0
0 0 0
0 0 0
0 0 0
0 0 0
0 0 0
0 0 0
2 2 0
0 0 0
0 0 0
0 1 0
0 0 0
6 7 3
0 0 0
0 0 0
0 0 0
0 0 0
0 0 0
0 0 0
0 0 0
0 1 1
10 11 5
210 195 0
253 229 3
161 149 0
99 92 38
253 229 3
161 149 0
0 0 1
6 5 6
4 4 6
4 4 6
5 5 6
6 6 7
6 5 6
3 4 4
0 0 0
0 0 0
24 23 7
216 202 3
253 237 3
255 244 4
224 210 0
32 31 22
102 102 105
10 9 4
2 1 1
123 122 110
42 41 47
99 92 38
255 248 6
255 244 4
193 184 2
16 15 11
82 82 81
10 9 4
0 0 0
2 2 1
2 2 1
2 1 1
2 2 1
2 2 1
1 1 1
1 1 1
1 1 1
2 2 1
2 2 1
1 1 1
1 1 1
1 1 1
2 2 1
2 2 1
3 3 2
0 0 0
40 40 37
54 54 58
60 58 2
253 237 3
254 238 2
239 226 2
24 23 7
68 68 71
60 58 14
67 64 46
41 41 46
60 58 2
255 247 5
255 247 5
193 184 2
4 4 8
85 86 83
10 9 4
0 0 0
0 0 0
0 0 0
0 0 0
0 0 0
0 0 0
0 0 0
0 0 0
0 0 0
0 0 0
0 0 0
0 0 0
0 0 0
0 0 0
0 0 0
1 1 1
0 0 0
32 31 22
74 74 77
24 23 7
239 226 2
255 239 3
239 226 2
24 23 7
68 68 71
74 72 46
46 42 3
89 86 60
24 24 28
161 149 0
255 247 5
255 247 5
107 102 43
28 31 34
68 68 71
0 0 0
2 2 2
1 1 0
1 1 0
1 1 0
1 1 0
0 0 0
0 0 0
0 0 0
0 0 0
0 0 0
0 0 0
0 0 0
0 0 0
0 0 0
0 0 0
2 2 1
0 0 0
53 60 47
45 45 50
60 58 2
255 244 4
255 244 4
184 170 1
10 10 12
74 72 46
46 42 3
60 58 14
59 64 62
46 42 3
238 225 4
254 238 2
238 225 4
24 23 7
68 68 71
25 25 16
1 1 0
0 0 0
34 34 31
82 82 81
2 4 2
10 9 4
161 149 0
255 248 6
255 248 6
255 244 2
255 244 2
255 244 2
255 240 2
255 240 2
255 244 2
255 244 2
255 244 2
255 250 4
224 210 0
60 58 2
0 0 0
51 51 55
68 68 71
0 0 0
5 5 2
0 0 0
32 31 22
59 64 62
46 42 3
238 225 4
255 239 3
238 225 4
24 23 7
68 68 71
60 58 14
46 42 3
46 42 3
59 64 62
10 10 12
210 195 0
255 240 4
255 247 5
60 58 2
24 24 28
44 42 32
12 11 11
193 184 2
255 250 4
255 247 5
255 247 5
255 246 2
255 244 2
255 244 2
255 244 2
255 244 2
255 244 2
255 244 2
255 244 2
255 244 2
255 246 2
255 246 2
255 244 2
255 244 2
255 244 2
255 244 2
255 244 2
255 247 5
255 244 4
253 229 3
253 229 3
255 252 2
161 149 0
1 0 0
18 18 18
90 90 92
16 15 11
1 1 0
5 5 2
2 3 1
2 3 1
2 3 1
6 5 2
0 0 0
53 60 47
102 102 105
18 17 5
224 210 0
255 239 3
255 247 5
60 58 2
54 54 58
123 122 110
0 0 0
0 0 0
0 0 0
0 0 0
0 0 0
0 0 0
0 0 0
2 2 2
0 0 0
52 57 52
116 116 120
24 23 7
238 225 4
253 237 3
255 247 5
161 149 0
2 1 1
0 0 0
3 3 2
5 5 6
5 5 6
4 4 6
4 4 6
4 4 6
3 4 4
3 4 4
10 9 4
193 184 2
224 210 0
60 58 2
193 184 2
253 229 3
184 170 1
0 0 0
0 0 0
0 0 0
0 0 0
0 0 1
10 9 4
2 3 1
0 0 1
0 0 0
2 2 0
0 0 0
0 0 0
0 0 1
0 1 0
2 3 1
0 0 0
0 0 0
0 0 0
0 0 0
0 0 0
0 0 0
0 0 0
0 0 0
0 0 0
0 0 0
0 0 0
0 0 0
0 0 0
0 0 0
0 0 0
0 0 0
0 0 0
0 0 0
0 0 0
0 0 0
0 0 0
0 0 0
0 0 0
0 0 0
0 0 0
1 1 0
1 0 0
1 1 0
4 3 0
2 2 0
4 3 0
4 3 0
4 3 0
3 2 0
4 3 0
4 3 0
4 3 0
10 9 4
18 17 5
161 149 0
210 195 0
107 102 43
99 92 38
253 229 3
161 149 0
3 2 3
13 13 13
10 11 12
12 12 13
10 10 12
7 7 7
3 3 3
0 0 0
5 5 6
6 5 2
0 0 0
60 58 2
255 248 6
253 237 3
255 248 6
99 92 38
54 54 58
32 31 22
2 1 1
123 122 110
42 41 47
99 92 38
255 248 6
255 244 4
193 184 2
15 13 11
82 82 81
10 11 5
0 0 0
2 2 1
2 2 1
2 1 1
2 1 1
2 1 1
1 1 1
1 1 1
1 1 1
1 1 1
1 1 1
1 1 1
1 1 1
1 1 1
2 2 1
2 2 1
3 3 2
0 0 0
40 40 37
51 51 55
60 58 2
253 237 3
253 237 3
239 226 2
24 23 7
68 68 71
60 58 14
67 64 46
41 41 46
60 58 2
255 247 5
255 248 6
193 184 2
4 4 8
90 90 92
10 9 4
0 0 0
0 0 0
0 0 0
0 0 0
0 0 0
1 1 0
1 1 0
1 1 0
0 0 0
0 0 0
0 0 0
0 0 0
0 0 0
0 0 0
0 0 0
1 1 1
0 0 0
32 31 22
74 74 77
24 23 7
239 226 2
255 239 3
239 226 2
24 23 7
68 68 71
74 72 46
46 42 3
89 86 60
24 24 28
161 149 0
255 247 5
255 247 5
107 102 43
28 31 34
68 68 71
0 0 0
2 2 2
1 1 0
1 1 0
1 1 0
1 1 0
1 1 0
0 0 0
0 0 0
0 0 0
0 0 0
0 0 0
0 0 0
0 0 0
0 0 0
0 0 0
2 2 1
0 0 0
53 60 47
45 45 50
60 58 2
255 244 4
255 244 4
184 170 1
10 10 12
89 86 60
46 42 3
60 58 14
59 64 62
46 42 3
238 225 4
254 238 2
238 225 4
24 23 7
68 68 71
25 25 16
1 0 0
2 3 1
10 9 4
85 86 83
44 42 44
0 0 0
5 5 2
99 92 38
184 170 1
193 184 2
193 184 2
193 184 2
193 184 2
193 184 2
193 184 2
193 184 2
184 170 1
119 114 45
24 23 7
0 0 0
9 9 9
94 95 98
34 34 31
0 0 0
4 3 3
0 0 0
32 31 22
59 64 62
46 42 3
238 225 4
255 240 4
238 225 4
24 23 7
68 68 71
60 58 14
46 42 3
46 42 3
59 64 62
10 11 12
210 195 0
255 240 4
255 247 5
60 58 2
6 6 5
24 23 7
46 42 3
253 229 3
253 237 3
253 237 3
255 248 6
255 250 4
255 250 4
255 250 4
255 250 4
255 250 4
255 250 4
255 250 4
255 246 2
255 246 2
255 250 4
255 250 4
255 250 4
255 250 4
255 250 4
255 250 4
255 250 4
255 248 6
255 250 4
255 250 4
238 225 4
119 114 45
3 3 2
0 0 0
68 68 71
82 82 81
3 2 0
4 3 3
3 3 2
4 3 0
2 3 1
2 3 1
7 6 3
0 0 0
53 60 47
102 102 105
18 17 5
224 210 0
255 239 3
255 248 6
60 58 2
54 54 58
113 112 110
0 0 0
0 0 1
0 0 0
0 0 0
0 0 0
0 0 0
0 0 0
2 1 2
0 0 0
101 101 93
59 58 59
99 92 38
255 250 4
253 237 3
224 210 0
24 23 7
0 0 0
10 11 5
0 0 1
2 1 1
7 7 7
9 9 9
7 8 10
12 11 11
14 14 14
10 10 10
10 9 4
210 195 0
253 229 3
60 58 2
161 149 0
210 195 0
119 114 45
1 1 1
7 6 3
6 5 2
6 5 2
6 5 2
4 3 0
6 5 2
4 3 0
4 3 0
3 2 0
3 2 0
1 1 0
1 0 0
1 0 0
0 0 0
0 0 0
0 0 0
0 0 0
0 0 0
0 0 0
0 0 0
0 0 0
0 0 0
0 0 0
0 0 0
0 0 0
0 0 0
0 0 0
0 0 0
0 0 0
0 0 0
0 0 0
0 0 0
0 0 0
0 0 0
0 0 0
0 0 0
0 0 0
0 0 0
0 0 0
0 0 0
0 0 0
0 0 0
0 0 0
0 0 0
0 0 0
0 0 0
0 0 0
0 0 0
0 0 0
0 0 0
0 0 0
1 1 0
3 2 0
7 6 3
18 17 5
7 6 3
32 22 13
60 58 2
24 23 7
20 20 18
74 74 77
90 90 92
102 102 105
102 102 105
113 112 110
116 116 120
116 116 120
130 130 134
116 116 120
20 20 18
4 3 0
193 184 2
255 248 6
255 244 4
184 170 1
24 24 28
44 42 32
10 9 4
127 128 122
42 41 47
99 92 38
255 248 6
255 244 4
193 184 2
15 13 11
82 82 81
10 11 5
0 0 0
2 2 1
2 2 1
2 2 1
2 2 1
2 2 1
2 2 1
2 2 1
2 2 1
2 2 1
2 2 1
2 2 1
2 2 1
2 2 1
2 2 1
2 2 1
3 3 2
0 0 0
45 45 44
54 54 58
46 42 3
253 237 3
253 237 3
239 226 2
24 23 7
68 68 71
60 58 14
67 64 46
36 36 40
60 58 2
255 244 4
255 248 6
193 184 2
4 4 8
90 90 92
10 11 5
0 0 0
2 1 1
0 0 0
0 0 0
0 0 0
1 1 0
1 1 0
1 1 0
1 1 0
1 1 0
0 0 0
1 1 0
1 1 0
0 0 0
0 0 0
2 2 1
0 0 0
32 31 22
76 77 81
24 23 7
238 225 4
255 239 3
239 226 2
24 23 7
68 68 71
74 72 46
46 42 3
89 86 60
20 21 23
161 149 0
255 247 5
255 247 5
107 102 43
28 31 34
68 68 71
0 0 0
2 2 2
1 1 0
1 1 0
1 1 0
0 0 0
1 1 0
0 0 0
0 0 0
0 0 0
0 0 0
0 0 0
0 0 0
0 0 0
0 0 0
0 0 0
2 2 1
0 0 0
62 61 53
45 45 50
60 58 2
255 244 4
255 244 2
184 170 1
10 10 12
89 86 60
46 42 3
60 58 14
59 64 62
46 42 3
238 225 4
255 239 3
238 225 4
24 23 7
68 68 71
20 20 18
0 0 0
5 5 2
0 0 0
45 45 44
113 112 110
28 28 27
0 0 0
0 0 0
0 0 0
0 0 1
0 0 1
1 0 0
3 2 0
4 3 0
2 2 1
2 2 2
0 0 1
0 0 0
0 0 0
4 3 3
76 77 81
85 86 83
2 2 1
2 2 1
3 3 2
0 0 0
32 31 22
59 64 62
46 42 3
238 225 4
255 239 3
238 225 4
24 23 7
68 68 71
60 58 14
46 42 3
46 42 3
59 64 62
10 11 12
210 195 0
255 244 4
255 247 5
60 58 2
5 5 2
24 23 7
46 42 3
239 226 2
253 237 3
255 240 4
184 170 1
161 149 0
161 149 0
161 149 0
161 149 0
161 149 0
161 149 0
161 149 0
161 149 0
161 149 0
161 149 0
161 149 0
161 149 0
161 149 0
161 149 0
161 149 0
161 149 0
161 149 0
161 149 0
99 92 38
46 42 3
0 0 1
0 0 0
34 34 31
101 101 93
32 31 22
3 2 0
5 5 2
4 3 0
4 3 0
4 3 0
4 3 0
7 6 3
0 0 0
62 61 53
102 102 105
18 17 5
224 210 0
255 239 3
255 250 4
60 58 2
54 54 58
113 112 110
0 0 0
0 0 1
0 0 0
0 0 0
0 0 0
0 0 0
0 1 1
0 0 0
6 6 5
124 124 125
28 28 27
184 170 1
255 244 4
255 246 2
161 149 0
0 0 0
38 38 35
130 130 134
118 118 122
116 116 120
113 112 110
102 102 105
85 86 83
68 68 71
48 48 50
32 31 22
6 5 2
46 42 3
60 58 2
18 17 5
10 9 4
18 17 5
6 5 2
3 2 0
0 0 0
0 0 0
0 0 0
0 0 0
0 0 0
0 0 0
0 0 0
0 0 0
0 0 0
0 0 0
0 0 0
0 0 0
0 0 0
0 0 0
0 0 0
0 0 0
0 0 0
0 0 0
0 0 0
0 0 0
0 0 0
0 0 0
0 0 0
0 0 0
0 0 0
0 0 0
0 0 0
0 0 0
0 0 0
0 0 0
0 0 0
0 0 0
0 0 0
0 0 0
0 0 0
0 0 0
0 0 0
0 0 0
0 0 0
0 0 0
0 0 0
0 0 0
0 0 0
0 0 0
0 0 0
0 0 0
0 0 0
0 0 0
0 0 0
0 0 0
0 0 0
0 0 0
0 0 0
1 1 0
0 0 0
3 2 0
2 3 1
0 0 1
0 0 0
2 2 0
1 1 0
5 5 2
7 7 7
17 16 16
34 34 31
45 45 44
51 51 55
52 57 52
135 135 137
118 118 122
0 0 1
99 92 38
255 244 2
253 229 3
224 210 0
32 31 22
53 52 44
24 23 7
127 128 122
42 41 47
99 92 38
255 248 6
255 244 4
193 184 2
16 15 11
85 86 83
10 11 5
1 1 1
3 3 2
3 3 2
3 3 2
3 3 2
3 3 2
3 3 2
3 3 2
3 3 2
3 3 2
3 3 2
3 3 2
3 3 2
3 3 2
3 3 2
3 3 2
5 5 2
1 1 1
53 52 44
54 54 58
46 42 3
253 237 3
253 237 3
239 226 2
24 23 7
68 68 71
60 58 14
67 64 46
41 41 46
60 58 2
255 247 5
255 247 5
193 184 2
4 4 8
85 86 83
10 11 5
1 1 1
2 3 1
2 2 1
2 2 1
2 2 1
2 2 1
2 2 1
2 2 1
2 2 1
2 3 1
2 2 1
2 3 1
2 3 1
2 2 1
2 2 1
3 3 2
2 1 1
32 31 22
74 74 77
24 23 7
238 225 4
255 239 3
239 226 2
24 23 7
68 68 71
74 72 46
46 42 3
89 86 60
20 21 23
161 149 0
255 247 5
255 247 5
119 114 45
28 31 34
89 86 60
2 1 1
4 3 3
2 2 1
2 2 1
2 2 1
2 2 1
2 2 1
2 2 1
1 1 1
1 1 1
1 1 1
1 1 1
1 1 1
1 1 1
1 1 1
1 1 1
3 3 2
1 1 1
67 64 46
51 51 55
60 58 2
255 240 4
255 244 2
193 184 2
10 10 12
89 86 60
55 51 10
60 58 14
68 68 71
46 42 3
238 225 4
255 239 3
238 225 4
24 23 7
68 68 71
20 20 18
0 0 0
3 3 2
3 3 2
2 2 0
68 68 71
113 112 110
45 45 44
7 6 3
0 0 0
0 0 0
0 0 0
0 0 0
0 0 0
0 0 0
0 0 0
0 0 0
0 0 0
2 2 0
27 27 24
84 83 84
101 101 93
20 20 18
0 0 1
2 2 2
3 3 2
0 0 0
32 31 22
59 64 62
46 42 3
238 225 4
255 239 3
238 225 4
24 23 7
68 68 71
60 58 14
46 42 3
55 51 10
70 68 47
10 11 12
210 195 0
255 240 4
255 244 4
60 58 2
6 5 2
24 23 7
46 42 3
239 226 2
253 237 3
255 244 2
60 58 2
0 0 0
0 0 0
0 0 0
0 0 0
0 0 0
0 0 0
0 0 0
0 0 0
0 0 0
0 0 0
0 0 0
0 0 0
0 0 0
0 0 0
0 0 0
0 0 0
0 0 0
0 0 0
0 0 0
0 0 0
2 1 1
39 39 41
102 102 105
62 61 53
10 9 4
10 9 4
6 5 2
6 5 2
6 5 2
5 5 2
7 6 3
10 9 4
1 1 1
62 61 53
113 112 110
18 17 5
224 210 0
255 239 3
255 248 6
60 58 2
54 54 58
113 112 110
0 0 0
1 1 1
0 0 0
0 0 0
0 0 0
0 0 0
1 1 1
0 0 0
32 31 22
116 116 120
24 23 7
224 210 0
255 239 3
255 244 4
60 58 2
4 4 8
130 130 134
102 102 105
48 48 50
45 45 44
28 28 27
13 13 13
6 6 5
0 0 0
0 0 0
0 0 0
3 2 0
0 0 1
0 0 1
2 3 1
2 2 0
1 1 0
4 3 0
0 0 0
0 0 0
0 0 0
0 0 0
0 0 0
0 0 0
0 0 0
0 0 0
0 0 0
0 0 0
0 0 0
0 0 0
0 0 0
0 0 0
0 0 0
0 0 0
0 0 0
0 0 0
0 0 0
0 0 0
0 0 0
0 0 0
0 0 0
0 0 0
0 0 0
0 0 0
0 0 0
0 0 0
0 0 0
0 0 0
0 0 0
0 0 0
0 0 0
0 0 0
0 0 0
0 0 0
0 0 0
0 0 0
0 0 0
0 0 0
0 0 0
0 0 0
0 0 0
0 0 0
0 0 0
0 0 0
0 0 0
0 0 0
0 0 0
0 0 0
0 0 0
0 0 0
0 0 0
0 0 0
0 0 0
1 1 0
0 0 0
0 0 0
2 2 0
1 1 0
0 0 0
0 0 0
0 0 0
0 0 0
0 0 0
0 0 0
0 0 0
0 0 0
0 0 0
34 34 31
149 150 146
34 35 40
24 23 7
239 226 2
239 226 2
255 244 2
99 92 38
38 38 35
55 51 10
127 128 122
42 41 47
99 92 38
255 248 6
255 240 4
193 184 2
16 15 11
85 86 83
10 10 10
0 0 0
0 0 0
0 0 0
0 0 0
0 0 0
0 0 0
0 0 0
0 0 0
0 0 0
0 0 0
0 0 0
0 0 0
0 0 0
0 0 0
0 0 0
0 0 0
0 0 0
0 0 0
53 52 44
59 58 59
60 58 2
253 237 3
253 237 3
239 226 2
24 23 7
68 68 71
60 58 14
67 64 46
41 41 46
60 58 2
255 244 2
255 244 4
184 170 1
4 4 8
85 86 83
6 5 2
0 0 0
0 0 0
0 0 0
0 0 0
0 0 0
0 0 0
0 0 0
0 0 0
0 0 0
0 0 0
0 0 0
0 0 0
0 0 0
0 0 0
0 0 0
0 0 0
0 0 0
25 25 16
76 77 81
24 23 7
238 225 4
254 238 2
239 226 2
24 23 7
68 68 71
74 72 46
46 42 3
80 78 44
16 17 21
161 149 0
255 244 4
255 247 5
99 92 38
33 33 38
89 86 60
0 0 0
0 0 0
0 0 0
0 0 0
0 0 0
0 0 0
0 0 0
0 0 0
0 0 0
0 0 0
0 0 0
0 0 0
0 0 0
0 0 0
0 0 0
0 0 0
0 0 0
0 0 0
67 64 46
51 51 55
60 58 2
255 244 4
255 244 4
193 184 2
12 12 13
89 86 60
60 58 2
60 58 14
59 64 62
46 42 3
238 225 4
255 239 3
238 225 4
24 23 7
68 68 71
20 20 18
0 0 0
3 3 2
2 3 1
2 2 1
2 3 1
59 64 62
102 102 105
90 90 92
68 68 71
59 58 59
59 58 59
59 58 59
59 64 62
59 58 59
59 64 62
59 64 62
59 64 62
85 86 83
113 112 110
85 86 83
20 20 18
0 0 0
2 2 2
1 1 1
2 2 2
0 0 0
32 31 22
59 64 62
46 42 3
238 225 4
254 238 2
238 225 4
24 23 7
68 68 71
60 58 14
55 51 10
55 51 10
70 68 47
10 11 12
210 195 0
255 239 3
255 244 4
60 58 2
6 5 2
24 23 7
46 42 3
239 226 2
253 237 3
253 237 3
60 58 2
1 1 0
4 3 0
4 3 0
2 1 1
1 0 0
0 0 0
0 0 0
1 0 0
0 0 0
0 0 0
0 0 0
0 0 0
0 0 0
1 0 0
2 1 1
0 0 0
0 0 0
1 1 0
6 7 3
23 23 23
68 68 71
102 102 105
67 64 46
10 9 4
10 9 4
2 2 0
0 0 0
0 0 0
0 0 0
0 0 0
0 0 0
2 1 1
0 0 0
62 61 53
113 112 110
18 17 5
224 210 0
255 239 3
255 248 6
60 58 2
59 64 62
113 112 110
0 0 0
1 1 1
0 0 0
0 0 0
0 0 0
0 0 0
2 2 2
0 0 0
52 57 52
102 102 105
24 23 7
253 229 3
253 237 3
255 247 5
46 42 3
47 45 50
144 143 148
10 10 10
0 0 0
0 0 0
0 0 0
0 0 0
0 0 0
0 0 0
1 1 1
1 1 1
0 0 0
2 2 0
2 2 0
0 0 0
0 0 0
0 0 0
0 0 0
0 0 0
0 0 0
0 0 0
0 0 0
0 0 0
0 0 0
0 0 0
0 0 0
0 0 0
0 0 0
0 0 0
0 0 0
0 0 0
0 0 0
0 0 0
0 0 0
0 0 0
0 0 0
0 0 0
0 0 0
0 0 0
0 0 0
0 0 0
0 0 0
0 0 0
0 0 0
0 0 0
0 0 0
0 0 0
0 0 0
0 0 0
0 0 0
0 0 0
0 0 0
0 0 0
0 0 0
0 0 0
0 0 0
0 0 0
0 0 0
0 0 0
0 0 0
0 0 0
0 0 0
0 0 0
0 0 0
0 0 0
0 0 0
0 0 0
0 0 0
0 0 0
0 0 0
0 0 0
0 0 0
0 0 0
0 0 0
0 0 0
0 0 0
0 0 0
0 0 0
0 0 0
0 0 0
0 0 0
0 0 0
1 1 1
1 1 1
2 2 2
2 2 2
3 3 3
0 0 0
113 112 110
91 91 95
0 0 0
184 170 1
254 238 2
255 240 4
193 184 2
18 17 5
60 58 14
146 145 141
45 45 50
99 92 38
255 248 6
255 239 3
193 184 2
15 13 11
91 90 77
24 23 7
32 31 22
53 52 44
53 52 44
53 52 44
53 52 44
53 52 44
53 52 44
53 52 44
53 52 44
53 52 44
44 42 32
44 42 32
53 52 44
53 52 44
53 52 44
53 52 44
44 42 32
53 52 44
91 90 77
16 17 21
161 149 0
255 244 4
253 237 3
224 210 0
10 9 4
68 68 71
44 42 32
53 52 44
36 36 40
60 58 2
255 239 3
254 238 2
216 202 3
10 9 4
82 82 81
74 72 46
53 52 44
53 52 44
53 52 44
53 52 44
53 52 44
53 52 44
53 52 44
53 52 44
53 52 44
53 52 44
53 52 44
53 52 44
53 52 44
53 52 44
53 52 44
53 52 44
53 52 44
91 90 77
59 64 62
46 42 3
253 237 3
253 237 3
238 225 4
18 17 5
68 68 71
60 58 14
24 23 7
74 72 46
16 17 21
161 149 0
255 244 4
255 250 4
161 149 0
16 17 21
104 103 92
67 64 46
53 52 44
53 52 44
53 52 44
53 52 44
53 52 44
53 52 44
53 52 44
44 42 32
44 42 32
44 42 32
44 42 32
44 42 32
44 42 32
44 42 32
44 42 32
44 42 32
53 52 44
104 103 92
33 33 38
99 92 38
255 248 6
255 244 4
184 170 1
10 10 12
91 90 77
99 92 38
99 92 38
74 74 77
46 42 3
238 225 4
254 238 2
238 225 4
24 23 7
68 68 71
20 20 18
0 0 0
3 3 2
2 2 1
2 2 1
1 1 1
0 0 0
20 20 18
51 51 55
74 74 77
85 86 83
85 86 83
85 86 83
88 87 91
85 86 83
85 86 83
85 86 83
85 86 83
68 68 71
37 37 37
2 2 1
0 0 0
2 2 2
1 1 0
1 1 0
2 2 1
0 0 0
32 31 22
59 64 62
46 42 3
238 225 4
255 239 3
238 225 4
24 23 7
82 82 81
80 78 44
60 58 14
60 58 14
91 90 77
12 12 13
193 184 2
255 240 4
255 247 5
60 58 2
12 11 11
32 22 13
46 42 3
239 226 2
253 237 3
255 239 3
60 58 2
28 31 34
68 68 71
68 68 71
74 74 77
74 74 77
74 74 77
71 72 76
74 74 77
74 74 77
74 74 77
74 74 77
74 74 77
74 74 77
82 82 81
82 82 81
82 82 81
82 82 81
85 86 83
94 95 98
102 102 105
113 112 110
91 90 77
74 72 46
70 68 47
67 64 46
67 64 46
53 52 44
67 64 46
67 64 46
67 64 46
67 64 46
67 64 46
67 64 46
104 103 92
113 112 110
18 17 5
224 210 0
253 237 3
255 247 5
60 58 2
59 64 62
113 112 110
0 0 0
1 1 1
0 0 0
0 0 0
0 0 0
0 0 0
3 2 3
0 0 0
85 86 83
84 83 84
60 58 2
255 240 4
253 237 3
238 225 4
18 17 5
91 91 95
113 112 110
0 0 0
3 3 3
2 2 2
1 1 1
1 1 0
0 0 0
0 0 0
0 0 0
0 0 0
0 0 0
0 0 0
0 0 0
0 0 0
0 0 0
0 0 0
0 0 0
0 0 0
0 0 0
0 0 0
0 0 0
0 0 0
0 0 0
0 0 0
0 0 0
0 0 0
0 0 0
0 0 0
0 0 0
0 0 0
0 0 0
0 0 0
0 0 0
0 0 0
0 0 0
0 0 0
0 0 0
0 0 0
0 0 0
0 0 0
0 0 0
0 0 0
0 0 0
0 0 0
0 0 0
0 0 0
0 0 0
0 0 0
0 0 0
0 0 0
0 0 0
0 0 0
0 0 0
0 0 0
0 0 0
0 0 0
0 0 0
0 0 0
0 0 0
0 0 0
0 0 0
0 0 0
0 0 0
0 0 0
0 0 0
0 0 0
0 0 0
0 0 0
0 0 0
0 0 0
0 0 0
0 0 0
0 0 0
0 0 0
0 0 0
0 0 0
0 0 0
0 0 0
0 0 0
0 0 0
0 0 0
0 0 0
0 0 0
0 0 0
0 0 0
2 2 2
1 1 1
59 64 62
132 132 135
0 0 1
99 92 38
255 248 6
253 229 3
255 248 6
119 114 45
10 9 4
123 122 110
33 33 38
99 92 38
255 248 6
255 240 4
210 195 0
16 15 11
85 86 83
91 90 77
82 82 81
54 54 58
54 54 58
54 54 58
54 54 58
54 54 58
54 54 58
54 54 58
54 54 58
51 51 55
51 51 55
51 51 55
51 51 55
54 54 58
54 54 58
54 54 58
51 51 55
51 51 55
24 24 28
60 58 2
253 229 3
253 229 3
255 250 4
161 149 0
0 0 4
76 77 81
40 37 22
44 42 32
41 41 46
24 23 7
253 229 3
253 229 3
255 248 6
161 149 0
22 20 11
43 43 48
41 41 46
39 39 41
36 36 40
36 36 40
36 36 40
39 39 41
39 39 41
39 39 41
36 36 40
39 39 41
41 41 46
41 41 46
39 39 41
41 41 46
39 39 41
36 36 40
39 39 41
39 39 41
32 22 13
193 184 2
255 244 4
255 240 2
193 184 2
4 3 0
68 68 71
40 37 22
18 17 5
67 64 46
16 17 21
99 92 38
255 248 6
253 237 3
238 225 4
46 42 3
26 26 29
54 54 58
51 51 55
51 51 55
51 51 55
51 51 55
51 51 55
51 51 55
51 51 55
51 51 55
51 51 55
45 45 50
45 45 50
51 51 55
45 45 50
45 45 50
51 51 55
51 51 55
54 54 58
41 41 46
24 23 7
210 195 0
253 237 3
255 240 4
210 195 0
2 2 5
45 45 50
59 58 59
59 64 62
28 31 34
60 58 2
253 237 3
253 237 3
238 225 4
18 17 5
68 68 71
19 19 18
0 0 0
2 2 2
1 1 1
1 1 1
2 1 1
2 2 2
0 0 0
0 0 0
0 0 0
0 0 0
0 0 0
0 0 0
0 0 0
0 0 0
0 0 0
0 0 0
0 0 0
0 0 0
0 0 0
0 0 0
2 2 1
1 1 0
1 1 0
1 1 0
2 2 1
0 0 0
32 31 22
59 64 62
46 42 3
238 225 4
253 237 3
253 237 3
46 42 3
28 31 34
43 43 48
28 28 27
37 37 37
34 35 40
18 17 5
224 210 0
253 237 3
255 248 6
60 58 2
28 31 34
40 37 22
46 42 3
239 226 2
253 237 3
255 244 4
60 58 2
41 41 46
101 101 93
85 86 83
44 44 49
34 35 40
34 35 40
33 33 38
34 35 40
34 35 40
34 35 40
34 35 40
34 35 40
34 35 40
34 35 40
36 36 40
36 36 40
36 36 40
39 39 41
34 35 40
33 33 38
33 33 38
34 35 40
39 39 41
39 39 41
39 39 41
41 41 46
43 43 48
43 43 48
44 44 49
47 45 50
48 48 50
48 48 50
47 45 50
51 51 55
16 17 21
60 58 2
239 226 2
253 237 3
255 247 5
60 58 2
59 64 62
113 112 110
0 0 0
1 1 1
0 0 0
0 0 0
0 0 0
1 0 0
1 0 0
4 3 0
127 128 122
42 41 47
119 114 45
255 247 5
255 239 3
210 195 0
4 3 0
116 116 120
84 83 84
0 1 0
2 2 2
0 0 0
0 0 0
0 0 0
0 0 0
0 0 0
0 0 0
0 0 0
0 0 0
0 0 0
0 0 0
0 0 0
0 0 0
0 0 0
0 0 0
0 0 0
0 0 0
0 0 0
0 0 0
0 0 0
0 0 0
0 0 0
0 0 0
0 0 0
0 0 0
0 0 0
0 0 0
0 0 0
0 0 0
0 0 0
0 0 0
0 0 0
0 0 0
0 0 0
0 0 0
0 0 0
0 0 0
0 0 0
0 0 0
0 0 0
0 0 0
0 0 0
0 0 0
0 0 0
0 0 0
0 0 0
0 0 0
0 0 0
0 0 0
0 0 0
0 0 0
0 0 0
0 0 0
0 0 0
0 0 0
0 0 0
0 0 0
0 0 0
0 0 0
0 0 0
0 0 0
0 0 0
0 0 0
0 0 0
0 0 0
0 0 0
0 0 0
0 0 0
0 0 0
0 0 0
0 0 0
0 0 0
0 0 0
0 0 0
0 0 0
0 0 0
0 0 0
0 0 0
0 0 0
0 0 0
0 0 0
0 0 0
0 0 0
1 1 1
0 0 0
23 23 23
146 145 141
36 36 40
10 9 4
210 195 0
255 247 5
253 229 3
253 237 3
119 114 45
24 23 7
46 42 3
210 195 0
255 240 4
255 248 6
184 170 1
7 7 7
102 102 105
54 54 58
24 23 7
99 92 38
119 114 45
119 114 45
119 114 45
119 114 45
119 114 45
119 114 45
119 114 45
119 114 45
119 114 45
119 114 45
119 114 45
119 114 45
119 114 45
107 102 43
119 114 45
119 114 45
184 170 1
255 239 3
253 237 3
253 237 3
253 237 3
46 42 3
10 10 12
85 86 83
24 23 7
44 42 32
59 64 62
2 1 1
184 170 1
255 248 6
253 229 3
255 247 5
210 195 0
161 149 0
161 149 0
161 149 0
161 149 0
161 149 0
161 149 0
161 149 0
161 149 0
161 149 0
161 149 0
161 149 0
161 149 0
161 149 0
161 149 0
161 149 0
161 149 0
161 149 0
161 149 0
161 149 0
224 210 0
255 247 5
253 229 3
255 248 6
119 114 45
2 2 5
74 74 77
32 31 22
18 17 5
62 61 53
33 33 38
24 23 7
238 225 4
253 237 3
255 240 4
238 225 4
161 149 0
119 114 45
161 149 0
119 114 45
119 114 45
119 114 45
119 114 45
119 114 45
119 114 45
119 114 45
119 114 45
119 114 45
119 114 45
119 114 45
119 114 45
119 114 45
119 114 45
119 114 45
119 114 45
161 149 0
224 210 0
255 240 2
253 229 3
253 229 3
253 237 3
184 170 1
99 92 38
107 102 43
99 92 38
99 92 38
210 195 0
255 240 4
254 238 2
210 195 0
10 9 4
71 72 76
20 20 18
0 0 0
2 2 1
1 1 0
1 1 0
1 1 1
1 1 1
2 2 2
2 2 2
2 2 2
1 1 1
1 1 1
1 1 1
1 1 1
1 1 1
1 1 1
1 1 1
1 1 1
2 2 2
2 2 1
1 1 0
1 1 0
1 1 0
1 1 0
1 1 0
2 2 1
0 0 0
32 31 22
59 64 62
18 17 5
224 210 0
253 237 3
255 240 4
210 195 0
119 114 45
99 92 38
99 92 38
99 92 38
99 92 38
184 170 1
255 240 4
253 229 3
253 237 3
46 42 3
51 51 55
53 52 44
46 42 3
239 226 2
253 237 3
255 248 6
60 58 2
51 51 55
102 102 105
14 14 14
99 92 38
161 149 0
161 149 0
161 149 0
161 149 0
161 149 0
161 149 0
161 149 0
161 149 0
161 149 0
161 149 0
161 149 0
161 149 0
161 149 0
161 149 0
161 149 0
161 149 0
161 149 0
161 149 0
161 149 0
161 149 0
161 149 0
161 149 0
161 149 0
161 149 0
161 149 0
161 149 0
161 149 0
161 149 0
161 149 0
161 149 0
161 149 0
224 210 0
255 240 4
253 237 3
253 229 3
24 23 7
68 68 71
113 112 110
0 0 0
1 1 1
0 0 0
0 0 0
0 0 0
2 2 2
0 0 0
44 42 32
135 135 137
19 19 18
210 195 0
255 239 3
255 246 2
161 149 0
0 0 4
135 135 137
52 57 52
0 0 0
2 2 2
0 0 0
0 0 0
0 0 0
0 0 0
0 0 0
0 0 0
0 0 0
0 0 0
0 0 0
0 0 0
0 0 0
0 0 0
0 0 0
0 0 0
0 0 0
0 0 0
0 0 0
0 0 0
0 0 0
0 0 0
0 0 0
0 0 0
0 0 0
0 0 0
0 0 0
0 0 0
0 0 0
0 0 0
0 0 0
0 0 0
0 0 0
0 0 0
0 0 0
0 0 0
0 0 0
0 0 0
0 0 0
0 0 0
0 0 0
0 0 0
0 0 0
0 0 0
0 0 0
0 0 0
0 0 0
0 0 0
0 0 0
0 0 0
0 0 0
0 0 0
0 0 0
0 0 0
0 0 0
0 0 0
0 0 0
0 0 0
0 0 0
0 0 0
0 0 0
0 0 0
0 0 0
0 0 0
0 0 0
0 0 0
0 0 0
0 0 0
0 0 0
0 0 0
0 0 0
0 0 0
0 0 0
0 0 0
0 0 0
0 0 0
0 0 0
0 0 0
0 0 0
0 0 0
0 0 0
0 0 0
0 0 0
0 0 0
0 0 0
1 1 1
0 0 0
113 112 110
102 102 105
0 0 0
55 51 10
239 226 2
253 229 3
239 226 2
255 244 2
238 225 4
239 226 2
255 240 2
253 229 3
255 250 4
119 114 45
4 4 8
52 57 52
24 23 7
224 210 0
255 252 2
255 252 2
255 250 4
255 250 4
255 250 4
255 250 4
255 250 4
255 250 4
255 252 2
255 250 4
255 250 4
255 252 2
255 250 4
255 250 4
255 250 4
255 250 4
255 250 4
255 247 5
253 229 3
255 240 2
255 240 2
99 92 38
0 0 0
45 45 44
82 82 81
10 9 4
32 31 22
74 74 77
6 6 7
46 42 3
224 210 0
255 246 2
239 226 2
254 238 2
255 244 2
255 244 2
255 247 5
255 247 5
255 247 5
255 247 5
255 247 5
255 246 2
255 246 2
255 246 2
255 246 2
255 246 2
255 246 2
255 244 2
255 247 5
255 247 5
255 247 5
255 248 6
255 248 6
254 238 2
253 229 3
255 252 2
193 184 2
10 9 4
24 24 28
85 86 83
18 17 5
10 9 4
53 52 44
68 68 71
0 0 0
99 92 38
255 250 4
253 237 3
253 237 3
255 248 6
255 250 4
255 250 4
255 250 4
255 250 4
255 250 4
255 250 4
255 250 4
255 250 4
255 250 4
255 250 4
255 250 4
255 250 4
255 250 4
255 250 4
255 250 4
255 250 4
255 250 4
255 250 4
255 248 6
255 240 4
253 237 3
255 246 2
255 239 3
253 229 3
255 244 2
255 252 2
255 250 4
255 250 4
255 250 4
255 240 4
253 229 3
255 250 4
161 149 0
0 0 4
82 82 81
17 16 16
0 0 0
2 2 1
1 1 0
1 1 0
1 1 0
1 1 0
1 1 0
1 1 0
1 1 0
1 1 0
1 1 0
1 1 0
1 1 0
1 1 0
1 1 0
1 1 0
1 1 0
1 1 0
1 1 0
1 1 0
1 1 0
1 1 0
1 1 0
1 1 0
2 2 1
0 0 0
25 25 16
82 82 81
0 0 1
161 149 0
255 250 4
239 226 2
253 237 3
255 250 4
255 244 2
255 246 2
255 250 4
255 250 4
255 244 2
239 226 2
255 244 2
193 184 2
3 2 0
68 68 71
68 68 71
46 42 3
239 226 2
253 237 3
255 244 4
60 58 2
54 54 58
68 68 71
60 58 2
255 244 4
255 244 2
255 244 2
255 244 2
255 247 5
255 247 5
255 247 5
255 247 5
255 246 2
255 247 5
255 246 2
255 246 2
255 246 2
255 244 2
255 244 2
255 244 2
255 244 2
255 247 5
255 247 5
255 247 5
255 247 5
255 247 5
255 247 5
255 247 5
255 246 2
255 246 2
255 246 2
255 247 5
255 246 2
255 246 2
255 247 5
255 248 6
253 237 3
253 229 3
255 250 4
161 149 0
0 0 0
90 90 92
102 102 105
0 0 0
2 2 2
0 0 0
0 0 0
1 0 0
3 2 3
0 0 0
123 122 110
76 77 81
60 58 2
255 244 4
253 229 3
255 240 4
60 58 2
16 17 21
139 138 142
23 23 23
0 0 0
1 1 1
0 0 0
0 0 0
0 0 0
0 0 0
0 0 0
0 0 0
0 0 0
0 0 0
0 0 0
0 0 0
0 0 0
0 0 0
0 0 0
0 0 0
0 0 0
0 0 0
0 0 0
0 0 0
0 0 0
0 0 0
0 0 0
0 0 0
0 0 0
0 0 0
0 0 0
0 0 0
0 0 0
0 0 0
0 0 0
0 0 0
0 0 0
0 0 0
0 0 0
0 0 0
0 0 0
0 0 0
0 0 0
0 0 0
0 0 0
0 0 0
0 0 0
0 0 0
0 0 0
0 0 0
0 0 0
0 0 0
0 0 0
0 0 0
0 0 0
0 0 0
0 0 0
0 0 0
0 0 0
0 0 0
0 0 0
0 0 0
0 0 0
0 0 0
0 0 0
0 0 0
0 0 0
0 0 0
0 0 0
0 0 0
0 0 0
0 0 0
0 0 0
0 0 0
0 0 0
0 0 0
0 0 0
0 0 0
0 0 0
0 0 0
0 0 0
0 0 0
0 0 0
0 0 0
0 0 0
0 0 0
0 0 0
0 0 0
0 0 0
2 2 2
0 0 0
44 42 44
144 143 148
23 23 23
0 0 0
60 58 2
239 226 2
255 246 2
253 237 3
253 237 3
253 229 3
253 229 3
255 252 2
216 202 3
24 23 7
10 9 4
1 2 4
99 92 38
255 246 2
239 226 2
253 237 3
255 240 2
255 240 2
255 240 2
255 244 2
255 244 2
255 244 2
255 244 2
255 244 2
255 244 2
255 244 2
255 244 2
255 244 2
255 244 2
255 247 5
255 244 4
255 246 2
255 250 4
224 210 0
60 58 2
0 0 1
4 3 3
88 87 91
53 52 44
4 3 0
10 9 4
74 74 77
37 37 37
0 0 0
46 42 3
210 195 0
255 248 6
255 247 5
255 244 2
255 246 2
255 250 4
255 250 4
255 246 2
255 250 4
255 247 5
255 244 2
255 244 2
255 244 2
255 244 2
255 244 2
255 246 2
255 244 2
255 246 2
255 246 2
255 250 4
255 248 6
255 248 6
255 250 4
253 237 3
161 149 0
18 17 5
0 0 0
68 68 71
68 68 71
6 5 2
10 11 5
32 31 22
90 90 92
16 15 16
0 0 1
119 114 45
253 237 3
255 250 4
255 244 2
255 240 2
255 240 2
255 244 2
255 244 2
255 244 2
255 244 2
255 244 4
255 244 4
255 244 2
255 244 2
255 244 2
255 244 2
255 244 2
255 244 2
255 244 2
255 244 2
255 240 2
255 244 2
255 244 4
255 250 4
255 244 2
161 149 0
224 210 0
255 250 4
255 244 4
255 244 2
255 244 2
255 244 2
255 244 2
255 247 5
255 248 6
184 170 1
10 11 5
18 17 18
90 90 92
7 7 7
0 0 0
2 2 0
1 1 0
1 1 0
1 1 0
1 1 0
1 1 0
1 1 0
1 1 0
1 1 0
1 1 0
1 1 0
1 1 0
1 1 0
1 1 0
1 1 0
1 1 0
1 1 0
1 1 0
1 1 0
1 1 0
1 1 0
1 1 0
1 1 0
2 2 1
0 0 0
16 15 11
90 90 92
18 17 18
10 9 4
184 170 1
255 252 2
255 244 2
255 240 2
255 244 2
255 244 4
255 247 5
255 244 4
255 244 4
255 250 4
224 210 0
46 42 3
0 0 0
82 82 81
71 72 76
46 42 3
239 226 2
253 229 3
255 240 4
60 58 2
68 68 71
45 45 50
60 58 2
255 244 4
255 244 2
255 244 2
255 246 2
255 250 4
255 250 4
255 246 2
255 246 2
255 246 2
255 246 2
255 246 2
255 246 2
255 246 2
255 246 2
255 246 2
255 244 2
255 246 2
255 246 2
255 246 2
255 246 2
255 246 2
255 246 2
255 246 2
255 246 2
255 246 2
255 246 2
255 246 2
255 246 2
255 246 2
255 246 2
255 246 2
255 244 2
255 246 2
255 246 2
193 184 2
24 23 7
3 3 2
122 122 126
68 68 71
0 0 0
2 2 2
0 0 0
1 1 1
3 2 3
0 0 0
68 68 71
135 135 137
7 8 10
193 184 2
255 244 2
255 244 2
210 195 0
2 2 0
59 58 59
124 124 125
2 2 1
0 0 0
0 0 0
0 0 0
0 0 0
0 0 0
0 0 0
0 0 0
0 0 0
0 0 0
0 0 0
0 0 0
0 0 0
0 0 0
0 0 0
0 0 0
0 0 0
0 0 0
0 0 0
0 0 0
0 0 0
0 0 0
0 0 0
0 0 0
0 0 0
0 0 0
0 0 0
0 0 0
0 0 0
0 0 0
0 0 0
0 0 0
0 0 0
0 0 0
0 0 0
0 0 0
0 0 0
0 0 0
0 0 0
0 0 0
0 0 0
0 0 0
0 0 0
0 0 0
0 0 0
0 0 0
0 0 0
0 0 0
0 0 0
0 0 0
0 0 0
0 0 0
0 0 0
0 0 0
0 0 0
0 0 0
0 0 0
0 0 0
0 0 0
0 0 0
0 0 0
0 0 0
0 0 0
0 0 0
0 0 0
0 0 0
0 0 0
0 0 0
0 0 0
0 0 0
0 0 0
0 0 0
0 0 0
0 0 0
0 0 0
0 0 0
0 0 0
0 0 0
0 0 0
0 0 0
0 0 0
0 0 0
0 0 0
0 0 0
0 0 0
0 0 0
0 0 0
1 1 1
0 0 0
102 102 105
113 112 110
1 1 0
0 0 1
46 42 3
184 170 1
253 229 3
255 247 5
255 246 2
254 238 2
184 170 1
46 42 3
0 0 0
25 25 16
3 4 4
99 92 38
255 240 2
253 237 3
239 226 2
193 184 2
193 184 2
193 184 2
193 184 2
193 184 2
193 184 2
193 184 2
193 184 2
193 184 2
193 184 2
193 184 2
193 184 2
193 184 2
193 184 2
193 184 2
161 149 0
99 92 38
18 17 5
0 0 1
0 0 0
59 64 62
101 101 93
18 17 5
10 9 4
6 5 2
45 45 44
91 91 95
9 9 9
0 0 0
10 9 4
60 58 2
161 149 0
161 149 0
161 149 0
161 149 0
161 149 0
161 149 0
161 149 0
161 149 0
161 149 0
161 149 0
161 149 0
161 149 0
161 149 0
161 149 0
161 149 0
161 149 0
161 149 0
161 149 0
161 149 0
161 149 0
161 149 0
60 58 2
0 0 1
0 0 0
22 22 23
102 102 105
32 31 22
10 9 4
10 11 5
10 11 5
85 86 83
68 68 71
0 0 0
0 0 1
46 42 3
161 149 0
184 170 1
184 170 1
184 170 1
184 170 1
184 170 1
193 184 2
193 184 2
184 170 1
184 170 1
193 184 2
193 184 2
193 184 2
193 184 2
193 184 2
193 184 2
184 170 1
184 170 1
184 170 1
184 170 1
184 170 1
161 149 0
60 58 2
0 0 1
46 42 3
161 149 0
193 184 2
193 184 2
193 184 2
184 170 1
193 184 2
184 170 1
99 92 38
5 5 2
0 0 0
59 64 62
82 82 81
0 0 0
2 2 2
1 1 1
1 1 0
1 1 0
1 1 0
1 1 0
1 1 0
1 1 0
1 1 0
1 1 0
1 1 0
1 1 0
1 1 0
1 1 0
1 1 0
1 1 0
1 1 0
1 1 0
1 1 0
1 1 0
1 1 0
1 1 0
1 1 0
1 1 1
2 2 1
4 3 3
4 3 0
82 82 81
52 57 52
0 0 0
6 5 2
99 92 38
184 170 1
193 184 2
193 184 2
193 184 2
184 170 1
184 170 1
184 170 1
161 149 0
46 42 3
0 0 0
10 10 10
102 102 105
68 68 71
46 42 3
239 226 2
253 237 3
255 244 4
60 58 2
68 68 71
68 68 71
0 0 1
99 92 38
161 149 0
161 149 0
161 149 0
161 149 0
161 149 0
161 149 0
161 149 0
161 149 0
161 149 0
161 149 0
161 149 0
161 149 0
161 149 0
161 149 0
161 149 0
161 149 0
161 149 0
161 149 0
161 149 0
161 149 0
161 149 0
161 149 0
161 149 0
161 149 0
161 149 0
161 149 0
161 149 0
161 149 0
161 149 0
161 149 0
161 149 0
161 149 0
60 58 2
6 5 2
0 0 0
39 39 41
149 150 146
27 27 24
2 2 1
3 3 3
2 1 2
0 0 0
0 0 0
68 68 71
144 143 148
24 24 28
119 114 45
255 246 2
253 229 3
255 244 4
60 58 2
0 0 0
116 116 120
88 87 91
0 0 0
2 2 2
0 0 0
0 0 0
0 0 0
0 0 0
0 0 0
0 0 0
0 0 0
0 0 0
0 0 0
0 0 0
0 0 0
0 0 0
0 0 0
0 0 0
0 0 0
0 0 0
0 0 0
0 0 0
0 0 0
0 0 0
0 0 0
0 0 0
0 0 0
0 0 0
0 0 0
0 0 0
0 0 0
0 0 0
0 0 0
0 0 0
0 0 0
0 0 0
0 0 0
0 0 0
0 0 0
0 0 0
0 0 0
0 0 0
0 0 0
0 0 0
0 0 0
0 0 0
0 0 0
0 0 0
0 0 0
0 0 0
0 0 0
0 0 0
0 0 0
0 0 0
0 0 0
0 0 0
0 0 0
0 0 0
0 0 0
0 0 0
0 0 0
0 0 0
0 0 0
0 0 0
0 0 0
0 0 0
0 0 0
0 0 0
0 0 0
0 0 0
0 0 0
0 0 0
0 0 0
0 0 0
0 0 0
0 0 0
0 0 0
0 0 0
0 0 0
0 0 0
0 0 0
0 0 0
0 0 0
0 0 0
0 0 0
0 0 0
0 0 0
0 0 0
0 0 0
1 1 1
1 1 1
17 16 16
135 135 140
88 87 91
0 0 0
0 0 0
0 0 1
46 42 3
99 92 38
99 92 38
60 58 2
0 0 4
0 0 0
17 16 17
90 90 92
7 8 10
99 92 38
255 248 6
255 239 3
224 210 0
18 17 5
0 0 0
0 0 1
0 0 1
0 0 1
0 0 1
0 0 1
0 0 1
0 0 1
0 0 1
0 0 1
0 0 1
0 0 1
0 0 1
0 0 1
0 0 0
0 0 0
0 0 0
4 3 0
54 54 58
113 112 110
44 42 32
10 9 4
10 11 5
10 11 5
18 17 5
90 90 92
90 90 92
13 13 13
0 0 0
0 0 0
0 0 0
0 0 0
0 0 0
0 0 0
0 0 0
0 0 0
0 0 0
0 0 0
0 0 0
0 0 0
0 0 0
0 0 0
0 0 0
0 0 0
0 0 0
0 0 0
0 0 0
0 0 0
0 0 0
0 0 0
0 0 1
0 0 0
0 0 0
22 22 23
102 102 105
62 61 53
6 5 2
10 11 5
10 11 5
10 9 4
40 37 22
102 102 105
45 45 44
0 0 0
0 0 0
0 0 0
0 0 1
0 0 1
0 0 1
0 0 1
0 0 1
0 0 1
0 0 1
0 0 1
0 0 0
0 0 1
0 0 1
0 0 1
0 0 1
0 0 1
0 0 1
0 0 1
0 0 1
0 0 1
0 0 1
0 0 1
0 0 0
0 0 0
0 0 0
0 0 0
0 0 0
1 0 0
2 1 1
0 0 1
0 0 1
0 0 1
0 0 1
0 0 0
0 0 0
27 27 24
113 112 110
34 34 31
0 0 0
3 3 2
2 2 1
1 1 1
1 1 1
1 1 1
1 1 1
1 1 1
1 1 1
1 1 1
0 1 1
1 1 1
1 1 1
0 0 1
1 1 1
1 1 1
0 1 1
0 1 0
1 1 1
1 1 1
1 1 1
1 1 1
1 1 1
1 1 1
1 1 1
2 2 1
3 3 2
2 2 1
40 37 22
102 102 105
28 28 27
0 0 0
0 0 0
0 0 1
0 0 1
0 0 1
0 0 1
0 0 1
0 0 1
0 0 1
0 0 1
0 0 0
4 3 3
74 74 77
124 124 125
59 64 62
46 42 3
239 226 2
253 237 3
255 247 5
60 58 2
59 64 62
94 95 98
0 0 0
0 0 0
0 0 0
0 0 0
0 0 0
0 0 0
0 0 0
0 0 0
0 0 0
0 0 0
0 0 0
0 0 0
0 0 0
0 0 0
0 0 0
0 0 0
0 0 0
0 0 0
0 0 0
0 0 0
0 0 0
0 0 0
0 0 0
0 0 0
0 0 0
0 0 0
0 0 0
0 0 0
0 0 0
0 0 0
0 0 0
0 0 0
0 0 0
0 0 0
0 0 0
0 0 0
15 15 14
127 128 122
90 90 92
0 0 0
0 0 0
0 0 0
0 0 0
27 27 24
113 112 110
139 138 142
28 31 34
99 92 38
255 244 4
253 229 3
255 246 2
161 149 0
2 1 1
34 34 31
144 143 148
28 28 27
0 0 0
2 1 1
0 0 0
0 0 0
0 0 0
0 0 0
0 0 0
0 0 0
0 0 0
0 0 0
0 0 0
0 0 0
0 0 0
0 0 0
0 0 0
0 0 0
0 0 0
0 0 0
0 0 0
0 0 0
0 0 0
0 0 0
0 0 0
0 0 0
0 0 0
0 0 0
0 0 0
0 0 0
0 0 0
0 0 0
0 0 0
0 0 0
0 0 0
0 0 0
0 0 0
0 0 0
0 0 0
0 0 0
0 0 0
0 0 0
0 0 0
0 0 0
0 0 0
0 0 0
0 0 0
0 0 0
0 0 0
0 0 0
0 0 0
0 0 0
0 0 0
0 0 0
0 0 0
0 0 0
0 0 0
0 0 0
0 0 0
0 0 0
0 0 0
0 0 0
0 0 0
0 0 0
0 0 0
0 0 0
0 0 0
0 0 0
0 0 0
0 0 0
0 0 0
0 0 0
0 0 0
0 0 0
0 0 0
0 0 0
0 0 0
0 0 0
0 0 0
0 0 0
0 0 0
0 0 0
0 0 0
0 0 0
0 0 0
0 0 0
0 0 0
0 0 0
0 0 0
0 0 0
1 1 1
0 0 0
34 34 31
144 143 148
102 102 105
17 16 16
0 0 0
0 0 0
0 0 0
0 0 0
0 0 0
0 0 0
13 13 13
102 102 105
132 132 135
43 43 48
99 92 38
255 247 5
255 239 3
224 210 0
18 17 5
4 3 0
0 0 0
0 0 0
0 0 0
0 0 0
0 0 0
0 0 0
0 0 0
0 0 0
0 0 0
0 0 0
0 0 0
0 0 0
0 0 0
2 2 0
15 13 11
38 38 35
88 87 91
102 102 105
44 42 32
18 17 5
24 23 7
18 17 5
18 17 5
18 17 5
32 22 13
99 98 93
99 98 93
48 48 50
17 16 16
6 5 2
3 2 0
2 1 1
2 1 1
2 1 1
1 1 0
1 1 0
1 1 0
1 1 0
2 1 1
2 1 1
2 1 1
1 1 0
2 1 1
1 1 0
2 1 1
2 1 1
1 1 0
1 1 0
1 1 0
4 3 0
19 19 18
59 58 59
113 112 110
91 90 77
18 17 5
18 17 5
18 17 5
18 17 5
18 17 5
18 17 5
53 52 44
101 101 93
68 68 71
27 27 24
10 9 4
0 0 0
0 0 0
0 0 0
0 0 0
0 0 0
0 0 0
0 0 0
0 0 0
0 0 0
0 0 0
0 0 0
0 0 0
0 0 0
0 0 0
0 0 0
0 0 0
0 0 0
0 0 0
0 0 0
0 0 0
2 2 0
17 16 16
51 51 55
23 23 23
2 2 0
0 0 0
3 2 0
2 0 0
0 0 0
0 0 0
0 0 0
10 11 5
45 45 44
102 102 105
68 68 71
7 6 3
6 5 2
6 5 2
7 6 3
7 6 3
6 5 2
6 5 2
7 6 3
7 6 3
6 5 2
6 5 2
7 6 3
6 5 2
6 5 2
7 6 3
7 6 3
7 6 3
7 6 3
7 6 3
7 6 3
6 5 2
6 5 2
6 5 2
7 6 3
7 6 3
10 9 4
10 9 4
10 9 4
10 11 5
18 17 5
89 86 60
113 112 110
48 48 50
15 13 11
2 1 1
0 0 0
0 0 0
0 0 0
0 0 0
0 0 0
0 0 0
3 2 0
20 20 18
79 79 83
113 112 110
107 126 73
74 74 77
46 42 3
239 226 2
253 237 3
255 244 4
60 58 2
51 51 55
124 124 125
59 64 62
19 19 18
16 15 11
16 15 11
15 13 11
10 11 5
10 11 5
10 11 5
10 11 5
10 11 5
10 11 5
10 11 5
10 11 5
10 11 5
10 11 5
10 11 5
10 11 5
10 11 5
10 11 5
10 11 5
10 11 5
10 11 5
10 11 5
10 11 5
10 11 5
10 11 5
10 11 5
10 11 5
10 11 5
10 11 5
10 11 5
10 11 5
10 11 5
15 13 11
25 25 16
52 57 52
124 124 125
149 150 146
74 72 46
53 52 44
62 61 53
82 82 81
113 112 110
130 130 134
79 79 83
17 16 17
161 149 0
255 247 5
253 229 3
255 247 5
216 202 3
24 23 7
0 0 0
94 95 98
113 112 110
0 0 0
1 1 1
0 0 0
0 0 0
0 0 0
0 0 0
0 0 0
0 0 0
0 0 0
0 0 0
0 0 0
0 0 0
0 0 0
0 0 0
0 0 0
0 0 0
0 0 0
0 0 0
0 0 0
0 0 0
0 0 0
0 0 0
0 0 0
0 0 0
0 0 0
0 0 0
0 0 0
0 0 0
0 0 0
0 0 0
0 0 0
0 0 0
0 0 0
0 0 0
0 0 0
0 0 0
0 0 0
0 0 0
0 0 0
0 0 0
0 0 0
0 0 0
0 0 0
0 0 0
0 0 0
0 0 0
0 0 0
0 0 0
0 0 0
0 0 0
0 0 0
0 0 0
0 0 0
0 0 0
0 0 0
0 0 0
0 0 0
0 0 0
0 0 0
0 0 0
0 0 0
0 0 0
0 0 0
0 0 0
0 0 0
0 0 0
0 0 0
0 0 0
0 0 0
0 0 0
0 0 0
0 0 0
0 0 0
0 0 0
0 0 0
0 0 0
0 0 0
0 0 0
0 0 0
0 0 0
0 0 0
0 0 0
0 0 0
0 0 0
0 0 0
0 0 0
0 0 0
0 0 0
0 0 0
0 0 0
2 2 2
0 0 0
28 28 27
130 130 134
144 143 148
79 79 83
34 34 31
10 10 10
7 7 7
27 27 24
68 68 71
139 138 142
113 112 110
123 122 110
54 54 58
60 58 2
255 239 3
253 229 3
253 237 3
60 58 2
16 17 21
71 72 76
71 72 76
68 68 71
68 68 71
68 68 71
68 68 71
68 68 71
68 68 71
68 68 71
68 68 71
68 68 71
68 68 71
68 68 71
74 74 77
90 90 92
102 102 105
102 102 105
90 90 92
74 74 77
85 86 83
82 82 81
76 77 81
76 77 81
82 82 81
74 74 77
85 86 83
102 102 105
102 102 105
94 95 98
79 79 83
74 74 77
74 74 77
74 74 77
74 74 77
76 77 81
76 77 81
74 74 77
76 77 81
76 77 81
76 77 81
74 74 77
74 74 77
74 74 77
74 74 77
74 74 77
74 74 77
74 74 77
74 74 77
74 74 77
76 77 81
94 95 98
102 102 105
102 102 105
91 90 77
82 82 81
82 82 81
82 82 81
82 82 81
82 82 81
82 82 81
82 82 81
90 90 92
102 102 105
102 102 105
84 83 84
71 72 76
71 72 76
74 74 77
74 74 77
71 72 76
71 72 76
71 72 76
71 72 76
71 72 76
71 72 76
71 72 76
71 72 76
71 72 76
71 72 76
68 68 71
68 68 71
71 72 76
68 68 71
68 68 71
68 68 71
71 72 76
90 90 92
102 102 105
102 102 105
76 77 81
68 68 71
71 72 76
74 74 77
74 74 77
74 74 77
74 74 77
90 90 92
113 112 110
102 102 105
82 82 81
82 82 81
82 82 81
85 86 83
85 86 83
85 86 83
82 82 81
82 82 81
85 86 83
85 86 83
85 86 83
82 82 81
85 86 83
85 86 83
85 86 83
85 86 83
85 86 83
82 82 81
85 86 83
85 86 83
85 86 83
82 82 81
82 82 81
82 82 81
82 82 81
85 86 83
85 86 83
85 86 83
85 86 83
82 82 81
82 82 81
91 90 77
102 102 105
113 112 110
91 91 95
74 74 77
68 68 71
71 72 76
71 72 76
74 74 77
74 74 77
74 74 77
76 77 81
94 95 98
102 102 105
99 98 93
113 112 110
68 68 71
46 42 3
253 229 3
253 237 3
255 239 3
60 58 2
54 54 58
130 130 134
130 130 134
91 91 95
68 68 71
68 68 71
59 64 62
59 64 62
59 64 62
59 64 62
54 54 58
54 54 58
54 54 58
54 54 58
59 58 59
59 58 59
54 54 58
54 54 58
54 54 58
54 54 58
54 54 58
54 54 58
54 54 58
59 64 62
59 64 62
59 64 62
54 54 58
54 54 58
54 54 58
59 58 59
59 58 59
54 54 58
54 54 58
54 54 58
59 64 62
68 68 71
88 87 91
91 91 95
94 95 98
102 102 105
102 102 105
102 102 105
102 102 105
91 91 95
59 58 59
40 37 22
60 58 2
193 184 2
255 244 2
239 226 2
255 244 2
238 225 4
55 51 10
0 0 0
39 39 41
144 143 148
28 28 27
0 0 0
1 1 1
0 0 0
0 0 0
0 0 0
0 0 0
0 0 0
0 0 0
0 0 0
0 0 0
0 0 0
0 0 0
0 0 0
0 0 0
0 0 0
0 0 0
0 0 0
0 0 0
0 0 0
0 0 0
0 0 0
0 0 0
0 0 0
0 0 0
0 0 0
0 0 0
0 0 0
0 0 0
0 0 0
0 0 0
0 0 0
0 0 0
0 0 0
0 0 0
0 0 0
0 0 0
0 0 0
0 0 0
0 0 0
0 0 0
0 0 0
0 0 0
0 0 0
0 0 0
0 0 0
0 0 0
0 0 0
0 0 0
0 0 0
0 0 0
0 0 0
0 0 0
0 0 0
0 0 0
0 0 0
0 0 0
0 0 0
0 0 0
0 0 0
0 0 0
0 0 0
0 0 0
0 0 0
0 0 0
0 0 0
0 0 0
0 0 0
0 0 0
0 0 0
0 0 0
0 0 0
0 0 0
0 0 0
0 0 0
0 0 0
0 0 0
0 0 0
0 0 0
0 0 0
0 0 0
0 0 0
0 0 0
0 0 0
0 0 0
0 0 0
0 0 0
0 0 0
0 0 0
0 0 0
0 0 0
0 0 0
2 1 2
0 0 0
4 3 3
68 68 71
124 124 125
135 135 140
132 132 135
132 132 135
135 135 137
135 135 137
90 90 92
10 9 4
99 98 93
68 68 71
10 9 4
238 225 4
253 237 3
255 244 4
216 202 3
60 58 2
40 37 22
40 37 22
40 37 22
40 37 22
40 37 22
40 37 22
40 37 22
40 37 22
40 37 22
40 37 22
40 37 22
40 37 22
40 37 22
40 37 22
40 37 22
32 31 22
25 25 16
32 31 22
40 37 22
40 37 22
40 37 22
40 37 22
40 37 22
40 37 22
40 37 22
40 37 22
40 37 22
32 31 22
32 31 22
40 37 22
40 37 22
40 37 22
40 37 22
40 37 22
40 37 22
40 37 22
40 37 22
40 37 22
40 37 22
40 37 22
40 37 22
40 37 22
40 37 22
40 37 22
40 37 22
40 37 22
40 37 22
40 37 22
40 37 22
40 37 22
40 37 22
32 22 13
32 31 22
32 31 22
40 37 22
40 37 22
40 37 22
40 37 22
40 37 22
40 37 22
40 37 22
40 37 22
32 31 22
40 37 22
40 37 22
40 37 22
40 37 22
40 37 22
40 37 22
40 37 22
40 37 22
40 37 22
40 37 22
40 37 22
40 37 22
40 37 22
40 37 22
40 37 22
40 37 22
40 37 22
40 37 22
40 37 22
40 37 22
40 37 22
40 37 22
40 37 22
32 31 22
32 31 22
40 37 22
40 37 22
40 37 22
40 37 22
40 37 22
40 37 22
40 37 22
40 37 22
40 37 22
32 31 22
32 31 22
40 37 22
40 37 22
40 37 22
40 37 22
40 37 22
40 37 22
40 37 22
40 37 22
40 37 22
40 37 22
40 37 22
40 37 22
40 37 22
40 37 22
40 37 22
40 37 22
40 37 22
40 37 22
40 37 22
40 37 22
40 37 22
40 37 22
40 37 22
40 37 22
40 37 22
40 37 22
40 37 22
40 37 22
40 37 22
40 37 22
40 37 22
40 37 22
32 31 22
32 31 22
32 31 22
40 37 22
40 37 22
40 37 22
40 37 22
40 37 22
40 37 22
44 42 32
40 37 22
40 37 22
32 31 22
32 31 22
40 37 22
24 23 7
161 149 0
255 244 4
253 229 3
253 237 3
46 42 3
54 54 58
132 132 135
59 64 62
46 42 3
60 58 14
60 58 2
60 58 2
60 58 2
60 58 2
60 58 2
60 58 2
60 58 2
60 58 2
60 58 2
60 58 2
60 58 2
60 58 2
60 58 2
60 58 2
60 58 2
60 58 2
60 58 14
60 58 2
60 58 2
60 58 2
60 58 2
60 58 2
60 58 2
60 58 2
60 58 2
60 58 2
60 58 2
60 58 2
60 58 2
60 58 14
60 58 14
60 58 2
60 58 2
60 58 2
60 58 2
60 58 2
60 58 2
60 58 2
99 92 38
161 149 0
224 210 0
255 248 6
255 244 4
253 229 3
255 246 2
216 202 3
46 42 3
0 0 0
16 14 12
149 150 146
85 86 83
0 0 0
2 2 2
0 0 0
0 0 0
0 0 0
0 0 0
0 0 0
0 0 0
0 0 0
0 0 0
0 0 0
0 0 0
0 0 0
0 0 0
0 0 0
0 0 0
0 0 0
0 0 0
0 0 0
0 0 0
0 0 0
0 0 0
0 0 0
0 0 0
0 0 0
0 0 0
0 0 0
0 0 0
0 0 0
0 0 0
0 0 0
0 0 0
0 0 0
0 0 0
0 0 0
0 0 0
0 0 0
0 0 0
0 0 0
0 0 0
0 0 0
0 0 0
0 0 0
0 0 0
0 0 0
0 0 0
0 0 0
0 0 0
0 0 0
0 0 0
0 0 0
0 0 0
0 0 0
0 0 0
0 0 0
0 0 0
0 0 0
0 0 0
0 0 0
0 0 0
0 0 0
0 0 0
0 0 0
0 0 0
0 0 0
0 0 0
0 0 0
0 0 0
0 0 0
0 0 0
0 0 0
0 0 0
0 0 0
0 0 0
0 0 0
0 0 0
0 0 0
0 0 0
0 0 0
0 0 0
0 0 0
0 0 0
0 0 0
0 0 0
0 0 0
0 0 0
0 0 0
0 0 0
0 0 0
0 0 0
0 0 0
0 0 0
0 0 0
1 1 1
0 0 0
0 0 0
0 0 0
27 27 24
48 48 50
51 51 55
38 38 35
7 7 7
0 0 0
0 0 0
90 90 92
102 102 105
0 0 0
161 149 0
255 248 6
253 229 3
254 238 2
253 237 3
224 210 0
224 210 0
224 210 0
224 210 0
224 210 0
224 210 0
224 210 0
224 210 0
224 210 0
224 210 0
224 210 0
224 210 0
224 210 0
224 210 0
224 210 0
224 210 0
224 210 0
224 210 0
224 210 0
224 210 0
224 210 0
224 210 0
224 210 0
224 210 0
224 210 0
224 210 0
224 210 0
224 210 0
224 210 0
224 210 0
224 210 0
224 210 0
224 210 0
224 210 0
224 210 0
224 210 0
224 210 0
224 210 0
224 210 0
224 210 0
224 210 0
224 210 0
224 210 0
224 210 0
224 210 0
224 210 0
224 210 0
224 210 0
224 210 0
224 210 0
224 210 0
224 210 0
224 210 0
224 210 0
224 210 0
224 210 0
224 210 0
224 210 0
224 210 0
224 210 0
224 210 0
224 210 0
224 210 0
224 210 0
224 210 0
224 210 0
224 210 0
224 210 0
224 210 0
216 202 3
216 202 3
224 210 0
224 210 0
224 210 0
224 210 0
224 210 0
224 210 0
224 210 0
224 210 0
224 210 0
224 210 0
224 210 0
224 210 0
224 210 0
224 210 0
224 210 0
224 210 0
224 210 0
224 210 0
224 210 0
224 210 0
224 210 0
224 210 0
224 210 0
224 210 0
224 210 0
224 210 0
224 210 0
224 210 0
224 210 0
224 210 0
224 210 0
224 210 0
224 210 0
224 210 0
224 210 0
224 210 0
224 210 0
224 210 0
224 210 0
224 210 0
224 210 0
224 210 0
224 210 0
224 210 0
224 210 0
224 210 0
224 210 0
224 210 0
224 210 0
224 210 0
224 210 0
224 210 0
224 210 0
224 210 0
224 210 0
224 210 0
224 210 0
224 210 0
224 210 0
224 210 0
224 210 0
224 210 0
224 210 0
224 210 0
224 210 0
224 210 0
224 210 0
224 210 0
224 210 0
224 210 0
224 210 0
224 210 0
224 210 0
224 210 0
224 210 0
224 210 0
255 240 4
253 237 3
255 248 6
216 202 3
10 9 4
22 20 11
44 42 32
46 42 3
224 210 0
255 240 2
255 239 3
255 240 2
254 238 2
254 238 2
254 238 2
254 238 2
254 238 2
254 238 2
255 239 3
255 240 2
254 238 2
254 238 2
255 239 3
255 240 2
255 240 4
255 240 2
255 240 2
254 238 2
254 238 2
254 238 2
254 238 2
254 238 2
254 238 2
254 238 2
254 238 2
255 240 2
255 240 2
255 239 3
255 239 3
255 240 2
255 240 2
255 239 3
255 239 3
255 240 4
255 240 4
255 239 3
254 238 2
255 240 2
255 250 4
255 250 4
255 240 2
253 237 3
255 244 4
255 248 6
161 149 0
24 23 7
0 0 0
5 5 2
122 122 126
124 124 125
3 3 3
2 2 2
1 1 1
0 0 0
0 0 0
0 0 0
0 0 0
0 0 0
0 0 0
0 0 0
0 0 0
0 0 0
0 0 0
0 0 0
0 0 0
0 0 0
0 0 0
0 0 0
0 0 0
0 0 0
0 0 0
0 0 0
0 0 0
0 0 0
0 0 0
0 0 0
0 0 0
0 0 0
0 0 0
0 0 0
0 0 0
0 0 0
0 0 0
0 0 0
0 0 0
0 0 0
0 0 0
0 0 0
0 0 0
0 0 0
0 0 0
0 0 0
0 0 0
0 0 0
0 0 0
0 0 0
0 0 0
0 0 0
0 0 0
0 0 0
0 0 0
0 0 0
0 0 0
0 0 0
0 0 0
0 0 0
0 0 0
0 0 0
0 0 0
0 0 0
0 0 0
0 0 0
0 0 0
0 0 0
0 0 0
0 0 0
0 0 0
0 0 0
0 0 0
0 0 0
0 0 0
0 0 0
0 0 0
0 0 0
0 0 0
0 0 0
0 0 0
0 0 0
0 0 0
0 0 0
0 0 0
0 0 0
0 0 0
0 0 0
0 0 0
0 0 0
0 0 0
0 0 0
0 0 0
0 0 0
0 0 0
0 0 0
0 0 0
0 0 0
0 0 0
1 1 1
2 2 2
0 0 0
0 0 0
0 0 0
0 0 0
0 0 0
0 0 0
3 3 3
1 1 0
45 45 44
139 138 142
12 11 11
7 6 3
161 149 0
255 246 2
253 237 3
253 229 3
254 238 2
255 240 2
255 240 2
255 240 2
255 240 4
255 240 4
255 240 4
255 240 4
255 240 4
255 240 4
255 240 2
255 240 4
255 240 4
255 240 4
255 240 4
255 240 2
255 240 2
255 239 3
255 240 2
255 240 2
255 240 2
255 239 3
255 239 3
255 240 2
255 240 2
255 240 4
255 240 2
255 240 4
255 240 4
255 240 2
255 240 4
255 240 4
255 240 2
255 240 2
255 240 4
255 240 4
255 240 4
255 240 4
255 240 4
255 239 3
255 240 2
255 240 2
255 240 2
255 240 2
255 244 2
255 244 2
255 244 2
255 244 2
255 240 2
255 239 3
255 240 2
255 239 3
255 240 2
255 240 2
255 240 2
255 240 2
255 240 2
255 239 3
255 239 3
254 238 2
254 238 2
255 239 3
255 240 2
255 240 2
255 240 2
255 240 2
255 240 4
255 240 2
255 240 2
255 240 2
255 240 4
255 240 4
255 240 4
255 240 4
255 239 3
255 239 3
255 239 3
255 239 3
255 239 3
255 239 3
255 239 3
254 238 2
255 240 2
255 240 2
255 240 4
255 240 4
255 239 3
255 239 3
255 239 3
255 239 3
255 239 3
255 239 3
255 239 3
255 239 3
255 239 3
255 239 3
255 239 3
255 240 4
255 240 4
255 240 4
255 240 2
255 239 3
254 238 2
254 238 2
255 239 3
255 240 2
255 240 2
255 239 3
255 240 2
255 240 2
255 240 4
255 240 2
255 240 4
255 244 2
255 240 4
255 240 4
255 240 4
255 239 3
255 239 3
255 240 2
254 238 2
254 238 2
254 238 2
254 238 2
254 238 2
254 238 2
254 238 2
255 240 2
255 240 4
255 240 4
255 240 4
255 239 3
255 239 3
255 240 2
255 240 4
255 240 4
255 240 4
255 240 4
255 240 4
255 239 3
254 238 2
254 238 2
254 238 2
255 239 3
255 240 4
255 244 4
255 239 3
253 229 3
255 244 2
255 250 4
99 92 38
1 2 4
24 23 7
2 2 0
99 92 38
255 250 4
253 237 3
255 240 2
255 240 2
254 238 2
254 238 2
254 238 2
254 238 2
254 238 2
254 238 2
254 238 2
254 238 2
254 238 2
254 238 2
254 238 2
254 238 2
255 239 3
255 239 3
254 238 2
254 238 2
254 238 2
254 238 2
254 238 2
254 238 2
254 238 2
254 238 2
254 238 2
254 238 2
254 238 2
255 239 3
254 238 2
254 238 2
254 238 2
254 238 2
254 238 2
254 238 2
254 238 2
255 239 3
255 240 4
254 238 2
255 240 2
255 244 2
255 246 2
253 229 3
184 170 1
60 58 2
0 0 4
0 0 0
12 11 11
116 116 120
130 130 134
12 11 11
0 0 0
1 1 1
0 0 0
0 0 0
0 0 0
0 0 0
0 0 0
0 0 0
0 0 0
0 0 0
0 0 0
0 0 0
0 0 0
0 0 0
0 0 0
0 0 0
0 0 0
0 0 0
0 0 0
0 0 0
0 0 0
0 0 0
0 0 0
0 0 0
0 0 0
0 0 0
0 0 0
0 0 0
0 0 0
0 0 0
0 0 0
0 0 0
0 0 0
0 0 0
0 0 0
0 0 0
0 0 0
0 0 0
0 0 0
0 0 0
0 0 0
0 0 0
0 0 0
0 0 0
0 0 0
0 0 0
0 0 0
0 0 0
0 0 0
0 0 0
0 0 0
0 0 0
0 0 0
0 0 0
0 0 0
0 0 0
0 0 0
0 0 0
0 0 0
0 0 0
0 0 0
0 0 0
0 0 0
0 0 0
0 0 0
0 0 0
0 0 0
0 0 0
0 0 0
0 0 0
0 0 0
0 0 0
0 0 0
0 0 0
0 0 0
0 0 0
0 0 0
0 0 0
0 0 0
0 0 0
0 0 0
0 0 0
0 0 0
0 0 0
0 0 0
0 0 0
0 0 0
0 0 0
0 0 0
0 0 0
0 0 0
0 0 0
0 0 0
0 0 0
0 0 0
0 0 0
0 0 0
0 0 0
1 1 1
2 2 2
2 2 2
2 2 2
1 1 1
0 0 0
0 0 1
6 6 5
124 124 125
71 72 76
0 0 0
0 0 4
99 92 38
216 202 3
253 229 3
254 238 2
253 237 3
253 237 3
253 237 3
253 237 3
253 237 3
254 238 2
253 237 3
253 237 3
253 237 3
253 237 3
253 237 3
253 237 3
253 237 3
254 238 2
253 237 3
253 237 3
253 237 3
253 237 3
253 237 3
253 237 3
253 237 3
253 237 3
253 237 3
253 237 3
253 237 3
253 237 3
254 238 2
254 238 2
254 238 2
254 238 2
253 237 3
253 237 3
253 237 3
253 237 3
253 237 3
253 237 3
253 237 3
253 237 3
253 237 3
253 237 3
253 237 3
253 237 3
253 237 3
253 237 3
254 238 2
254 238 2
253 237 3
253 237 3
253 237 3
253 237 3
253 237 3
254 238 2
253 237 3
253 237 3
253 237 3
253 237 3
253 237 3
253 237 3
253 237 3
253 237 3
253 237 3
253 237 3
253 237 3
253 237 3
253 237 3
254 238 2
253 237 3
253 237 3
253 237 3
253 237 3
253 237 3
253 237 3
253 237 3
253 237 3
253 237 3
253 237 3
253 237 3
253 237 3
253 237 3
253 237 3
253 237 3
253 237 3
253 237 3
253 237 3
253 237 3
253 237 3
253 237 3
253 237 3
253 237 3
253 237 3
253 237 3
253 237 3
253 237 3
254 238 2
253 237 3
253 237 3
253 237 3
253 237 3
253 237 3
254 238 2
253 237 3
253 237 3
253 237 3
253 237 3
253 237 3
253 237 3
253 237 3
253 237 3
253 237 3
253 237 3
253 237 3
253 237 3
253 237 3
253 237 3
253 237 3
253 237 3
253 237 3
253 237 3
253 237 3
253 237 3
253 237 3
253 237 3
253 237 3
253 237 3
253 237 3
253 237 3
253 237 3
253 237 3
253 237 3
253 237 3
253 237 3
253 237 3
253 237 3
253 237 3
253 237 3
253 237 3
253 237 3
253 237 3
253 237 3
253 237 3
253 237 3
253 237 3
254 238 2
253 237 3
253 237 3
253 237 3
253 237 3
216 202 3
99 92 38
0 0 1
23 23 23
99 98 93
15 15 14
24 23 7
193 184 2
238 225 4
224 210 0
224 210 0
224 210 0
224 210 0
224 210 0
224 210 0
224 210 0
224 210 0
224 210 0
224 210 0
224 210 0
224 210 0
238 225 4
238 225 4
224 210 0
224 210 0
224 210 0
224 210 0
224 210 0
224 210 0
224 210 0
224 210 0
224 210 0
224 210 0
224 210 0
224 210 0
224 210 0
224 210 0
238 225 4
224 210 0
224 210 0
224 210 0
224 210 0
224 210 0
224 210 0
224 210 0
224 210 0
224 210 0
216 202 3
184 170 1
119 114 45
46 42 3
0 0 1
0 0 0
0 0 0
37 37 37
139 138 142
124 124 125
14 14 14
0 0 0
1 1 1
0 0 0
0 0 0
0 0 0
0 0 0
0 0 0
0 0 0
0 0 0
0 0 0
0 0 0
0 0 0
0 0 0
0 0 0
0 0 0
0 0 0
0 0 0
0 0 0
0 0 0
0 0 0
0 0 0
0 0 0
0 0 0
0 0 0
0 0 0
0 0 0
0 0 0
0 0 0
0 0 0
0 0 0
0 0 0
0 0 0
0 0 0
0 0 0
0 0 0
0 0 0
0 0 0
0 0 0
0 0 0
0 0 0
0 0 0
0 0 0
0 0 0
0 0 0
0 0 0
0 0 0
0 0 0
0 0 0
0 0 0
0 0 0
0 0 0
0 0 0
0 0 0
0 0 0
0 0 0
0 0 0
0 0 0
0 0 0
0 0 0
0 0 0
0 0 0
0 0 0
0 0 0
0 0 0
0 0 0
0 0 0
0 0 0
0 0 0
0 0 0
0 0 0
0 0 0
0 0 0
0 0 0
0 0 0
0 0 0
0 0 0
0 0 0
0 0 0
0 0 0
0 0 0
0 0 0
0 0 0
0 0 0
0 0 0
0 0 0
0 0 0
0 0 0
0 0 0
0 0 0
0 0 0
0 0 0
0 0 0
0 0 0
0 0 0
0 0 0
0 0 0
0 0 0
0 0 0
0 0 0
0 0 0
0 0 0
0 0 0
0 0 0
0 0 0
0 0 0
2 2 2
0 0 0
48 48 50
149 150 146
44 42 44
0 0 0
0 0 1
10 9 4
55 51 10
60 58 2
60 58 2
60 58 2
60 58 2
60 58 2
60 58 2
60 58 2
60 58 2
60 58 2
60 58 2
60 58 2
60 58 2
60 58 2
60 58 2
60 58 2
60 58 2
60 58 2
60 58 2
60 58 2
60 58 2
60 58 2
60 58 2
60 58 2
60 58 2
60 58 2
60 58 2
60 58 2
60 58 2
60 58 2
60 58 2
60 58 2
60 58 2
60 58 2
60 58 2
60 58 2
60 58 2
60 58 2
60 58 2
60 58 2
60 58 2
60 58 2
60 58 2
60 58 2
60 58 2
60 58 2
60 58 2
60 58 2
60 58 2
60 58 2
60 58 2
60 58 2
60 58 2
60 58 2
60 58 2
60 58 2
60 58 2
60 58 2
60 58 2
60 58 2
60 58 2
60 58 2
60 58 2
60 58 2
60 58 2
60 58 2
60 58 2
60 58 2
60 58 2
60 58 2
60 58 2
60 58 2
60 58 2
60 58 2
60 58 2
60 58 2
60 58 2
60 58 2
60 58 2
60 58 2
60 58 2
60 58 2
60 58 2
60 58 2
60 58 2
60 58 2
60 58 2
60 58 2
60 58 2
60 58 2
60 58 2
60 58 2
60 58 2
60 58 2
60 58 2
60 58 2
60 58 2
60 58 2
60 58 2
60 58 2
60 58 2
60 58 2
60 58 2
60 58 2
60 58 2
60 58 2
60 58 2
60 58 2
60 58 2
60 58 2
60 58 2
60 58 2
60 58 2
60 58 2
60 58 2
60 58 2
60 58 2
60 58 2
60 58 2
60 58 2
60 58 2
60 58 2
60 58 2
60 58 2
60 58 2
60 58 2
60 58 2
60 58 2
60 58 2
60 58 2
60 58 2
60 58 2
60 58 2
60 58 2
60 58 2
60 58 2
60 58 2
60 58 2
60 58 2
60 58 2
60 58 2
60 58 2
60 58 2
60 58 2
60 58 2
60 58 2
60 58 2
60 58 2
60 58 2
18 17 5
0 0 1
0 0 0
88 87 91
149 150 146
59 64 62
0 0 0
4 3 3
24 23 7
24 23 7
24 23 7
24 23 7
24 23 7
24 23 7
24 23 7
24 23 7
24 23 7
24 23 7
24 23 7
24 23 7
24 23 7
24 23 7
24 23 7
24 23 7
24 23 7
24 23 7
24 23 7
24 23 7
24 23 7
24 23 7
24 23 7
24 23 7
24 23 7
24 23 7
24 23 7
24 23 7
24 23 7
24 23 7
24 23 7
24 23 7
24 23 7
24 23 7
24 23 7
24 23 7
24 23 7
24 23 7
24 23 7
6 7 3
0 0 1
0 0 0
0 0 0
0 0 0
19 19 18
88 87 91
149 150 146
102 102 105
6 6 7
0 0 0
1 1 1
0 0 0
0 0 0
0 0 0
0 0 0
0 0 0
0 0 0
0 0 0
0 0 0
0 0 0
0 0 0
0 0 0
0 0 0
0 0 0
0 0 0
0 0 0
0 0 0
0 0 0
0 0 0
0 0 0
0 0 0
0 0 0
0 0 0
0 0 0
0 0 0
0 0 0
0 0 0
0 0 0
0 0 0
0 0 0
0 0 0
0 0 0
0 0 0
0 0 0
0 0 0
0 0 0
0 0 0
0 0 0
0 0 0
0 0 0
0 0 0
0 0 0
0 0 0
0 0 0
0 0 0
0 0 0
0 0 0
0 0 0
0 0 0
0 0 0
0 0 0
0 0 0
0 0 0
0 0 0
0 0 0
0 0 0
0 0 0
0 0 0
0 0 0
0 0 0
0 0 0
0 0 0
0 0 0
0 0 0
0 0 0
0 0 0
0 0 0
0 0 0
0 0 0
0 0 0
0 0 0
0 0 0
0 0 0
0 0 0
0 0 0
0 0 0
0 0 0
0 0 0
0 0 0
0 0 0
0 0 0
0 0 0
0 0 0
0 0 0
0 0 0
0 0 0
0 0 0
0 0 0
0 0 0
0 0 0
0 0 0
0 0 0
0 0 0
0 0 0
0 0 0
0 0 0
0 0 0
0 0 0
0 0 0
0 0 0
0 0 0
0 0 0
0 0 0
0 0 0
0 0 0
0 0 0
1 1 1
0 0 0
82 82 81
149 150 146
68 68 71
6 5 2
0 0 0
0 0 0
0 0 0
0 0 0
0 0 0
0 0 0
0 0 0
0 0 0
0 0 0
0 0 0
0 0 0
0 0 0
0 0 0
0 0 0
0 0 0
0 0 0
0 0 0
0 0 0
0 0 0
0 0 0
0 0 0
0 0 0
0 0 0
0 0 0
0 0 0
0 0 0
0 0 0
0 0 0
0 0 0
0 0 0
0 0 0
0 0 0
0 0 0
0 0 0
0 0 0
0 0 0
0 0 0
0 0 0
0 0 0
0 0 0
0 0 0
0 0 0
0 0 0
0 0 0
0 0 0
0 0 0
0 0 0
0 0 0
0 0 0
0 0 0
0 0 0
0 0 0
0 0 0
0 0 0
0 0 0
0 0 0
0 0 0
0 0 0
0 0 0
0 0 0
0 0 0
0 0 0
0 0 0
0 0 0
0 0 0
0 0 0
0 0 0
0 0 0
0 0 0
0 0 0
0 0 0
0 0 0
0 0 0
0 0 0
0 0 0
0 0 0
0 0 0
0 0 0
0 0 0
0 0 0
0 0 0
0 0 0
0 0 0
0 0 0
0 0 0
0 0 0
0 0 0
0 0 0
0 0 0
0 0 0
0 0 0
0 0 0
0 0 0
0 0 0
0 0 0
0 0 0
0 0 0
0 0 0
0 0 0
0 0 0
0 0 0
0 0 0
0 0 0
0 0 0
0 0 0
0 0 0
0 0 0
0 0 0
0 0 0
0 0 0
0 0 0
0 0 0
0 0 0
0 0 0
0 0 0
0 0 0
0 0 0
0 0 0
0 0 0
0 0 0
0 0 0
0 0 0
0 0 0
0 0 0
0 0 0
0 0 0
0 0 0
0 0 0
0 0 0
0 0 0
0 0 0
0 0 0
0 0 0
0 0 0
0 0 0
0 0 0
0 0 0
0 0 0
0 0 0
0 0 0
0 0 0
0 0 0
0 0 0
0 0 0
0 0 0
0 0 0
0 0 0
0 0 0
0 0 0
0 0 0
0 0 0
0 0 0
68 68 71
144 143 148
102 102 105
139 138 142
27 27 24
0 0 0
0 0 0
0 0 0
0 0 0
0 0 0
0 0 0
0 0 0
0 0 0
0 0 0
0 0 0
0 0 0
0 0 0
0 0 0
0 0 0
0 0 0
0 0 0
0 0 0
0 0 0
0 0 0
0 0 0
0 0 0
0 0 0
0 0 0
0 0 0
0 0 0
0 0 0
0 0 0
0 0 0
0 0 0
0 0 0
0 0 0
0 0 0
0 0 0
0 0 0
0 0 0
0 0 0
0 0 0
0 0 0
0 0 0
0 0 0
0 0 0
0 0 0
10 11 5
45 45 44
102 102 105
149 150 146
124 124 125
45 45 44
0 0 0
0 0 0
1 1 1
0 0 0
0 0 0
0 0 0
0 0 0
0 0 0
0 0 0
0 0 0
0 0 0
0 0 0
0 0 0
0 0 0
0 0 0
0 0 0
0 0 0
0 0 0
0 0 0
0 0 0
0 0 0
0 0 0
0 0 0
0 0 0
0 0 0
0 0 0
0 0 0
0 0 0
0 0 0
0 0 0
0 0 0
0 0 0
0 0 0
0 0 0
0 0 0
0 0 0
0 0 0
0 0 0
0 0 0
0 0 0
0 0 0
0 0 0
0 0 0
0 0 0
0 0 0
0 0 0
0 0 0
0 0 0
0 0 0
0 0 0
0 0 0
0 0 0
0 0 0
0 0 0
0 0 0
0 0 0
0 0 0
0 0 0
0 0 0
0 0 0
0 0 0
0 0 0
0 0 0
0 0 0
0 0 0
0 0 0
0 0 0
0 0 0
0 0 0
0 0 0
0 0 0
0 0 0
0 0 0
0 0 0
0 0 0
0 0 0
0 0 0
0 0 0
0 0 0
0 0 0
0 0 0
0 0 0
0 0 0
0 0 0
0 0 0
0 0 0
0 0 0
0 0 0
0 0 0
0 0 0
0 0 0
0 0 0
0 0 0
0 0 0
0 0 0
0 0 0
0 0 0
0 0 0
0 0 0
0 0 0
0 0 0
0 0 0
0 0 0
0 0 0
0 0 0
0 0 0
0 0 0
0 0 0
0 0 0
0 0 0
1 1 1
0 0 0
68 68 71
144 143 148
132 132 135
85 86 83
52 57 52
45 45 44
45 45 44
45 45 44
45 45 44
45 45 44
45 45 44
45 45 44
45 45 44
45 45 44
45 45 44
45 45 44
45 45 44
45 45 44
45 45 44
45 45 44
45 45 44
45 45 44
45 45 44
44 42 44
44 42 44
45 45 44
45 45 44
45 45 44
45 45 44
45 45 44
45 45 44
45 45 44
45 45 44
45 45 44
45 45 44
45 45 44
45 45 44
45 45 44
45 45 44
45 45 44
45 45 44
45 45 44
45 45 44
45 45 44
45 45 44
45 45 44
45 45 44
45 45 44
45 45 44
45 45 44
45 45 44
45 45 44
45 45 44
45 45 44
45 45 44
45 45 44
45 45 44
45 45 44
45 45 44
45 45 44
45 45 44
45 45 44
44 42 44
45 45 44
45 45 44
45 45 44
45 45 44
45 45 44
45 45 44
45 45 44
44 42 44
44 42 44
45 45 44
45 45 44
45 45 44
45 45 44
45 45 44
45 45 44
45 45 44
45 45 44
45 45 44
45 45 44
45 45 44
45 45 44
45 45 44
45 45 44
45 45 44
45 45 44
45 45 44
45 45 44
45 45 44
45 45 44
45 45 44
45 45 44
45 45 44
45 45 44
45 45 44
45 45 44
45 45 44
45 45 44
45 45 44
45 45 44
45 45 44
45 45 44
45 45 44
45 45 44
45 45 44
45 45 44
45 45 44
45 45 44
45 45 44
45 45 44
45 45 44
45 45 44
45 45 44
45 45 44
45 45 44
45 45 44
45 45 44
45 45 44
45 45 44
45 45 44
45 45 44
45 45 44
45 45 44
45 45 44
45 45 44
45 45 44
45 45 44
45 45 44
45 45 44
48 48 50
45 45 44
45 45 44
45 45 44
45 45 44
45 45 44
45 45 44
45 45 44
45 45 44
45 45 44
45 45 44
48 48 50
45 45 44
48 48 50
45 45 44
45 45 44
45 45 44
45 45 44
45 45 44
45 45 44
45 45 44
45 45 44
71 72 76
124 124 125
144 143 148
51 51 55
1 1 0
102 102 105
144 143 148
88 87 91
68 68 71
68 68 71
68 68 71
68 68 71
68 68 71
68 68 71
68 68 71
68 68 71
68 68 71
68 68 71
68 68 71
68 68 71
68 68 71
68 68 71
68 68 71
68 68 71
71 72 76
71 72 76
68 68 71
68 68 71
68 68 71
68 68 71
68 68 71
71 72 76
68 68 71
68 68 71
68 68 71
68 68 71
68 68 71
68 68 71
68 68 71
68 68 71
68 68 71
68 68 71
68 68 71
68 68 71
68 68 71
68 68 71
74 74 77
90 90 92
113 112 110
135 135 137
144 143 148
116 116 120
54 54 58
1 1 0
0 0 0
1 1 1
1 1 1
0 0 0
0 0 0
0 0 0
0 0 0
0 0 0
0 0 0
0 0 0
0 0 0
0 0 0
0 0 0
0 0 0
0 0 0
0 0 0
0 0 0
0 0 0
0 0 0
0 0 0
0 0 0
0 0 0
0 0 0
0 0 0
0 0 0
0 0 0
0 0 0
0 0 0
0 0 0
0 0 0
0 0 0
0 0 0
0 0 0
0 0 0
0 0 0
0 0 0
0 0 0
0 0 0
0 0 0
0 0 0
0 0 0
0 0 0
0 0 0
0 0 0
0 0 0
0 0 0
0 0 0
0 0 0
0 0 0
0 0 0
0 0 0
0 0 0
0 0 0
0 0 0
0 0 0
0 0 0
0 0 0
0 0 0
0 0 0
0 0 0
0 0 0
0 0 0
0 0 0
0 0 0
0 0 0
0 0 0
0 0 0
0 0 0
0 0 0
0 0 0
0 0 0
0 0 0
0 0 0
0 0 0
0 0 0
0 0 0
0 0 0
0 0 0
0 0 0
0 0 0
0 0 0
0 0 0
0 0 0
0 0 0
0 0 0
0 0 0
0 0 0
0 0 0
0 0 0
0 0 0
0 0 0
0 0 0
0 0 0
0 0 0
0 0 0
0 0 0
0 0 0
0 0 0
0 0 0
0 0 0
0 0 0
0 0 0
0 0 0
0 0 0
0 0 0
0 0 0
0 0 0
0 0 0
0 0 0
0 0 0
0 0 0
0 0 0
1 1 1
0 0 0
14 14 14
74 74 77
116 116 120
130 130 134
130 130 134
130 130 134
130 130 134
132 132 135
135 135 137
132 132 135
132 132 135
130 130 134
130 130 134
130 130 134
130 130 134
130 130 134
130 130 134
130 130 134
130 130 134
130 130 134
130 130 134
130 130 134
130 130 134
130 130 134
130 130 134
130 130 134
130 130 134
130 130 134
132 132 135
135 135 137
132 132 135
132 132 135
132 132 135
132 132 135
132 132 135
132 132 135
132 132 135
132 132 135
132 132 135
135 135 137
132 132 135
132 132 135
135 135 137
132 132 135
132 132 135
132 132 135
130 130 134
130 130 134
130 130 134
132 132 135
132 132 135
135 135 137
135 135 137
132 132 135
132 132 135
132 132 135
132 132 135
132 132 135
135 135 137
132 132 135
130 130 134
130 130 134
130 130 134
132 132 135
135 135 137
132 132 135
132 132 135
132 132 135
132 132 135
130 130 134
130 130 134
132 132 135
132 132 135
132 132 135
132 132 135
135 135 137
135 135 137
135 135 137
135 135 137
132 132 135
130 130 134
130 130 134
132 132 135
135 135 137
135 135 137
132 132 135
135 135 137
135 135 137
135 135 137
135 135 137
135 135 137
135 135 137
132 132 135
132 132 135
132 132 135
132 132 135
135 135 137
135 135 137
132 132 135
132 132 135
135 135 137
135 135 137
135 135 137
135 135 137
132 132 135
132 132 135
132 132 135
135 135 137
135 135 137
135 135 137
132 132 135
132 132 135
132 132 135
132 132 135
132 132 135
135 135 137
135 135 137
135 135 137
132 132 135
132 132 135
132 132 135
132 132 135
135 135 137
132 132 135
132 132 135
132 132 135
132 132 135
130 130 134
132 132 135
135 135 137
139 138 142
135 135 137
135 135 137
130 130 134
130 130 134
132 132 135
130 130 134
130 130 134
132 132 135
132 132 135
135 135 137
135 135 137
135 135 137
132 132 135
132 132 135
130 130 134
130 130 134
130 130 134
132 132 135
132 132 135
130 130 134
130 130 134
124 124 125
94 95 98
27 27 24
0 0 0
1 1 1
1 1 1
59 64 62
113 112 110
116 116 120
118 118 122
118 118 122
116 116 120
116 116 120
116 116 120
118 118 122
118 118 122
118 118 122
122 122 126
122 122 126
118 118 122
118 118 122
122 122 126
124 124 125
124 124 125
130 130 134
130 130 134
124 124 125
124 124 125
122 122 126
118 118 122
122 122 126
124 124 125
124 124 125
122 122 126
124 124 125
124 124 125
124 124 125
122 122 126
122 122 126
124 124 125
124 124 125
124 124 125
122 122 126
122 122 126
122 122 126
124 124 125
118 118 122
113 112 110
91 91 95
54 54 58
18 18 18
0 0 0
0 0 0
0 0 0
2 2 2
0 0 0
0 0 0
0 0 0
0 0 0
0 0 0
0 0 0
0 0 0
0 0 0
0 0 0
0 0 0
0 0 0
0 0 0
0 0 0
0 0 0
0 0 0
0 0 0
0 0 0
0 0 0
0 0 0
0 0 0
0 0 0
0 0 0
0 0 0
0 0 0
0 0 0
0 0 0
0 0 0
0 0 0
0 0 0
0 0 0
0 0 0
0 0 0
0 0 0
0 0 0
0 0 0
0 0 0
0 0 0
0 0 0
0 0 0
0 0 0
0 0 0
0 0 0
0 0 0
0 0 0
0 0 0
0 0 0
0 0 0
0 0 0
0 0 0
0 0 0
0 0 0
0 0 0
0 0 0
0 0 0
0 0 0
0 0 0
0 0 0
0 0 0
0 0 0
0 0 0
0 0 0
0 0 0
0 0 0
0 0 0
0 0 0
0 0 0
0 0 0
0 0 0
0 0 0
0 0 0
0 0 0
0 0 0
0 0 0
0 0 0
0 0 0
0 0 0
0 0 0
0 0 0
0 0 0
0 0 0
0 0 0
0 0 0
0 0 0
0 0 0
0 0 0
0 0 0
0 0 0
0 0 0
0 0 0
0 0 0
0 0 0
0 0 0
0 0 0
0 0 0
0 0 0
0 0 0
0 0 0
0 0 0
0 0 0
0 0 0
0 0 0
0 0 0
0 0 0
0 0 0
0 0 0
0 0 0
0 0 0
0 0 0
0 0 0
0 0 0
0 0 0
0 0 0
2 2 2
0 0 0
0 0 0
0 0 0
3 4 4
6 6 7
5 5 6
5 5 6
6 6 5
6 6 5
6 6 5
6 6 5
6 6 5
5 5 6
6 6 5
6 6 5
6 5 6
6 6 5
6 6 7
6 6 5
6 6 5
6 6 5
6 6 5
6 6 5
6 6 5
6 6 5
6 6 5
6 6 5
6 6 5
6 6 7
7 7 7
6 6 5
6 6 5
6 6 5
6 6 5
6 6 5
6 6 5
6 6 5
7 7 7
7 7 7
7 7 7
6 6 5
6 6 5
6 6 5
6 6 5
6 6 7
6 6 5
6 6 5
6 6 5
6 6 5
6 6 5
6 6 5
6 6 5
6 6 5
6 6 5
6 6 5
6 6 5
6 6 5
6 6 5
6 6 7
6 6 7
6 6 5
6 6 5
6 6 5
6 6 5
6 6 5
6 6 5
6 6 5
6 6 5
6 6 5
6 6 5
6 6 5
6 6 5
7 7 7
6 6 5
6 6 5
7 7 7
7 7 7
7 7 7
7 7 7
6 6 5
6 6 5
6 6 5
6 6 5
7 7 7
7 7 7
6 6 5
6 6 5
6 6 5
6 6 5
6 6 5
6 6 5
6 6 5
6 6 5
6 6 5
6 6 5
6 6 5
6 6 5
6 6 5
6 6 5
6 6 5
6 6 5
6 6 5
6 6 5
6 6 5
6 6 5
7 7 7
7 7 7
7 7 7
7 7 7
7 7 7
7 7 7
6 6 5
6 6 5
6 6 5
6 6 7
6 6 5
6 6 7
6 6 5
6 6 5
6 6 5
6 6 5
7 7 7
7 7 7
6 6 7
6 6 5
6 6 5
6 6 5
5 5 6
6 6 5
6 6 5
6 6 5
6 6 5
6 6 5
6 6 5
6 6 5
6 6 5
6 6 7
6 6 5
6 6 5
6 6 5
6 6 5
5 5 6
5 5 6
6 5 6
6 6 5
6 5 6
6 6 5
6 6 5
6 6 7
6 6 5
6 6 5
6 6 7
0 0 0
0 0 0
0 0 0
1 1 1
0 0 0
0 0 0
0 0 0
0 0 0
0 0 0
0 0 0
0 0 0
0 0 0
0 0 0
0 0 0
0 0 0
0 0 0
0 0 0
1 1 0
1 1 0
1 1 0
1 1 0
1 1 0
1 1 0
1 1 0
1 1 0
1 1 0
1 1 0
1 1 0
0 0 0
0 0 0
0 0 0
0 0 0
0 0 0
0 0 0
0 0 0
0 0 0
0 0 0
0 0 0
1 0 0
0 1 0
1 0 0
0 0 0
0 0 0
0 0 0
0 0 0
0 0 0
0 0 0
0 0 0
0 0 0
0 0 0
0 0 0
1 1 1
2 2 2
0 0 0
0 0 0
0 0 0
0 0 0
0 0 0
0 0 0
0 0 0
0 0 0
0 0 0
0 0 0
0 0 0
0 0 0
0 0 0
0 0 0
0 0 0
0 0 0
0 0 0
0 0 0
0 0 0
0 0 0
0 0 0
0 0 0
0 0 0
0 0 0
0 0 0
0 0 0
0 0 0
0 0 0
0 0 0
0 0 0
0 0 0
0 0 0
0 0 0
0 0 0
0 0 0
0 0 0
0 0 0
0 0 0
0 0 0
0 0 0
0 0 0
0 0 0
0 0 0
0 0 0
0 0 0
0 0 0
0 0 0
0 0 0
0 0 0
0 0 0
0 0 0
0 0 0
0 0 0
0 0 0
0 0 0
0 0 0
0 0 0
0 0 0
0 0 0
0 0 0
0 0 0
0 0 0
0 0 0
0 0 0
0 0 0
0 0 0
0 0 0
0 0 0
0 0 0
0 0 0
0 0 0
0 0 0
0 0 0
0 0 0
0 0 0
0 0 0
0 0 0
0 0 0
0 0 0
0 0 0
0 0 0
0 0 0
0 0 0
0 0 0
0 0 0
0 0 0
0 0 0
0 0 0
0 0 0
0 0 0
0 0 0
0 0 0
0 0 0
0 0 0
0 0 0
0 0 0
0 0 0
0 0 0
0 0 0
0 0 0
0 0 0
0 0 0
0 0 0
0 0 0
0 0 0
0 0 0
0 0 0
0 0 0
0 0 0
0 0 0
0 0 0
0 0 0
0 0 0
0 0 0
0 0 0
1 1 1
2 2 2
1 1 1
0 0 0
0 0 0
0 0 0
0 0 0
0 0 0
0 0 0
0 0 0
0 0 0
0 0 0
0 0 0
0 0 0
0 0 0
0 0 0
0 0 0
0 0 0
0 0 0
0 0 0
0 0 0
0 0 0
0 0 0
0 0 0
0 0 0
0 0 0
0 0 0
0 0 0
0 0 0
0 0 0
0 0 0
0 0 0
0 0 0
0 0 0
0 0 0
0 0 0
0 0 0
0 0 0
0 0 0
0 0 0
0 0 0
0 0 0
0 0 0
0 0 0
0 0 0
0 0 0
0 0 0
0 0 0
0 0 0
0 0 0
0 0 0
0 0 0
0 0 0
0 0 0
0 0 0
0 0 0
0 0 0
0 0 0
0 0 0
0 0 0
0 0 0
0 0 0
0 0 0
0 0 0
0 0 0
0 0 0
0 0 0
0 0 0
0 0 0
0 0 0
0 0 0
0 0 0
0 0 0
0 0 0
0 0 0
0 0 0
0 0 0
0 0 0
0 0 0
0 0 0
0 0 0
0 0 0
0 0 0
0 0 0
0 0 0
0 0 0
0 0 0
0 0 0
0 0 0
0 0 0
0 0 0
0 0 0
0 0 0
0 0 0
0 0 0
0 0 0
0 0 0
0 0 0
0 0 0
0 0 0
0 0 0
0 0 0
0 0 0
0 0 0
0 0 0
0 0 0
0 0 0
0 0 0
0 0 0
0 0 0
0 0 0
0 0 0
0 0 0
0 0 0
0 0 0
0 0 0
0 0 0
0 0 0
0 0 0
0 0 0
0 0 0
0 0 0
0 0 0
0 0 0
0 0 0
0 0 0
0 0 0
0 0 0
0 0 0
0 0 0
0 0 0
0 0 0
0 0 0
0 0 0
0 0 0
0 0 0
0 0 0
0 0 0
0 0 0
0 0 0
0 0 0
0 0 0
0 0 0
0 0 0
0 0 0
0 0 0
0 0 0
0 0 0
0 0 0
0 0 0
0 0 0
0 0 0
0 0 0
2 2 2
1 1 1
0 0 0
0 0 0
0 0 0
2 2 2
1 1 1
0 0 0
0 0 0
0 0 0
0 0 0
0 0 0
0 0 0
0 0 0
0 0 0
0 0 0
0 0 0
0 0 0
0 0 0
0 0 0
0 0 0
0 0 0
0 0 0
0 0 0
0 0 0
0 0 0
0 0 0
0 0 0
0 0 0
0 0 0
0 0 0
0 0 0
0 0 0
0 0 0
0 0 0
0 0 0
0 0 0
0 0 0
0 0 0
0 0 0
0 0 0
0 0 0
0 0 0
0 0 0
0 0 0
0 0 0
1 1 1
2 2 2
2 2 2
1 1 1
0 0 0
0 0 0
0 0 0
0 0 0
0 0 0
0 0 0
0 0 0
0 0 0
0 0 0
0 0 0
0 0 0
0 0 0
0 0 0
0 0 0
0 0 0
0 0 0
0 0 0
0 0 0
0 0 0
0 0 0
0 0 0
0 0 0
0 0 0
0 0 0
0 0 0
0 0 0
0 0 0
0 0 0
0 0 0
0 0 0
0 0 0
0 0 0
0 0 0
0 0 0
0 0 0
0 0 0
0 0 0
0 0 0
0 0 0
0 0 0
0 0 0
0 0 0
0 0 0
0 0 0
0 0 0
0 0 0
0 0 0
0 0 0
0 0 0
0 0 0
0 0 0
0 0 0
0 0 0
0 0 0
0 0 0
0 0 0
0 0 0
0 0 0
0 0 0
0 0 0
0 0 0
0 0 0
0 0 0
0 0 0
0 0 0
0 0 0
0 0 0
0 0 0
0 0 0
0 0 0
0 0 0
0 0 0
0 0 0
0 0 0
0 0 0
0 0 0
0 0 0
0 0 0
0 0 0
0 0 0
0 0 0
0 0 0
0 0 0
0 0 0
0 0 0
0 0 0
0 0 0
0 0 0
0 0 0
0 0 0
0 0 0
0 0 0
0 0 0
0 0 0
0 0 0
0 0 0
0 0 0
0 0 0
0 0 0
0 0 0
0 0 0
0 0 0
0 0 0
0 0 0
0 0 0
0 0 0
0 0 0
0 0 0
0 0 0
0 0 0
0 0 0
0 0 0
0 0 0
0 0 0
0 0 0
0 0 0
0 0 0
0 0 0
0 0 0
0 0 0
1 1 1
1 1 1
1 1 1
1 1 1
1 1 1
1 1 1
1 1 1
1 1 1
1 1 1
1 1 1
1 1 1
1 1 1
1 1 1
1 1 1
1 1 1
1 1 1
1 1 1
1 1 1
1 1 1
1 1 1
1 1 1
1 1 1
1 1 1
1 1 1
1 1 1
1 1 1
1 1 1
1 1 1
1 1 1
1 1 1
1 1 1
1 1 1
1 1 1
1 1 1
1 1 1
1 1 1
1 1 1
1 1 1
1 1 1
1 1 1
1 1 1
1 1 1
1 1 1
1 1 1
1 1 1
1 1 1
1 1 1
1 1 1
1 1 1
1 1 1
1 1 1
1 1 1
1 1 1
1 1 1
1 1 1
1 1 1
1 1 1
1 1 1
1 1 1
1 1 1
1 1 1
1 1 1
1 1 1
1 1 1
1 1 1
1 1 1
1 1 1
1 1 1
1 1 1
1 1 1
1 1 1
1 1 1
1 1 1
1 1 1
1 1 1
1 1 1
1 1 1
1 1 1
1 1 1
1 1 1
1 1 1
1 1 1
1 1 1
1 1 1
1 1 1
1 1 1
1 1 1
1 1 1
1 1 1
1 1 1
1 1 1
1 1 1
1 1 1
1 1 1
1 1 1
1 1 1
1 1 1
1 1 1
1 1 1
1 1 1
1 1 1
1 1 1
1 1 1
1 1 1
1 1 1
1 1 1
1 1 1
1 1 1
1 1 1
1 1 1
1 1 1
1 1 1
1 1 1
1 1 1
1 1 1
1 1 1
1 1 1
1 1 1
1 1 1
1 1 1
1 1 1
1 1 1
1 1 1
1 1 1
1 1 1
1 1 1
1 1 1
1 1 1
1 1 1
1 1 1
1 1 1
1 1 1
1 1 1
1 1 1
1 1 1
1 1 1
1 1 1
1 1 1
1 1 1
1 1 1
1 1 1
1 1 1
1 1 1
1 1 1
1 1 1
1 1 1
1 1 1
1 1 1
1 1 1
0 0 0
0 0 0
0 0 0
0 0 0
0 0 0
0 0 0
0 0 0
0 0 0
0 0 0
0 0 0
0 0 0
0 0 0
0 0 0
0 0 0
0 0 0
0 0 0
0 0 0
0 0 0
0 0 0
0 0 0
0 0 0
0 0 0
0 0 0
0 0 0
0 0 0
0 0 0
0 0 0
0 0 0
0 0 0
0 0 0
0 0 0
0 0 0
0 0 0
0 0 0
0 0 0
0 0 0
0 0 0
0 0 0
0 0 0
0 0 0
0 0 0
0 0 0
0 0 0
0 0 0
0 0 0
0 0 0
0 0 0
0 0 0
0 0 0
0 0 0
0 0 0
0 0 0
0 0 0
0 0 0
0 0 0
0 0 0
0 0 0
0 0 0
0 0 0
0 0 0
0 0 0
0 0 0
0 0 0
0 0 0
0 0 0
0 0 0
0 0 0
0 0 0
0 0 0
0 0 0
0 0 0
0 0 0
0 0 0
0 0 0
0 0 0
0 0 0
0 0 0
0 0 0
0 0 0
0 0 0
0 0 0
0 0 0
0 0 0
0 0 0
0 0 0
0 0 0
0 0 0
0 0 0
0 0 0
0 0 0
0 0 0
0 0 0
0 0 0
0 0 0
0 0 0
0 0 0
0 0 0
0 0 0
0 0 0
0 0 0
0 0 0
0 0 0
0 0 0
0 0 0
0 0 0
0 0 0
0 0 0
0 0 0
0 0 0
0 0 0
0 0 0
0 0 0
0 0 0
0 0 0
0 0 0
0 0 0
0 0 0
0 0 0
0 0 0
0 0 0
0 0 0
0 0 0
0 0 0
0 0 0
0 0 0
0 0 0
0 0 0
0 0 0
0 0 0
0 0 0
0 0 0
0 0 0
0 0 0
0 0 0
0 0 0
0 0 0
0 0 0
0 0 0
0 0 0
0 0 0
0 0 0
0 0 0
0 0 0
0 0 0
0 0 0
0 0 0
0 0 0
0 0 0
0 0 0
0 0 0
0 0 0
0 0 0
0 0 0
0 0 0
0 0 0
0 0 0
0 0 0
0 0 0
0 0 0
0 0 0
0 0 0
0 0 0
0 0 0
0 0 0
0 0 0
0 0 0
0 0 0
0 0 0
0 0 0
0 0 0
0 0 0
0 0 0
0 0 0
0 0 0
0 0 0
0 0 0
0 0 0
0 0 0
0 0 0
0 0 0
0 0 0
0 0 0
0 0 0
0 0 0
0 0 0
0 0 0
0 0 0
0 0 0
0 0 0
0 0 0
0 0 0
0 0 0
0 0 0
0 0 0
0 0 0
0 0 0
0 0 0
0 0 0
0 0 0
0 0 0
0 0 0
0 0 0
0 0 0
0 0 0
0 0 0
0 0 0
0 0 0
0 0 0
0 0 0
0 0 0
0 0 0
0 0 0
0 0 0
0 0 0
0 0 0
0 0 0
0 0 0
0 0 0
0 0 0
0 0 0
0 0 0
0 0 0
0 0 0
0 0 0
0 0 0
0 0 0
0 0 0
0 0 0
0 0 0
0 0 0
0 0 0
0 0 0
0 0 0
0 0 0
0 0 0
0 0 0
0 0 0
0 0 0
0 0 0
0 0 0
0 0 0
0 0 0
0 0 0
0 0 0
0 0 0
0 0 0
0 0 0
0 0 0
0 0 0
0 0 0
0 0 0
0 0 0
0 0 0
0 0 0
0 0 0
0 0 0
0 0 0
0 0 0
0 0 0
0 0 0
0 0 0
0 0 0
0 0 0
0 0 0
0 0 0
0 0 0
0 0 0
0 0 0
0 0 0
0 0 0
0 0 0
0 0 0
0 0 0
0 0 0
0 0 0
0 0 0
0 0 0
0 0 0
0 0 0
0 0 0
0 0 0
0 0 0
0 0 0
0 0 0
0 0 0
0 0 0
0 0 0
0 0 0
0 0 0
0 0 0
0 0 0
0 0 0
0 0 0
0 0 0
0 0 0
0 0 0
0 0 0
0 0 0
0 0 0
0 0 0
0 0 0
0 0 0
0 0 0
0 0 0
0 0 0
0 0 0
0 0 0
0 0 0
0 0 0
0 0 0
0 0 0
0 0 0
0 0 0
0 0 0
0 0 0
0 0 0
0 0 0
0 0 0
0 0 0
0 0 0
0 0 0
0 0 0
0 0 0
0 0 0
0 0 0
0 0 0
0 0 0
0 0 0
0 0 0
0 0 0
0 0 0
0 0 0
0 0 0
0 0 0
0 0 0
0 0 0
0 0 0
0 0 0
0 0 0
0 0 0
0 0 0
0 0 0
0 0 0
0 0 0
0 0 0
0 0 0
0 0 0
0 0 0
0 0 0
0 0 0
0 0 0
0 0 0
0 0 0
0 0 0
0 0 0
0 0 0
0 0 0
0 0 0
0 0 0
0 0 0
0 0 0
0 0 0
0 0 0
0 0 0
0 0 0
0 0 0
0 0 0
0 0 0
0 0 0
0 0 0
0 0 0
0 0 0
0 0 0
0 0 0
0 0 0
0 0 0
0 0 0
0 0 0
0 0 0
0 0 0
0 0 0
0 0 0
0 0 0
0 0 0
0 0 0
0 0 0
0 0 0
0 0 0
0 0 0
0 0 0
0 0 0
0 0 0
0 0 0
0 0 0
0 0 0
0 0 0
0 0 0
0 0 0
0 0 0
0 0 0
0 0 0
0 0 0
0 0 0
0 0 0
0 0 0
0 0 0
0 0 0
0 0 0
0 0 0
0 0 0
0 0 0
0 0 0
0 0 0
0 0 0
0 0 0
0 0 0
0 0 0
0 0 0
0 0 0
0 0 0
0 0 0
0 0 0
0 0 0
0 0 0
0 0 0
0 0 0
0 0 0
0 0 0
0 0 0
0 0 0
0 0 0
0 0 0
0 0 0
0 0 0
0 0 0
0 0 0
0 0 0
0 0 0
0 0 0
0 0 0
0 0 0
0 0 0
0 0 0
0 0 0
0 0 0
0 0 0
0 0 0
0 0 0
0 0 0
0 0 0
0 0 0
0 0 0
0 0 0
0 0 0
0 0 0
0 0 0
0 0 0
0 0 0
0 0 0
0 0 0
0 0 0
0 0 0
0 0 0
0 0 0
0 0 0
0 0 0
0 0 0
0 0 0
0 0 0
0 0 0
0 0 0
0 0 0
0 0 0
0 0 0
0 0 0
0 0 0
0 0 0
0 0 0
0 0 0
0 0 0
0 0 0
0 0 0
0 0 0
0 0 0
0 0 0
0 0 0
0 0 0
0 0 0
0 0 0
0 0 0
0 0 0
0 0 0
0 0 0
0 0 0
0 0 0
0 0 0
0 0 0
0 0 0
0 0 0
0 0 0
0 0 0
0 0 0
0 0 0
0 0 0
0 0 0
0 0 0
0 0 0
0 0 0
0 0 0
0 0 0
0 0 0
0 0 0
0 0 0
0 0 0
0 0 0
0 0 0
0 0 0
0 0 0
0 0 0
0 0 0
0 0 0
0 0 0
0 0 0
0 0 0
0 0 0
0 0 0
0 0 0
0 0 0
0 0 0
0 0 0
0 0 0
0 0 0
0 0 0
0 0 0
0 0 0
0 0 0
0 0 0
0 0 0
0 0 0
0 0 0
0 0 0
0 0 0
0 0 0
0 0 0
0 0 0
0 0 0
0 0 0
0 0 0
0 0 0
0 0 0
0 0 0
0 0 0
0 0 0
0 0 0
0 0 0
0 0 0
0 0 0
0 0 0
0 0 0
0 0 0
0 0 0
0 0 0
0 0 0
0 0 0
0 0 0
0 0 0
0 0 0
0 0 0
0 0 0
0 0 0
0 0 0
0 0 0
0 0 0
0 0 0
0 0 0
0 0 0
0 0 0
0 0 0
0 0 0
0 0 0
0 0 0
0 0 0
0 0 0
0 0 0
0 0 0
0 0 0
0 0 0
0 0 0
0 0 0
0 0 0
0 0 0
0 0 0
0 0 0
0 0 0
0 0 0
0 0 0
0 0 0
0 0 0
0 0 0
0 0 0
0 0 0
0 0 0
0 0 0
0 0 0
0 0 0
0 0 0
0 0 0
0 0 0
0 0 0
0 0 0
0 0 0
0 0 0
0 0 0
0 0 0
0 0 0
0 0 0
0 0 0
0 0 0
0 0 0
0 0 0
0 0 0
0 0 0
0 0 0
0 0 0
0 0 0
0 0 0
0 0 0
0 0 0
0 0 0
0 0 0
0 0 0
0 0 0
0 0 0
0 0 0
0 0 0
0 0 0
0 0 0
0 0 0
0 0 0
0 0 0
0 0 0
0 0 0
0 0 0
0 0 0
0 0 0
0 0 0
0 0 0
0 0 0
0 0 0
0 0 0
0 0 0
0 0 0
0 0 0
0 0 0
0 0 0
0 0 0
0 0 0
0 0 0
0 0 0
0 0 0
0 0 0
0 0 0
0 0 0
0 0 0
0 0 0
0 0 0
0 0 0
0 0 0
0 0 0
0 0 0
0 0 0
0 0 0
0 0 0
0 0 0
0 0 0
0 0 0
0 0 0
0 0 0
0 0 0
0 0 0
0 0 0
0 0 0
0 0 0
0 0 0
0 0 0
0 0 0
0 0 0
0 0 0
0 0 0
0 0 0
0 0 0
0 0 0
0 0 0
0 0 0
0 0 0
0 0 0
0 0 0
0 0 0
0 0 0
0 0 0
0 0 0
0 0 0
0 0 0
0 0 0
0 0 0
0 0 0
0 0 0
0 0 0
0 0 0
0 0 0
0 0 0
0 0 0
0 0 0
0 0 0
0 0 0
0 0 0
0 0 0
0 0 0
0 0 0
0 0 0
0 0 0
0 0 0
0 0 0
0 0 0
0 0 0
0 0 0
0 0 0
0 0 0
0 0 0
0 0 0
0 0 0
0 0 0
0 0 0
0 0 0
0 0 0
0 0 0
0 0 0
0 0 0
0 0 0
0 0 0
0 0 0
0 0 0
0 0 0
0 0 0
0 0 0
0 0 0
0 0 0
0 0 0
0 0 0
0 0 0
0 0 0
0 0 0
0 0 0
0 0 0
0 0 0
0 0 0
0 0 0
0 0 0
0 0 0
0 0 0
0 0 0
0 0 0
0 0 0
0 0 0
0 0 0
0 0 0
0 0 0
0 0 0
0 0 0
0 0 0
0 0 0
0 0 0
0 0 0
0 0 0
0 0 0
0 0 0
0 0 0
0 0 0
0 0 0
0 0 0
0 0 0
0 0 0
0 0 0
0 0 0
0 0 0
0 0 0
0 0 0
0 0 0
0 0 0
0 0 0
0 0 0
0 0 0
0 0 0
0 0 0
0 0 0
0 0 0
0 0 0
0 0 0
0 0 0
0 0 0
0 0 0
0 0 0
0 0 0
0 0 0
0 0 0
0 0 0
0 0 0
0 0 0
0 0 0
0 0 0
0 0 0
0 0 0
0 0 0
0 0 0
0 0 0
0 0 0
0 0 0
0 0 0
0 0 0
0 0 0
0 0 0
0 0 0
0 0 0
0 0 0
0 0 0
0 0 0
0 0 0
0 0 0
0 0 0
0 0 0
0 0 0
0 0 0
0 0 0
0 0 0
0 0 0
0 0 0
0 0 0
0 0 0
0 0 0
0 0 0
0 0 0
0 0 0
0 0 0
0 0 0
0 0 0
0 0 0
0 0 0
0 0 0
0 0 0
0 0 0
0 0 0
0 0 0
0 0 0
0 0 0
0 0 0
0 0 0
0 0 0
0 0 0
0 0 0
0 0 0
0 0 0
0 0 0
0 0 0
0 0 0
0 0 0
0 0 0
0 0 0
0 0 0
0 0 0
0 0 0
0 0 0
0 0 0
0 0 0
0 0 0
0 0 0
0 0 0
0 0 0
0 0 0
0 0 0
0 0 0
0 0 0
0 0 0
0 0 0
0 0 0
0 0 0
0 0 0
0 0 0
0 0 0
0 0 0
0 0 0
0 0 0
0 0 0
0 0 0
0 0 0
0 0 0
0 0 0
0 0 0
0 0 0
0 0 0
0 0 0
0 0 0
0 0 0
0 0 0
0 0 0
0 0 0
0 0 0
0 0 0
0 0 0
0 0 0
0 0 0
0 0 0
0 0 0
0 0 0
0 0 0
0 0 0
0 0 0
0 0 0
0 0 0
0 0 0
0 0 0
0 0 0
0 0 0
0 0 0
0 0 0
0 0 0
0 0 0
0 0 0
0 0 0
0 0 0
0 0 0
0 0 0
0 0 0
0 0 0
0 0 0
0 0 0
0 0 0
0 0 0
0 0 0
0 0 0
0 0 0
0 0 0
0 0 0
0 0 0
0 0 0
0 0 0
0 0 0
0 0 0
0 0 0
0 0 0
0 0 0
0 0 0
0 0 0
0 0 0
0 0 0
0 0 0
0 0 0
0 0 0
0 0 0
0 0 0
0 0 0
0 0 0
0 0 0
0 0 0
0 0 0
0 0 0
0 0 0
0 0 0
0 0 0
0 0 0
0 0 0
0 0 0
0 0 0
0 0 0
0 0 0
0 0 0
0 0 0
0 0 0
0 0 0
0 0 0
0 0 0
0 0 0
0 0 0
0 0 0
0 0 0
0 0 0
0 0 0
0 0 0
0 0 0
0 0 0
0 0 0
0 0 0
0 0 0
0 0 0
0 0 0
0 0 0
0 0 0
0 0 0
0 0 0
0 0 0
0 0 0
0 0 0
0 0 0
0 0 0
0 0 0
0 0 0
0 0 0
0 0 0
0 0 0
0 0 0
0 0 0
0 0 0
0 0 0
0 0 0
0 0 0
0 0 0
0 0 0
0 0 0
0 0 0
0 0 0
0 0 0
0 0 0
0 0 0
0 0 0
0 0 0
0 0 0
0 0 0
0 0 0
0 0 0
0 0 0
0 0 0
0 0 0
0 0 0
0 0 0
0 0 0
0 0 0
0 0 0
0 0 0
0 0 0
0 0 0
0 0 0
0 0 0
0 0 0
0 0 0
0 0 0
0 0 0
0 0 0
0 0 0
0 0 0
0 0 0
0 0 0
0 0 0
0 0 0
0 0 0
0 0 0
0 0 0
0 0 0
0 0 0
0 0 0
0 0 0
0 0 0
0 0 0
0 0 0
0 0 0
0 0 0
0 0 0
0 0 0
0 0 0
0 0 0
0 0 0
0 0 0
0 0 0
0 0 0
0 0 0
0 0 0
0 0 0
0 0 0
0 0 0
0 0 0
0 0 0
0 0 0
0 0 0
0 0 0
0 0 0
0 0 0
0 0 0
0 0 0
0 0 0
0 0 0
0 0 0
0 0 0
0 0 0
0 0 0
0 0 0
0 0 0
0 0 0
0 0 0
0 0 0
0 0 0
0 0 0
0 0 0
0 0 0
0 0 0
0 0 0
0 0 0
0 0 0
0 0 0
0 0 0
0 0 0
0 0 0
0 0 0
0 0 0
0 0 0
0 0 0
0 0 0
0 0 0
0 0 0
0 0 0
0 0 0
0 0 0
0 0 0
0 0 0
0 0 0
0 0 0
0 0 0
0 0 0
0 0 0
0 0 0
0 0 0
0 0 0
0 0 0
0 0 0
0 0 0
0 0 0
0 0 0
0 0 0
0 0 0
0 0 0
0 0 0
0 0 0
0 0 0
0 0 0
0 0 0
0 0 0
0 0 0
0 0 0
0 0 0
0 0 0
0 0 0
0 0 0
0 0 0
0 0 0
0 0 0
0 0 0
0 0 0
0 0 0
0 0 0
0 0 0
0 0 0
0 0 0
0 0 0
0 0 0
0 0 0
0 0 0
0 0 0
0 0 0
0 0 0
0 0 0
0 0 0
0 0 0
0 0 0
0 0 0
0 0 0
0 0 0
0 0 0
0 0 0
0 0 0
0 0 0
0 0 0
0 0 0
0 0 0
0 0 0
0 0 0
0 0 0
0 0 0
0 0 0
0 0 0
0 0 0
0 0 0
0 0 0
0 0 0
0 0 0
0 0 0
0 0 0
0 0 0
0 0 0
0 0 0
0 0 0
0 0 0
0 0 0
0 0 0
0 0 0
0 0 0
0 0 0
0 0 0
0 0 0
0 0 0
0 0 0
0 0 0
0 0 0
0 0 0
0 0 0
0 0 0
0 0 0
0 0 0
0 0 0
0 0 0
0 0 0
0 0 0
0 0 0
0 0 0
0 0 0
0 0 0
0 0 0
0 0 0
0 0 0
0 0 0
0 0 0
0 0 0
0 0 0
0 0 0
0 0 0
0 0 0
0 0 0
0 0 0
0 0 0
0 0 0
0 0 0
0 0 0
0 0 0
0 0 0
0 0 0
0 0 0
0 0 0
0 0 0
0 0 0
0 0 0
0 0 0
0 0 0
0 0 0
0 0 0
0 0 0
0 0 0
0 0 0
0 0 0
0 0 0
0 0 0
0 0 0
0 0 0
0 0 0
0 0 0
0 0 0
0 0 0
0 0 0
0 0 0
0 0 0
0 0 0
0 0 0
0 0 0
0 0 0
0 0 0
0 0 0
0 0 0
0 0 0
0 0 0
0 0 0
0 0 0
0 0 0
0 0 0
0 0 0
0 0 0
0 0 0
0 0 0
0 0 0
0 0 0
0 0 0
0 0 0
0 0 0
0 0 0
0 0 0
0 0 0
0 0 0
0 0 0
0 0 0
0 0 0
0 0 0
0 0 0
0 0 0
0 0 0
0 0 0
0 0 0
0 0 0
0 0 0
0 0 0
0 0 0
0 0 0
0 0 0
0 0 0
0 0 0
0 0 0
0 0 0
0 0 0
0 0 0
0 0 0
0 0 0
0 0 0
0 0 0
0 0 0
0 0 0
0 0 0
0 0 0
0 0 0
0 0 0
0 0 0
0 0 0
0 0 0
0 0 0
0 0 0
0 0 0
0 0 0
0 0 0
0 0 0
0 0 0
0 0 0
0 0 0
0 0 0
0 0 0
0 0 0
0 0 0
0 0 0
0 0 0
0 0 0
0 0 0
0 0 0
0 0 0
0 0 0
0 0 0
0 0 0
0 0 0
0 0 0
0 0 0
0 0 0
0 0 0
0 0 0
0 0 0
0 0 0
0 0 0
0 0 0
0 0 0
0 0 0
0 0 0
0 0 0
0 0 0
0 0 0
0 0 0
0 0 0
0 0 0
0 0 0
0 0 0
0 0 0
0 0 0
0 0 0
0 0 0
0 0 0
0 0 0
0 0 0
0 0 0
0 0 0
0 0 0
0 0 0
0 0 0
0 0 0
0 0 0
0 0 0
0 0 0
0 0 0
0 0 0
0 0 0
0 0 0
0 0 0
0 0 0
0 0 0
0 0 0
0 0 0
0 0 0
0 0 0
0 0 0
0 0 0
0 0 0
0 0 0
0 0 0
0 0 0
0 0 0
0 0 0
0 0 0
0 0 0
0 0 0
0 0 0
0 0 0
0 0 0
0 0 0
0 0 0
0 0 0
0 0 0
0 0 0
0 0 0
0 0 0
0 0 0
0 0 0
0 0 0
0 0 0
0 0 0
0 0 0
0 0 0
0 0 0
0 0 0
0 0 0
0 0 0
0 0 0
0 0 0
0 0 0
0 0 0
0 0 0
0 0 0
0 0 0
0 0 0
0 0 0
0 0 0
0 0 0
0 0 0
0 0 0
0 0 0
0 0 0
0 0 0
0 0 0
0 0 0
0 0 0
0 0 0
0 0 0
0 0 0
0 0 0
0 0 0
0 0 0
0 0 0
0 0 0
0 0 0
0 0 0
0 0 0
0 0 0
0 0 0
0 0 0
0 0 0
0 0 0
0 0 0
0 0 0
0 0 0
0 0 0
0 0 0
0 0 0
0 0 0
0 0 0
0 0 0
0 0 0
0 0 0
0 0 0
0 0 0
0 0 0
0 0 0
0 0 0
0 0 0
0 0 0
0 0 0
0 0 0
0 0 0
0 0 0
0 0 0
0 0 0
0 0 0
0 0 0
0 0 0
0 0 0
0 0 0
0 0 0
0 0 0
0 0 0
0 0 0
0 0 0
0 0 0
0 0 0
0 0 0
0 0 0
0 0 0
0 0 0
0 0 0
0 0 0
0 0 0
0 0 0
0 0 0
0 0 0
0 0 0
0 0 0
0 0 0
0 0 0
0 0 0
0 0 0
0 0 0
0 0 0
0 0 0
0 0 0
0 0 0
0 0 0
0 0 0
0 0 0
0 0 0
0 0 0
0 0 0
0 0 0
0 0 0
0 0 0
0 0 0
0 0 0
0 0 0
0 0 0
0 0 0
0 0 0
0 0 0
0 0 0
0 0 0
0 0 0
0 0 0
0 0 0
0 0 0
0 0 0
0 0 0
0 0 0
0 0 0
0 0 0
0 0 0
0 0 0
0 0 0
0 0 0
0 0 0
0 0 0
0 0 0
0 0 0
0 0 0
0 0 0
0 0 0
0 0 0
0 0 0
0 0 0
0 0 0
0 0 0
0 0 0
0 0 0
0 0 0
0 0 0
0 0 0
0 0 0
0 0 0
0 0 0
0 0 0
0 0 0
0 0 0
0 0 0
0 0 0
0 0 0
0 0 0
0 0 0
0 0 0
0 0 0
0 0 0
0 0 0
0 0 0
0 0 0
0 0 0
0 0 0
0 0 0
0 0 0
0 0 0
0 0 0
0 0 0
0 0 0
0 0 0
0 0 0
0 0 0
0 0 0
0 0 0
0 0 0
0 0 0
0 0 0
0 0 0
0 0 0
0 0 0
0 0 0
0 0 0
0 0 0
0 0 0
0 0 0
0 0 0
0 0 0
0 0 0
0 0 0
0 0 0
0 0 0
0 0 0
0 0 0
0 0 0
0 0 0
0 0 0
0 0 0
0 0 0
0 0 0
0 0 0
0 0 0
0 0 0
0 0 0
0 0 0
0 0 0
0 0 0
0 0 0
0 0 0
0 0 0
0 0 0
0 0 0
0 0 0
0 0 0
0 0 0
0 0 0
0 0 0
0 0 0
0 0 0
0 0 0
0 0 0
0 0 0
0 0 0
0 0 0
0 0 0
0 0 0
0 0 0
0 0 0
0 0 0
0 0 0
0 0 0
0 0 0
0 0 0
0 0 0
0 0 0
0 0 0
0 0 0
0 0 0
0 0 0
0 0 0
0 0 0
0 0 0
0 0 0
0 0 0
0 0 0
0 0 0
0 0 0
0 0 0
0 0 0
0 0 0
0 0 0
0 0 0
0 0 0
0 0 0
0 0 0
0 0 0
0 0 0
0 0 0
0 0 0
0 0 0
0 0 0
0 0 0
0 0 0
0 0 0
0 0 0
0 0 0
0 0 0
0 0 0
0 0 0
0 0 0
0 0 0
0 0 0
0 0 0
0 0 0
0 0 0
0 0 0
0 0 0
0 0 0
0 0 0
0 0 0
0 0 0
0 0 0
0 0 0
0 0 0
0 0 0
0 0 0
0 0 0
0 0 0
0 0 0
0 0 0
0 0 0
0 0 0
0 0 0
0 0 0
0 0 0
0 0 0
0 0 0
0 0 0
0 0 0
0 0 0
0 0 0
0 0 0
0 0 0
0 0 0
0 0 0
0 0 0
0 0 0
0 0 0
0 0 0
0 0 0
0 0 0
0 0 0
0 0 0
0 0 0
0 0 0
0 0 0
0 0 0
0 0 0
0 0 0
0 0 0
0 0 0
0 0 0
0 0 0
0 0 0
0 0 0
0 0 0
0 0 0
0 0 0
0 0 0
0 0 0
0 0 0
0 0 0
0 0 0
0 0 0
0 0 0
0 0 0
0 0 0
0 0 0
0 0 0
0 0 0
0 0 0
0 0 0
0 0 0
0 0 0
0 0 0
0 0 0
0 0 0
0 0 0
0 0 0
0 0 0
0 0 0
0 0 0
0 0 0
0 0 0
0 0 0
0 0 0
0 0 0
0 0 0
0 0 0
0 0 0
0 0 0
0 0 0
0 0 0
0 0 0
0 0 0
0 0 0
0 0 0
0 0 0
0 0 0
0 0 0
0 0 0
0 0 0
0 0 0
0 0 0
0 0 0
0 0 0
0 0 0
0 0 0
0 0 0
0 0 0
0 0 0
0 0 0
0 0 0
0 0 0
0 0 0
0 0 0
0 0 0
0 0 0
0 0 0
0 0 0
0 0 0
0 0 0
0 0 0
0 0 0
0 0 0
0 0 0
0 0 0
0 0 0
0 0 0
0 0 0
0 0 0
0 0 0
0 0 0
0 0 0
0 0 0
0 0 0
0 0 0
0 0 0
0 0 0
0 0 0
0 0 0
0 0 0
0 0 0
0 0 0
0 0 0
0 0 0
0 0 0
0 0 0
0 0 0
0 0 0
0 0 0
0 0 0
0 0 0
0 0 0
0 0 0
0 0 0
0 0 0
0 0 0
0 0 0
0 0 0
0 0 0
0 0 0
0 0 0
0 0 0
0 0 0
0 0 0
0 0 0
0 0 0
0 0 0
0 0 0
0 0 0
0 0 0
0 0 0
0 0 0
0 0 0
0 0 0
0 0 0
0 0 0
0 0 0
0 0 0
0 0 0
0 0 0
0 0 0
0 0 0
0 0 0
0 0 0
0 0 0
0 0 0
0 0 0
0 0 0
0 0 0
0 0 0
0 0 0
0 0 0
0 0 0
0 0 0
0 0 0
0 0 0
0 0 0
0 0 0
0 0 0
0 0 0
0 0 0
0 0 0
0 0 0
0 0 0
0 0 0
0 0 0
0 0 0
0 0 0
0 0 0
0 0 0
0 0 0
0 0 0
0 0 0
0 0 0
0 0 0
0 0 0
0 0 0
0 0 0
0 0 0
0 0 0
0 0 0
0 0 0
0 0 0
0 0 0
0 0 0
0 0 0
0 0 0
0 0 0
0 0 0
0 0 0
0 0 0
0 0 0
0 0 0
0 0 0
0 0 0
0 0 0
0 0 0
0 0 0
0 0 0
0 0 0
0 0 0
0 0 0
0 0 0
0 0 0
0 0 0
0 0 0
0 0 0
0 0 0
0 0 0
0 0 0
0 0 0
0 0 0
0 0 0
0 0 0
0 0 0
0 0 0
0 0 0
0 0 0
0 0 0
0 0 0
0 0 0
0 0 0
0 0 0
0 0 0
0 0 0
0 0 0
0 0 0
0 0 0
0 0 0
0 0 0
0 0 0
0 0 0
0 0 0
0 0 0
0 0 0
0 0 0
0 0 0
0 0 0
0 0 0
0 0 0
0 0 0
0 0 0
0 0 0
0 0 0
0 0 0
0 0 0
0 0 0
0 0 0
0 0 0
0 0 0
0 0 0
0 0 0
0 0 0
0 0 0
0 0 0
0 0 0
0 0 0
0 0 0
0 0 0
0 0 0
0 0 0
0 0 0
0 0 0
0 0 0
0 0 0
0 0 0
0 0 0
0 0 0
0 0 0
0 0 0
0 0 0
0 0 0
0 0 0
0 0 0
0 0 0
0 0 0
0 0 0
0 0 0
0 0 0
0 0 0
0 0 0
0 0 0
0 0 0
0 0 0
0 0 0
0 0 0
0 0 0
0 0 0
0 0 0
0 0 0
0 0 0
0 0 0
0 0 0
0 0 0
0 0 0
0 0 0
0 0 0
0 0 0
0 0 0
0 0 0
0 0 0
0 0 0
0 0 0
0 0 0
0 0 0
0 0 0
0 0 0
0 0 0
0 0 0
0 0 0
0 0 0
0 0 0
0 0 0
0 0 0
0 0 0
0 0 0
0 0 0
0 0 0
0 0 0
0 0 0
0 0 0
0 0 0
0 0 0
0 0 0
0 0 0
0 0 0
0 0 0
0 0 0
0 0 0
0 0 0
0 0 0
0 0 0
0 0 0
0 0 0
0 0 0
0 0 0
0 0 0
0 0 0
0 0 0
0 0 0
0 0 0
0 0 0
0 0 0
0 0 0
0 0 0
0 0 0
0 0 0
0 0 0
0 0 0
0 0 0
0 0 0
0 0 0
0 0 0
0 0 0
0 0 0
0 0 0
0 0 0
0 0 0
0 0 0
0 0 0
0 0 0
0 0 0
0 0 0
0 0 0
0 0 0
0 0 0
0 0 0
0 0 0
0 0 0
0 0 0
0 0 0
0 0 0
0 0 0
0 0 0
0 0 0
0 0 0
0 0 0
0 0 0
0 0 0
0 0 0
0 0 0
0 0 0
0 0 0
0 0 0
0 0 0
0 0 0
0 0 0
0 0 0
0 0 0
0 0 0
0 0 0
0 0 0
0 0 0
0 0 0
0 0 0
0 0 0
0 0 0
0 0 0
0 0 0
0 0 0
0 0 0
0 0 0
0 0 0
0 0 0
0 0 0
0 0 0
0 0 0
0 0 0
0 0 0
0 0 0
0 0 0
0 0 0
0 0 0
0 0 0
0 0 0
0 0 0
0 0 0
0 0 0
0 0 0
0 0 0
0 0 0
0 0 0
0 0 0
0 0 0
0 0 0
0 0 0
0 0 0
0 0 0
0 0 0
0 0 0
0 0 0
0 0 0
0 0 0
0 0 0
0 0 0
0 0 0
0 0 0
0 0 0
0 0 0
0 0 0
0 0 0
0 0 0
0 0 0
0 0 0
0 0 0
0 0 0
0 0 0
0 0 0
0 0 0
0 0 0
0 0 0
0 0 0
0 0 0
0 0 0
0 0 0
0 0 0
0 0 0
0 0 0
0 0 0
0 0 0
0 0 0
0 0 0
0 0 0
0 0 0
0 0 0
0 0 0
0 0 0
0 0 0
0 0 0
0 0 0
0 0 0
0 0 0
0 0 0
0 0 0
0 0 0
0 0 0
0 0 0
0 0 0
0 0 0
0 0 0
0 0 0
0 0 0
0 0 0
0 0 0
0 0 0
0 0 0
0 0 0
0 0 0
0 0 0
0 0 0
0 0 0
0 0 0
0 0 0
0 0 0
0 0 0
0 0 0
0 0 0
0 0 0
0 0 0
0 0 0
0 0 0
0 0 0
0 0 0
0 0 0
0 0 0
0 0 0
0 0 0
0 0 0
0 0 0
0 0 0
0 0 0
0 0 0
0 0 0
0 0 0
0 0 0
0 0 0
0 0 0
0 0 0
0 0 0
0 0 0
0 0 0
0 0 0
0 0 0
0 0 0
0 0 0
0 0 0
0 0 0
0 0 0
0 0 0
0 0 0
0 0 0
0 0 0
0 0 0
0 0 0
0 0 0
0 0 0
0 0 0
0 0 0
0 0 0
0 0 0
0 0 0
0 0 0
0 0 0
0 0 0
0 0 0
0 0 0
0 0 0
0 0 0
0 0 0
0 0 0
0 0 0
0 0 0
0 0 0
0 0 0
0 0 0
0 0 0
0 0 0
0 0 0
0 0 0
0 0 0
0 0 0
0 0 0
0 0 0
0 0 0
0 0 0
0 0 0
0 0 0
0 0 0
0 0 0
0 0 0
0 0 0
0 0 0
0 0 0
0 0 0
0 0 0
0 0 0
0 0 0
0 0 0
0 0 0
0 0 0
0 0 0
0 0 0
0 0 0
0 0 0
0 0 0
0 0 0
0 0 0
0 0 0
0 0 0
0 0 0
0 0 0
0 0 0
0 0 0
0 0 0
0 0 0
0 0 0
0 0 0
0 0 0
0 0 0
0 0 0
0 0 0
0 0 0
0 0 0
0 0 0
0 0 0
0 0 0
0 0 0
0 0 0
0 0 0
0 0 0
0 0 0
0 0 0
0 0 0
0 0 0
0 0 0
0 0 0
0 0 0
0 0 0
0 0 0
0 0 0
0 0 0
0 0 0
0 0 0
0 0 0
0 0 0
0 0 0
0 0 0
0 0 0
0 0 0
0 0 0
0 0 0
0 0 0
0 0 0
0 0 0
0 0 0
0 0 0
0 0 0
0 0 0
0 0 0
0 0 0
0 0 0
0 0 0
0 0 0
0 0 0
0 0 0
0 0 0
0 0 0
0 0 0
0 0 0
0 0 0
0 0 0
0 0 0
0 0 0
0 0 0
0 0 0
0 0 0
0 0 0
0 0 0
0 0 0
0 0 0
0 0 0
0 0 0
0 0 0
0 0 0
0 0 0
0 0 0
0 0 0
0 0 0
0 0 0
0 0 0
0 0 0
0 0 0
0 0 0
0 0 0
0 0 0
0 0 0
0 0 0
0 0 0
0 0 0
0 0 0
0 0 0
0 0 0
0 0 0
0 0 0
0 0 0
0 0 0
0 0 0
0 0 0
0 0 0
0 0 0
0 0 0
0 0 0
0 0 0
0 0 0
0 0 0
0 0 0
0 0 0
0 0 0
0 0 0
0 0 0
0 0 0
0 0 0
0 0 0
0 0 0
0 0 0
0 0 0
0 0 0
0 0 0
0 0 0
0 0 0
0 0 0
0 0 0
0 0 0
0 0 0
0 0 0
0 0 0
0 0 0
0 0 0
0 0 0
0 0 0
0 0 0
0 0 0
0 0 0
0 0 0
0 0 0
0 0 0
0 0 0
0 0 0
0 0 0
0 0 0
0 0 0
0 0 0
0 0 0
0 0 0
0 0 0
0 0 0
0 0 0
0 0 0
0 0 0
0 0 0
0 0 0
0 0 0
0 0 0
0 0 0
0 0 0
0 0 0
0 0 0
0 0 0
0 0 0
0 0 0
0 0 0
0 0 0
0 0 0
0 0 0
0 0 0
0 0 0
0 0 0
0 0 0
0 0 0
0 0 0
0 0 0
0 0 0
0 0 0
0 0 0
0 0 0
0 0 0
0 0 0
0 0 0
0 0 0
0 0 0
0 0 0
0 0 0
0 0 0
0 0 0
0 0 0
0 0 0
0 0 0
0 0 0
0 0 0
0 0 0
0 0 0
0 0 0
0 0 0
0 0 0
0 0 0
0 0 0
0 0 0
0 0 0
0 0 0
0 0 0
0 0 0
0 0 0
0 0 0
0 0 0
0 0 0
0 0 0
0 0 0
0 0 0
0 0 0
0 0 0
0 0 0
0 0 0
0 0 0
0 0 0
0 0 0
0 0 0
0 0 0
0 0 0
0 0 0
0 0 0
0 0 0
0 0 0
0 0 0
0 0 0
0 0 0
0 0 0
0 0 0
0 0 0
0 0 0
0 0 0
0 0 0
0 0 0
0 0 0
0 0 0
0 0 0
0 0 0
0 0 0
0 0 0
0 0 0
0 0 0
0 0 0
0 0 0
0 0 0
0 0 0
0 0 0
0 0 0
0 0 0
0 0 0
0 0 0
0 0 0
0 0 0
0 0 0
0 0 0
0 0 0
0 0 0
0 0 0
0 0 0
0 0 0
0 0 0
0 0 0
0 0 0
0 0 0
0 0 0
0 0 0
0 0 0
0 0 0
0 0 0
0 0 0
0 0 0
0 0 0
0 0 0
0 0 0
0 0 0
0 0 0
0 0 0
0 0 0
0 0 0
0 0 0
0 0 0
0 0 0
0 0 0
0 0 0
0 0 0
0 0 0
0 0 0
0 0 0
0 0 0
0 0 0
0 0 0
0 0 0
0 0 0
0 0 0
0 0 0
0 0 0
0 0 0
0 0 0
0 0 0
0 0 0
0 0 0
0 0 0
0 0 0
0 0 0
0 0 0
0 0 0
0 0 0
0 0 0
0 0 0
0 0 0
0 0 0
0 0 0
0 0 0
0 0 0
0 0 0
0 0 0
0 0 0
0 0 0
0 0 0
0 0 0
0 0 0
0 0 0
0 0 0
0 0 0
0 0 0
0 0 0
0 0 0
0 0 0
0 0 0
0 0 0
0 0 0
0 0 0
0 0 0
0 0 0
0 0 0
0 0 0
0 0 0
0 0 0
0 0 0
0 0 0
0 0 0
0 0 0
0 0 0
0 0 0
0 0 0
0 0 0
0 0 0
0 0 0
0 0 0
0 0 0
0 0 0
0 0 0
0 0 0
0 0 0
0 0 0
0 0 0
0 0 0
0 0 0
0 0 0
0 0 0
0 0 0
0 0 0
0 0 0
0 0 0
0 0 0
0 0 0
0 0 0
0 0 0
0 0 0
0 0 0
0 0 0
0 0 0
0 0 0
0 0 0
0 0 0
0 0 0
0 0 0
0 0 0
0 0 0
0 0 0
0 0 0
0 0 0
0 0 0
0 0 0
0 0 0
0 0 0
0 0 0
0 0 0
0 0 0
0 0 0
0 0 0
0 0 0
0 0 0
0 0 0
0 0 0
0 0 0
0 0 0
0 0 0
0 0 0
0 0 0
0 0 0
0 0 0
0 0 0
0 0 0
0 0 0
0 0 0
0 0 0
0 0 0
0 0 0
0 0 0
0 0 0
0 0 0
0 0 0
0 0 0
0 0 0
0 0 0
0 0 0
0 0 0
0 0 0
0 0 0
0 0 0
0 0 0
0 0 0
0 0 0
0 0 0
0 0 0
0 0 0
0 0 0
0 0 0
0 0 0
0 0 0
0 0 0
0 0 0
0 0 0
0 0 0
0 0 0
0 0 0
0 0 0
0 0 0
0 0 0
0 0 0
0 0 0
0 0 0
0 0 0
0 0 0
0 0 0
0 0 0
0 0 0
0 0 0
0 0 0
0 0 0
0 0 0
0 0 0
0 0 0
0 0 0
0 0 0
0 0 0
0 0 0
0 0 0
0 0 0
0 0 0
0 0 0
0 0 0
0 0 0
0 0 0
0 0 0
0 0 0
0 0 0
0 0 0
0 0 0
0 0 0
0 0 0
0 0 0
0 0 0
0 0 0
0 0 0
0 0 0
0 0 0
0 0 0
0 0 0
0 0 0
0 0 0
0 0 0
0 0 0
0 0 0
0 0 0
0 0 0
0 0 0
0 0 0
0 0 0
0 0 0
0 0 0
0 0 0
0 0 0
0 0 0
0 0 0
0 0 0
0 0 0
0 0 0
0 0 0
0 0 0
0 0 0
0 0 0
0 0 0
0 0 0
0 0 0
0 0 0
0 0 0
0 0 0
0 0 0
0 0 0
0 0 0
0 0 0
0 0 0
0 0 0
0 0 0
0 0 0
0 0 0
0 0 0
0 0 0
0 0 0
0 0 0
0 0 0
0 0 0
0 0 0
0 0 0
0 0 0
0 0 0
0 0 0
0 0 0
0 0 0
0 0 0
0 0 0
0 0 0
0 0 0
0 0 0
0 0 0
0 0 0
0 0 0
0 0 0
0 0 0
0 0 0
0 0 0
0 0 0
0 0 0
0 0 0
0 0 0
0 0 0
0 0 0
0 0 0
0 0 0
0 0 0
0 0 0
0 0 0
0 0 0
0 0 0
0 0 0
0 0 0
0 0 0
0 0 0
0 0 0
0 0 0
0 0 0
0 0 0
0 0 0
0 0 0
0 0 0
0 0 0
0 0 0
0 0 0
0 0 0
0 0 0
0 0 0
0 0 0
0 0 0
0 0 0
0 0 0
0 0 0
0 0 0
0 0 0
0 0 0
0 0 0
0 0 0
0 0 0
0 0 0
0 0 0
0 0 0
0 0 0
0 0 0
0 0 0
0 0 0
0 0 0
0 0 0
0 0 0
0 0 0
0 0 0
0 0 0
0 0 0
0 0 0
0 0 0
0 0 0
0 0 0
0 0 0
0 0 0
0 0 0
0 0 0
0 0 0
0 0 0
0 0 0
0 0 0
0 0 0
0 0 0
0 0 0
0 0 0
0 0 0
0 0 0
0 0 0
0 0 0
0 0 0
0 0 0
0 0 0
0 0 0
0 0 0
0 0 0
0 0 0
0 0 0
0 0 0
0 0 0
0 0 0
0 0 0
0 0 0
0 0 0
0 0 0
0 0 0
0 0 0
0 0 0
0 0 0
0 0 0
0 0 0
0 0 0
0 0 0
0 0 0
0 0 0
0 0 0
0 0 0
0 0 0
0 0 0
0 0 0
0 0 0
0 0 0
0 0 0
0 0 0
0 0 0
0 0 0
0 0 0
0 0 0
0 0 0
0 0 0
0 0 0
0 0 0
0 0 0
0 0 0
0 0 0
0 0 0
0 0 0
0 0 0
0 0 0
0 0 0
0 0 0
0 0 0
0 0 0
0 0 0
0 0 0
0 0 0
0 0 0
0 0 0
0 0 0
0 0 0
0 0 0
0 0 0
0 0 0
0 0 0
0 0 0
0 0 0
0 0 0
0 0 0
0 0 0
0 0 0
0 0 0
0 0 0
0 0 0
0 0 0
0 0 0
0 0 0
0 0 0
0 0 0
0 0 0
0 0 0
0 0 0
0 0 0
0 0 0
0 0 0
0 0 0
0 0 0
0 0 0
0 0 0
0 0 0
0 0 0
0 0 0
0 0 0
0 0 0
0 0 0
0 0 0
0 0 0
0 0 0
0 0 0
0 0 0
0 0 0
0 0 0
0 0 0
0 0 0
0 0 0
0 0 0
0 0 0
0 0 0
0 0 0
0 0 0
0 0 0
0 0 0
0 0 0
0 0 0
0 0 0
0 0 0
0 0 0
0 0 0
0 0 0
0 0 0
0 0 0
0 0 0
0 0 0
0 0 0
0 0 0
0 0 0
0 0 0
0 0 0
0 0 0
0 0 0
0 0 0
0 0 0
0 0 0
0 0 0
0 0 0
0 0 0
0 0 0
0 0 0
0 0 0
0 0 0
0 0 0
0 0 0
0 0 0
0 0 0
0 0 0
0 0 0
0 0 0
0 0 0
0 0 0
0 0 0
0 0 0
0 0 0
0 0 0
0 0 0
0 0 0
0 0 0
0 0 0
0 0 0
0 0 0
0 0 0
0 0 0
0 0 0
0 0 0
0 0 0
0 0 0
0 0 0
0 0 0
0 0 0
0 0 0
0 0 0
0 0 0
0 0 0
0 0 0
0 0 0
0 0 0
0 0 0
0 0 0
0 0 0
0 0 0
0 0 0
0 0 0
0 0 0
0 0 0
0 0 0
0 0 0
0 0 0
0 0 0
0 0 0
0 0 0
0 0 0
0 0 0
0 0 0
0 0 0
0 0 0
0 0 0
0 0 0
0 0 0
0 0 0
0 0 0
0 0 0
0 0 0
0 0 0
0 0 0
0 0 0
0 0 0
0 0 0
0 0 0
0 0 0
0 0 0
0 0 0
0 0 0
0 0 0
0 0 0
0 0 0
0 0 0
0 0 0
0 0 0
0 0 0
0 0 0
0 0 0
0 0 0
0 0 0
0 0 0
0 0 0
0 0 0
0 0 0
0 0 0
0 0 0
0 0 0
0 0 0
0 0 0
0 0 0
0 0 0
0 0 0
0 0 0
0 0 0
0 0 0
0 0 0
0 0 0
0 0 0
0 0 0
0 0 0
0 0 0
0 0 0
0 0 0
0 0 0
0 0 0
0 0 0
0 0 0
0 0 0
0 0 0
0 0 0
0 0 0
0 0 0
0 0 0
0 0 0
0 0 0
0 0 0
0 0 0
0 0 0
0 0 0
0 0 0
0 0 0
0 0 0
0 0 0
0 0 0
0 0 0
0 0 0
0 0 0
0 0 0
0 0 0
0 0 0
0 0 0
0 0 0
0 0 0
0 0 0
0 0 0
0 0 0
0 0 0
0 0 0
0 0 0
0 0 0
0 0 0
0 0 0
0 0 0
0 0 0
0 0 0
0 0 0
0 0 0
0 0 0
0 0 0
0 0 0
0 0 0
0 0 0
0 0 0
0 0 0
0 0 0
0 0 0
0 0 0
0 0 0
0 0 0
0 0 0
0 0 0
0 0 0
0 0 0
0 0 0
0 0 0
0 0 0
0 0 0
0 0 0
0 0 0
0 0 0
0 0 0
0 0 0
0 0 0
0 0 0
0 0 0
0 0 0
0 0 0
0 0 0
0 0 0
0 0 0
0 0 0
0 0 0
0 0 0
0 0 0
0 0 0
0 0 0
0 0 0
0 0 0
0 0 0
0 0 0
0 0 0
0 0 0
0 0 0
0 0 0
0 0 0
0 0 0
0 0 0
0 0 0
0 0 0
0 0 0
0 0 0
0 0 0
0 0 0
0 0 0
0 0 0
0 0 0
0 0 0
0 0 0
0 0 0
0 0 0
0 0 0
0 0 0
0 0 0
0 0 0
0 0 0
0 0 0
0 0 0
0 0 0
0 0 0
0 0 0
0 0 0
0 0 0
0 0 0
0 0 0
0 0 0
0 0 0
0 0 0
0 0 0
0 0 0
0 0 0
0 0 0
0 0 0
0 0 0
0 0 0
0 0 0
0 0 0
0 0 0
0 0 0
0 0 0
0 0 0
0 0 0
0 0 0
0 0 0
0 0 0
0 0 0
0 0 0
0 0 0
0 0 0
0 0 0
0 0 0
0 0 0
0 0 0
0 0 0
0 0 0
0 0 0
0 0 0
0 0 0
0 0 0
0 0 0
0 0 0
0 0 0
0 0 0
0 0 0
0 0 0
0 0 0
0 0 0
0 0 0
0 0 0
0 0 0
0 0 0
0 0 0
0 0 0
0 0 0
0 0 0
0 0 0
0 0 0
0 0 0
0 0 0
0 0 0
0 0 0
0 0 0
0 0 0
0 0 0
0 0 0
0 0 0
0 0 0
0 0 0
0 0 0
0 0 0
0 0 0
0 0 0
0 0 0
0 0 0
0 0 0
0 0 0
0 0 0
0 0 0
0 0 0
0 0 0
0 0 0
0 0 0
0 0 0
0 0 0
0 0 0
0 0 0
0 0 0
0 0 0
0 0 0
0 0 0
0 0 0
0 0 0
0 0 0
0 0 0
0 0 0
0 0 0
0 0 0
0 0 0
0 0 0
0 0 0
0 0 0
0 0 0
0 0 0
0 0 0
0 0 0
0 0 0
0 0 0
0 0 0
0 0 0
0 0 0
0 0 0
0 0 0
0 0 0
0 0 0
0 0 0
0 0 0
0 0 0
0 0 0
0 0 0
0 0 0
0 0 0
0 0 0
0 0 0
0 0 0
0 0 0
0 0 0
0 0 0
0 0 0
0 0 0
0 0 0
0 0 0
0 0 0
0 0 0
0 0 0
0 0 0
0 0 0
0 0 0
0 0 0
0 0 0
0 0 0
0 0 0
0 0 0
0 0 0
0 0 0
0 0 0
0 0 0
0 0 0
0 0 0
0 0 0
0 0 0
0 0 0
0 0 0
0 0 0
0 0 0
0 0 0
0 0 0
0 0 0
0 0 0
0 0 0
0 0 0
0 0 0
0 0 0
0 0 0
0 0 0
0 0 0
0 0 0
0 0 0
0 0 0
0 0 0
0 0 0
0 0 0
0 0 0
0 0 0
0 0 0
0 0 0
0 0 0
0 0 0
0 0 0
0 0 0
0 0 0
0 0 0
0 0 0
0 0 0
0 0 0
0 0 0
0 0 0
0 0 0
0 0 0
0 0 0
0 0 0
0 0 0
0 0 0
0 0 0
0 0 0
0 0 0
0 0 0
0 0 0
0 0 0
0 0 0
0 0 0
0 0 0
0 0 0
0 0 0
0 0 0
0 0 0
0 0 0
0 0 0
0 0 0
0 0 0
0 0 0
0 0 0
0 0 0
0 0 0
0 0 0
0 0 0
0 0 0
0 0 0
0 0 0
0 0 0
0 0 0
0 0 0
0 0 0
0 0 0
0 0 0
0 0 0
0 0 0
0 0 0
0 0 0
0 0 0
0 0 0
0 0 0
0 0 0
0 0 0
0 0 0
0 0 0
0 0 0
0 0 0
0 0 0
0 0 0
0 0 0
0 0 0
0 0 0
0 0 0
0 0 0
0 0 0
0 0 0
0 0 0
0 0 0
0 0 0
0 0 0
0 0 0
0 0 0
0 0 0
0 0 0
0 0 0
0 0 0
0 0 0
0 0 0
0 0 0
0 0 0
0 0 0
0 0 0
0 0 0
0 0 0
0 0 0
0 0 0
0 0 0
0 0 0
0 0 0
0 0 0
0 0 0
0 0 0
0 0 0
0 0 0
0 0 0
0 0 0
0 0 0
0 0 0
0 0 0
0 0 0
0 0 0
0 0 0
0 0 0
0 0 0
0 0 0
0 0 0
0 0 0
0 0 0
0 0 0
0 0 0
0 0 0
0 0 0
0 0 0
0 0 0
0 0 0
0 0 0
0 0 0
0 0 0
0 0 0
0 0 0
0 0 0
0 0 0
0 0 0
0 0 0
0 0 0
0 0 0
0 0 0
0 0 0
0 0 0
0 0 0
0 0 0
0 0 0
0 0 0
0 0 0
0 0 0
0 0 0
0 0 0
0 0 0
0 0 0
0 0 0
0 0 0
0 0 0
0 0 0
0 0 0
0 0 0
0 0 0
0 0 0
0 0 0
0 0 0
0 0 0
0 0 0
0 0 0
0 0 0
0 0 0
0 0 0
0 0 0
0 0 0
0 0 0
0 0 0
0 0 0
0 0 0
0 0 0
0 0 0
0 0 0
0 0 0
0 0 0
0 0 0
0 0 0
0 0 0
0 0 0
0 0 0
0 0 0
0 0 0
0 0 0
0 0 0
0 0 0
0 0 0
0 0 0
0 0 0
0 0 0
0 0 0
0 0 0
0 0 0
0 0 0
0 0 0
0 0 0
0 0 0
0 0 0
0 0 0
0 0 0
0 0 0
0 0 0
0 0 0
0 0 0
0 0 0
0 0 0
0 0 0
0 0 0
0 0 0
0 0 0
0 0 0
0 0 0
0 0 0
0 0 0
0 0 0
0 0 0
0 0 0
0 0 0
0 0 0
0 0 0
0 0 0
0 0 0
0 0 0
0 0 0
0 0 0
0 0 0
0 0 0
0 0 0
0 0 0
0 0 0
0 0 0
0 0 0
0 0 0
0 0 0
0 0 0
0 0 0
0 0 0
0 0 0
0 0 0
0 0 0
0 0 0
0 0 0
0 0 0
0 0 0
0 0 0
0 0 0
0 0 0
0 0 0
0 0 0
0 0 0
0 0 0
0 0 0
0 0 0
0 0 0
0 0 0
0 0 0
0 0 0
0 0 0
0 0 0
0 0 0
0 0 0
0 0 0
0 0 0
0 0 0
0 0 0
0 0 0
0 0 0
0 0 0
0 0 0
0 0 0
0 0 0
0 0 0
0 0 0
0 0 0
0 0 0
0 0 0
0 0 0
0 0 0
0 0 0
0 0 0
0 0 0
0 0 0
0 0 0
0 0 0
0 0 0
0 0 0
0 0 0
0 0 0
0 0 0
0 0 0
0 0 0
0 0 0
0 0 0
0 0 0
0 0 0
0 0 0
0 0 0
0 0 0
0 0 0
0 0 0
0 0 0
0 0 0
0 0 0
0 0 0
0 0 0
0 0 0
0 0 0
0 0 0
0 0 0
0 0 0
0 0 0
0 0 0
0 0 0
0 0 0
0 0 0
0 0 0
0 0 0
0 0 0
0 0 0
0 0 0
0 0 0
0 0 0
0 0 0
0 0 0
0 0 0
0 0 0
0 0 0
0 0 0
0 0 0
0 0 0
0 0 0
0 0 0
0 0 0
0 0 0
0 0 0
0 0 0
0 0 0
0 0 0
0 0 0
0 0 0
0 0 0
0 0 0
0 0 0
0 0 0
0 0 0
0 0 0
0 0 0
0 0 0
0 0 0
0 0 0
0 0 0
0 0 0
0 0 0
0 0 0
0 0 0
0 0 0
0 0 0
0 0 0
0 0 0
0 0 0
0 0 0
0 0 0
0 0 0
0 0 0
0 0 0
0 0 0
0 0 0
0 0 0
0 0 0
0 0 0
0 0 0
0 0 0
0 0 0
0 0 0
0 0 0
0 0 0
0 0 0
0 0 0
0 0 0
0 0 0
0 0 0
0 0 0
0 0 0
0 0 0
0 0 0
0 0 0
0 0 0
0 0 0
0 0 0
0 0 0
0 0 0
0 0 0
0 0 0
0 0 0
0 0 0
0 0 0
0 0 0
0 0 0
0 0 0
0 0 0
0 0 0
0 0 0
0 0 0
0 0 0
0 0 0
0 0 0
0 0 0
0 0 0
0 0 0
0 0 0
0 0 0
0 0 0
0 0 0
0 0 0
0 0 0
0 0 0
0 0 0
0 0 0
0 0 0
0 0 0
0 0 0
0 0 0
0 0 0
0 0 0
0 0 0
0 0 0
0 0 0
0 0 0
0 0 0
0 0 0
0 0 0
0 0 0
0 0 0
0 0 0
0 0 0
0 0 0
0 0 0
0 0 0
0 0 0
0 0 0
0 0 0
0 0 0
0 0 0
0 0 0
0 0 0
0 0 0
0 0 0
0 0 0
0 0 0
0 0 0
0 0 0
0 0 0
0 0 0
0 0 0
0 0 0
0 0 0
0 0 0
0 0 0
0 0 0
0 0 0
0 0 0
0 0 0
0 0 0
0 0 0
0 0 0
0 0 0
0 0 0
0 0 0
0 0 0
0 0 0
0 0 0
0 0 0
0 0 0
0 0 0
0 0 0
0 0 0
0 0 0
0 0 0
0 0 0
0 0 0
0 0 0
0 0 0
0 0 0
0 0 0
0 0 0
0 0 0
0 0 0
0 0 0
0 0 0
0 0 0
0 0 0
0 0 0
0 0 0
0 0 0
0 0 0
0 0 0
0 0 0
0 0 0
0 0 0
0 0 0
0 0 0
0 0 0
0 0 0
0 0 0
0 0 0
0 0 0
0 0 0
0 0 0
0 0 0
0 0 0
0 0 0
0 0 0
0 0 0
0 0 0
0 0 0
0 0 0
0 0 0
0 0 0
0 0 0
0 0 0
0 0 0
0 0 0
0 0 0
0 0 0
0 0 0
0 0 0
0 0 0
0 0 0
0 0 0
0 0 0
0 0 0
0 0 0
0 0 0
0 0 0
0 0 0
0 0 0
0 0 0
0 0 0
0 0 0
0 0 0
0 0 0
0 0 0
0 0 0
0 0 0
0 0 0
0 0 0
0 0 0
0 0 0
0 0 0
0 0 0
0 0 0
0 0 0
0 0 0
0 0 0
0 0 0
0 0 0
0 0 0
0 0 0
0 0 0
0 0 0
0 0 0
0 0 0
0 0 0
0 0 0
0 0 0
0 0 0
0 0 0
0 0 0
0 0 0
0 0 0
0 0 0
0 0 0
0 0 0
0 0 0
0 0 0
0 0 0
0 0 0
0 0 0
0 0 0
0 0 0
0 0 0
0 0 0
0 0 0
0 0 0
0 0 0
0 0 0
0 0 0
0 0 0
0 0 0
0 0 0
0 0 0
0 0 0
0 0 0
0 0 0
0 0 0
0 0 0
0 0 0
0 0 0
0 0 0
0 0 0
0 0 0
0 0 0
0 0 0
0 0 0
0 0 0
0 0 0
0 0 0
0 0 0
0 0 0
0 0 0
0 0 0
0 0 0
0 0 0
0 0 0
0 0 0
0 0 0
0 0 0
0 0 0
0 0 0
0 0 0
0 0 0
0 0 0
0 0 0
0 0 0
0 0 0
0 0 0
0 0 0
0 0 0
0 0 0
0 0 0
0 0 0
0 0 0
0 0 0
0 0 0
0 0 0
0 0 0
0 0 0
0 0 0
0 0 0
0 0 0
0 0 0
0 0 0
0 0 0
0 0 0
0 0 0
0 0 0
0 0 0
0 0 0
0 0 0
0 0 0
0 0 0
0 0 0
0 0 0
0 0 0
0 0 0
0 0 0
0 0 0
0 0 0
0 0 0
0 0 0
0 0 0
0 0 0
0 0 0
0 0 0
0 0 0
0 0 0
0 0 0
0 0 0
0 0 0
0 0 0
0 0 0
0 0 0
0 0 0
0 0 0
0 0 0
0 0 0
0 0 0
0 0 0
0 0 0
0 0 0
0 0 0
0 0 0
0 0 0
0 0 0
0 0 0
0 0 0
0 0 0
0 0 0
0 0 0
0 0 0
0 0 0
0 0 0
0 0 0
0 0 0
0 0 0
0 0 0
0 0 0
0 0 0
0 0 0
0 0 0
0 0 0
0 0 0
0 0 0
0 0 0
0 0 0
0 0 0
0 0 0
0 0 0
0 0 0
0 0 0
0 0 0
0 0 0
0 0 0
0 0 0
0 0 0
0 0 0
0 0 0
0 0 0
0 0 0
0 0 0
0 0 0
0 0 0
0 0 0
0 0 0
0 0 0
0 0 0
0 0 0
0 0 0
0 0 0
0 0 0
0 0 0
0 0 0
0 0 0
0 0 0
0 0 0
0 0 0
0 0 0
0 0 0
0 0 0
0 0 0
0 0 0
0 0 0
0 0 0
0 0 0
0 0 0
0 0 0
0 0 0
0 0 0
0 0 0
0 0 0
0 0 0
0 0 0
0 0 0
0 0 0
0 0 0
0 0 0
0 0 0
0 0 0
0 0 0
0 0 0
0 0 0
0 0 0
0 0 0
0 0 0
0 0 0
0 0 0
0 0 0
0 0 0
0 0 0
0 0 0
0 0 0
0 0 0
0 0 0
0 0 0
0 0 0
0 0 0
0 0 0
0 0 0
0 0 0
0 0 0
0 0 0
0 0 0
0 0 0
0 0 0
0 0 0
0 0 0
0 0 0
0 0 0
0 0 0
0 0 0
0 0 0
0 0 0
0 0 0
0 0 0
0 0 0
0 0 0
0 0 0
0 0 0
0 0 0
0 0 0
0 0 0
0 0 0
0 0 0
0 0 0
0 0 0
0 0 0
0 0 0
0 0 0
0 0 0
0 0 0
0 0 0
0 0 0
0 0 0
0 0 0
0 0 0
0 0 0
0 0 0
0 0 0
0 0 0
0 0 0
0 0 0
0 0 0
0 0 0
0 0 0
0 0 0
0 0 0
0 0 0
0 0 0
0 0 0
0 0 0
0 0 0
0 0 0
0 0 0
0 0 0
0 0 0
0 0 0
0 0 0
0 0 0
0 0 0
0 0 0
0 0 0
0 0 0
0 0 0
0 0 0
0 0 0
0 0 0
0 0 0
0 0 0
0 0 0
0 0 0
0 0 0
0 0 0
0 0 0
0 0 0
0 0 0
0 0 0
0 0 0
0 0 0
0 0 0
0 0 0
0 0 0
0 0 0
0 0 0
0 0 0
0 0 0
0 0 0
0 0 0
0 0 0
0 0 0
0 0 0
0 0 0
0 0 0
0 0 0
0 0 0
0 0 0
0 0 0
0 0 0
0 0 0
0 0 0
0 0 0
0 0 0
0 0 0
0 0 0
0 0 0
0 0 0
0 0 0
0 0 0
0 0 0
0 0 0
0 0 0
0 0 0
0 0 0
0 0 0
0 0 0
0 0 0
0 0 0
0 0 0
0 0 0
0 0 0
0 0 0
0 0 0
0 0 0
0 0 0
0 0 0
0 0 0
0 0 0
0 0 0
0 0 0
0 0 0
0 0 0
0 0 0
0 0 0
0 0 0
0 0 0
0 0 0
0 0 0
0 0 0
0 0 0
0 0 0
0 0 0
0 0 0
0 0 0
0 0 0
0 0 0
0 0 0
0 0 0
0 0 0
0 0 0
0 0 0
0 0 0
0 0 0
0 0 0
0 0 0
0 0 0
0 0 0
0 0 0
0 0 0
0 0 0
0 0 0
0 0 0
0 0 0
0 0 0
0 0 0
0 0 0
0 0 0
0 0 0
0 0 0
0 0 0
0 0 0
0 0 0
0 0 0
0 0 0
0 0 0
0 0 0
0 0 0
0 0 0
0 0 0
0 0 0
0 0 0
0 0 0
0 0 0
0 0 0
0 0 0
0 0 0
0 0 0
0 0 0
0 0 0
0 0 0
0 0 0
0 0 0
0 0 0
0 0 0
0 0 0
0 0 0
0 0 0
0 0 0
0 0 0
0 0 0
0 0 0
0 0 0
0 0 0
0 0 0
0 0 0
0 0 0
0 0 0
0 0 0
0 0 0
0 0 0
0 0 0
0 0 0
0 0 0
0 0 0
0 0 0
0 0 0
0 0 0
0 0 0
0 0 0
0 0 0
0 0 0
0 0 0
0 0 0
0 0 0
0 0 0
0 0 0
0 0 0
0 0 0
0 0 0
0 0 0
0 0 0
0 0 0
0 0 0
0 0 0
0 0 0
0 0 0
0 0 0
0 0 0
0 0 0
0 0 0
0 0 0
0 0 0
0 0 0
0 0 0
0 0 0
0 0 0
0 0 0
0 0 0
0 0 0
0 0 0
0 0 0
0 0 0
0 0 0
0 0 0
0 0 0
0 0 0
0 0 0
0 0 0
0 0 0
0 0 0
0 0 0
0 0 0
0 0 0
0 0 0
0 0 0
0 0 0
0 0 0
0 0 0
0 0 0
0 0 0
0 0 0
0 0 0
0 0 0
0 0 0
0 0 0
0 0 0
0 0 0
0 0 0
0 0 0
0 0 0
0 0 0
0 0 0
0 0 0
0 0 0
0 0 0
0 0 0
0 0 0
0 0 0
0 0 0
0 0 0
0 0 0
0 0 0
0 0 0
0 0 0
0 0 0
0 0 0
0 0 0
0 0 0
0 0 0
0 0 0
0 0 0
0 0 0
0 0 0
0 0 0
0 0 0
0 0 0
0 0 0
0 0 0
0 0 0
0 0 0
0 0 0
0 0 0
0 0 0
0 0 0
0 0 0
0 0 0
0 0 0
0 0 0
0 0 0
0 0 0
0 0 0
0 0 0
0 0 0
0 0 0
0 0 0
0 0 0
0 0 0
0 0 0
0 0 0
0 0 0
0 0 0
0 0 0
0 0 0
0 0 0
0 0 0
0 0 0
0 0 0
0 0 0
0 0 0
0 0 0
0 0 0
0 0 0
0 0 0
0 0 0
0 0 0
0 0 0
0 0 0
0 0 0
0 0 0
0 0 0
0 0 0
0 0 0
0 0 0
0 0 0
0 0 0
0 0 0
0 0 0
0 0 0
0 0 0
0 0 0
0 0 0
0 0 0
0 0 0
0 0 0
0 0 0
0 0 0
0 0 0
0 0 0
0 0 0
0 0 0
0 0 0
0 0 0
0 0 0
0 0 0
0 0 0
0 0 0
0 0 0
0 0 0
0 0 0
0 0 0
0 0 0
0 0 0
0 0 0
0 0 0
0 0 0
0 0 0
0 0 0
0 0 0
0 0 0
0 0 0
0 0 0
0 0 0
0 0 0
0 0 0
0 0 0
0 0 0
0 0 0
0 0 0
0 0 0
0 0 0
0 0 0
0 0 0
0 0 0
0 0 0
0 0 0
0 0 0
0 0 0
0 0 0
0 0 0
0 0 0
0 0 0
0 0 0
0 0 0
0 0 0
0 0 0
0 0 0
0 0 0
0 0 0
0 0 0
0 0 0
0 0 0
0 0 0
0 0 0
0 0 0
0 0 0
0 0 0
0 0 0
0 0 0
0 0 0
0 0 0
0 0 0
0 0 0
0 0 0
0 0 0
0 0 0
0 0 0
0 0 0
0 0 0
0 0 0
0 0 0
0 0 0
0 0 0
0 0 0
0 0 0
0 0 0
0 0 0
0 0 0
0 0 0
0 0 0
0 0 0
0 0 0
0 0 0
0 0 0
0 0 0
0 0 0
0 0 0
0 0 0
0 0 0
0 0 0
0 0 0
0 0 0
0 0 0
0 0 0
0 0 0
0 0 0
0 0 0
0 0 0
0 0 0
0 0 0
0 0 0
0 0 0
0 0 0
0 0 0
0 0 0
0 0 0
0 0 0
0 0 0
0 0 0
0 0 0
0 0 0
0 0 0
0 0 0
0 0 0
0 0 0
0 0 0
0 0 0
0 0 0
0 0 0
0 0 0
0 0 0
0 0 0
0 0 0
0 0 0
0 0 0
0 0 0
0 0 0
0 0 0
0 0 0
0 0 0
0 0 0
0 0 0
0 0 0
0 0 0
0 0 0
0 0 0
0 0 0
0 0 0
0 0 0
0 0 0
0 0 0
0 0 0
0 0 0
0 0 0
0 0 0
0 0 0
0 0 0
0 0 0
0 0 0
0 0 0
0 0 0
0 0 0
0 0 0
0 0 0
0 0 0
0 0 0
0 0 0
0 0 0
0 0 0
0 0 0
0 0 0
0 0 0
0 0 0
0 0 0
0 0 0
0 0 0
0 0 0
0 0 0
0 0 0
0 0 0
0 0 0
0 0 0
0 0 0
0 0 0
0 0 0
0 0 0
0 0 0
0 0 0
0 0 0
0 0 0
0 0 0
0 0 0
0 0 0
0 0 0
0 0 0
0 0 0
0 0 0
0 0 0
0 0 0
0 0 0
0 0 0
0 0 0
0 0 0
0 0 0
0 0 0
0 0 0
0 0 0
0 0 0
0 0 0
0 0 0
0 0 0
0 0 0
0 0 0
0 0 0
0 0 0
0 0 0
0 0 0
0 0 0
0 0 0
0 0 0
0 0 0
0 0 0
0 0 0
0 0 0
0 0 0
0 0 0
0 0 0
0 0 0
0 0 0
0 0 0
0 0 0
0 0 0
0 0 0
0 0 0
0 0 0
0 0 0
0 0 0
0 0 0
0 0 0
0 0 0
0 0 0
0 0 0
0 0 0
0 0 0
0 0 0
0 0 0
0 0 0
0 0 0
0 0 0
0 0 0
0 0 0
0 0 0
0 0 0
0 0 0
0 0 0
0 0 0
0 0 0
0 0 0
0 0 0
0 0 0
0 0 0
0 0 0
0 0 0
0 0 0
0 0 0
0 0 0
0 0 0
0 0 0
0 0 0
0 0 0
0 0 0
0 0 0
0 0 0
0 0 0
0 0 0
0 0 0
0 0 0
0 0 0
0 0 0
0 0 0
0 0 0
0 0 0
0 0 0
0 0 0
0 0 0
0 0 0
0 0 0
0 0 0
0 0 0
0 0 0
0 0 0
0 0 0
0 0 0
0 0 0
0 0 0
0 0 0
0 0 0
0 0 0
0 0 0
0 0 0
0 0 0
0 0 0
0 0 0
0 0 0
0 0 0
0 0 0
0 0 0
0 0 0
0 0 0
0 0 0
0 0 0
0 0 0
0 0 0
0 0 0
0 0 0
0 0 0
0 0 0
0 0 0
0 0 0
0 0 0
0 0 0
0 0 0
0 0 0
0 0 0
0 0 0
0 0 0
0 0 0
0 0 0
0 0 0
0 0 0
0 0 0
0 0 0
0 0 0
0 0 0
0 0 0
0 0 0
0 0 0
0 0 0
0 0 0
0 0 0
0 0 0
0 0 0
0 0 0
0 0 0
0 0 0
0 0 0
0 0 0
0 0 0
0 0 0
0 0 0
0 0 0
0 0 0
0 0 0
0 0 0
0 0 0
0 0 0
0 0 0
0 0 0
0 0 0
0 0 0
0 0 0
0 0 0
0 0 0
0 0 0
0 0 0
0 0 0
0 0 0
0 0 0
0 0 0
0 0 0
0 0 0
0 0 0
0 0 0
0 0 0
0 0 0
0 0 0
0 0 0
0 0 0
0 0 0
0 0 0
0 0 0
0 0 0
0 0 0
0 0 0
0 0 0
0 0 0
0 0 0
0 0 0
0 0 0
0 0 0
0 0 0
0 0 0
0 0 0
0 0 0
0 0 0
0 0 0
0 0 0
0 0 0
0 0 0
0 0 0
0 0 0
0 0 0
0 0 0
0 0 0
0 0 0
0 0 0
0 0 0
0 0 0
0 0 0
0 0 0
0 0 0
0 0 0
0 0 0
0 0 0
0 0 0
0 0 0
0 0 0
0 0 0
0 0 0
0 0 0
0 0 0
0 0 0
0 0 0
0 0 0
0 0 0
0 0 0
0 0 0
0 0 0
0 0 0
0 0 0
0 0 0
0 0 0
0 0 0
0 0 0
0 0 0
0 0 0
0 0 0
0 0 0
0 0 0
0 0 0
0 0 0
0 0 0
0 0 0
0 0 0
0 0 0
0 0 0
0 0 0
0 0 0
0 0 0
0 0 0
0 0 0
0 0 0
0 0 0
0 0 0
0 0 0
0 0 0
0 0 0
0 0 0
0 0 0
0 0 0
0 0 0
0 0 0
0 0 0
0 0 0
0 0 0
0 0 0
0 0 0
0 0 0
0 0 0
0 0 0
0 0 0
0 0 0
0 0 0
0 0 0
0 0 0
0 0 0
0 0 0
0 0 0
0 0 0
0 0 0
0 0 0
0 0 0
0 0 0
0 0 0
0 0 0
0 0 0
0 0 0
0 0 0
0 0 0
0 0 0
0 0 0
0 0 0
0 0 0
0 0 0
0 0 0
0 0 0
0 0 0
0 0 0
0 0 0
0 0 0
0 0 0
0 0 0
0 0 0
0 0 0
0 0 0
0 0 0
0 0 0
0 0 0
0 0 0
0 0 0
0 0 0
0 0 0
0 0 0
0 0 0
0 0 0
0 0 0
0 0 0
0 0 0
0 0 0
0 0 0
0 0 0
0 0 0
0 0 0
0 0 0
0 0 0
0 0 0
0 0 0
0 0 0
0 0 0
0 0 0
0 0 0
0 0 0
0 0 0
0 0 0
0 0 0
0 0 0
0 0 0
0 0 0
0 0 0
0 0 0
0 0 0
0 0 0
0 0 0
0 0 0
0 0 0
0 0 0
0 0 0
0 0 0
0 0 0
0 0 0
0 0 0
0 0 0
0 0 0
0 0 0
0 0 0
0 0 0
0 0 0
0 0 0
0 0 0
0 0 0
0 0 0
0 0 0
0 0 0
0 0 0
0 0 0
0 0 0
0 0 0
0 0 0
0 0 0
0 0 0
0 0 0
0 0 0
0 0 0
0 0 0
0 0 0
0 0 0
0 0 0
0 0 0
0 0 0
0 0 0
0 0 0
0 0 0
0 0 0
0 0 0
0 0 0
0 0 0
0 0 0
0 0 0
0 0 0
0 0 0
0 0 0
0 0 0
0 0 0
0 0 0
0 0 0
0 0 0
0 0 0
0 0 0
0 0 0
0 0 0
0 0 0
0 0 0
0 0 0
0 0 0
0 0 0
0 0 0
0 0 0
0 0 0
0 0 0
0 0 0
0 0 0
0 0 0
0 0 0
0 0 0
0 0 0
0 0 0
0 0 0
0 0 0
0 0 0
0 0 0
0 0 0
0 0 0
0 0 0
0 0 0
0 0 0
0 0 0
0 0 0
0 0 0
0 0 0
0 0 0
0 0 0
0 0 0
0 0 0
0 0 0
0 0 0
0 0 0
0 0 0
0 0 0
0 0 0
0 0 0
0 0 0
0 0 0
0 0 0
0 0 0
0 0 0
0 0 0
0 0 0
0 0 0
0 0 0
0 0 0
0 0 0
0 0 0
0 0 0
0 0 0
0 0 0
0 0 0
0 0 0
0 0 0
0 0 0
0 0 0
0 0 0
0 0 0
0 0 0
0 0 0
0 0 0
0 0 0
0 0 0
0 0 0
0 0 0
0 0 0
0 0 0
0 0 0
0 0 0
0 0 0
0 0 0
0 0 0
0 0 0
0 0 0
0 0 0
0 0 0
0 0 0
0 0 0
0 0 0
0 0 0
0 0 0
0 0 0
0 0 0
0 0 0
0 0 0
0 0 0
0 0 0
0 0 0
0 0 0
0 0 0
0 0 0
0 0 0
0 0 0
0 0 0
0 0 0
0 0 0
0 0 0
0 0 0
0 0 0
0 0 0
0 0 0
0 0 0
0 0 0
0 0 0
0 0 0
0 0 0
0 0 0
0 0 0
0 0 0
0 0 0
0 0 0
0 0 0
0 0 0
0 0 0
0 0 0
0 0 0
0 0 0
0 0 0
0 0 0
0 0 0
0 0 0
0 0 0
0 0 0
0 0 0
0 0 0
0 0 0
0 0 0
0 0 0
0 0 0
0 0 0
0 0 0
0 0 0
0 0 0
0 0 0
0 0 0
0 0 0
0 0 0
0 0 0
0 0 0
0 0 0
0 0 0
0 0 0
0 0 0
0 0 0
0 0 0
0 0 0
0 0 0
0 0 0
0 0 0
0 0 0
0 0 0
0 0 0
0 0 0
0 0 0
0 0 0
0 0 0
0 0 0
0 0 0
0 0 0
0 0 0
0 0 0
0 0 0
0 0 0
0 0 0
0 0 0
0 0 0
0 0 0
0 0 0
0 0 0
0 0 0
0 0 0
0 0 0
0 0 0
0 0 0
0 0 0
0 0 0
0 0 0
0 0 0
0 0 0
0 0 0
0 0 0
0 0 0
0 0 0
0 0 0
0 0 0
0 0 0
0 0 0
0 0 0
0 0 0
0 0 0
0 0 0
0 0 0
0 0 0
0 0 0
0 0 0
0 0 0
0 0 0
0 0 0
0 0 0
0 0 0
0 0 0
0 0 0
0 0 0
0 0 0
0 0 0
0 0 0
0 0 0
0 0 0
0 0 0
0 0 0
0 0 0
0 0 0
0 0 0
0 0 0
0 0 0
0 0 0
0 0 0
0 0 0
0 0 0
0 0 0
0 0 0
0 0 0
0 0 0
0 0 0
0 0 0
0 0 0
0 0 0
0 0 0
0 0 0
0 0 0
0 0 0
0 0 0
0 0 0
0 0 0
0 0 0
0 0 0
0 0 0
0 0 0
0 0 0
0 0 0
0 0 0
0 0 0
0 0 0
0 0 0
0 0 0
0 0 0
0 0 0
0 0 0
0 0 0
0 0 0
0 0 0
0 0 0
0 0 0
0 0 0
0 0 0
0 0 0
0 0 0
0 0 0
0 0 0
0 0 0
0 0 0
0 0 0
0 0 0
0 0 0
0 0 0
0 0 0
0 0 0
0 0 0
0 0 0
0 0 0
0 0 0
0 0 0
0 0 0
0 0 0
0 0 0
0 0 0
0 0 0
0 0 0
0 0 0
0 0 0
0 0 0
0 0 0
0 0 0
0 0 0
0 0 0
0 0 0
0 0 0
0 0 0
0 0 0
0 0 0
0 0 0
0 0 0
0 0 0
0 0 0
0 0 0
0 0 0
0 0 0
0 0 0
0 0 0
0 0 0
0 0 0
0 0 0
0 0 0
0 0 0
0 0 0
0 0 0
0 0 0
0 0 0
0 0 0
0 0 0
0 0 0
0 0 0
0 0 0
0 0 0
0 0 0
0 0 0
0 0 0
0 0 0
0 0 0
0 0 0
0 0 0
0 0 0
0 0 0
0 0 0
0 0 0
0 0 0
0 0 0
0 0 0
0 0 0
0 0 0
0 0 0
0 0 0
0 0 0
0 0 0
0 0 0
0 0 0
0 0 0
0 0 0
0 0 0
0 0 0
0 0 0
0 0 0
0 0 0
0 0 0
0 0 0
0 0 0
0 0 0
0 0 0
0 0 0
0 0 0
0 0 0
0 0 0
0 0 0
0 0 0
0 0 0
0 0 0
0 0 0
0 0 0
0 0 0
0 0 0
0 0 0
0 0 0
0 0 0
0 0 0
0 0 0
0 0 0
0 0 0
0 0 0
0 0 0
0 0 0
0 0 0
0 0 0
0 0 0
0 0 0
0 0 0
0 0 0
0 0 0
0 0 0
0 0 0
0 0 0
0 0 0
0 0 0
0 0 0
0 0 0
0 0 0
0 0 0
0 0 0
0 0 0
0 0 0
0 0 0
0 0 0
0 0 0
0 0 0
0 0 0
0 0 0
0 0 0
0 0 0
0 0 0
0 0 0
0 0 0
0 0 0
0 0 0
0 0 0
0 0 0
0 0 0
0 0 0
0 0 0
0 0 0
0 0 0
0 0 0
0 0 0
0 0 0
0 0 0
0 0 0
0 0 0
0 0 0
0 0 0
0 0 0
0 0 0
0 0 0
0 0 0
0 0 0
0 0 0
0 0 0
0 0 0
0 0 0
0 0 0
0 0 0
0 0 0
0 0 0
0 0 0
0 0 0
0 0 0
0 0 0
0 0 0
0 0 0
0 0 0
0 0 0
0 0 0
0 0 0
0 0 0
0 0 0
0 0 0
0 0 0
0 0 0
0 0 0
0 0 0
0 0 0
0 0 0
0 0 0
0 0 0
0 0 0
0 0 0
0 0 0
0 0 0
0 0 0
0 0 0
0 0 0
0 0 0
0 0 0
0 0 0
0 0 0
0 0 0
0 0 0
0 0 0
0 0 0
0 0 0
0 0 0
0 0 0
0 0 0
0 0 0
0 0 0
0 0 0
0 0 0
0 0 0
0 0 0
0 0 0
0 0 0
0 0 0
0 0 0
0 0 0
0 0 0
0 0 0
0 0 0
0 0 0
0 0 0
0 0 0
0 0 0
0 0 0
0 0 0
0 0 0
0 0 0
0 0 0
0 0 0
0 0 0
0 0 0
0 0 0
0 0 0
0 0 0
0 0 0
0 0 0
0 0 0
0 0 0
0 0 0
0 0 0
0 0 0
0 0 0
0 0 0
0 0 0
0 0 0
0 0 0
0 0 0
0 0 0
0 0 0
0 0 0
0 0 0
0 0 0
0 0 0
0 0 0
0 0 0
0 0 0
0 0 0
0 0 0
0 0 0
0 0 0
0 0 0
0 0 0
0 0 0
0 0 0
0 0 0
0 0 0
0 0 0
0 0 0
0 0 0
0 0 0
0 0 0
0 0 0
0 0 0
0 0 0
0 0 0
0 0 0
0 0 0
0 0 0
0 0 0
0 0 0
0 0 0
0 0 0
0 0 0
0 0 0
0 0 0
0 0 0
0 0 0
0 0 0
0 0 0
0 0 0
0 0 0
0 0 0
0 0 0
0 0 0
0 0 0
0 0 0
0 0 0
0 0 0
0 0 0
0 0 0
0 0 0
0 0 0
0 0 0
0 0 0
0 0 0
0 0 0
0 0 0
0 0 0
0 0 0
0 0 0
0 0 0
0 0 0
0 0 0
0 0 0
0 0 0
0 0 0
0 0 0
0 0 0
0 0 0
0 0 0
0 0 0
0 0 0
0 0 0
0 0 0
0 0 0
0 0 0
0 0 0
0 0 0
0 0 0
0 0 0
0 0 0
0 0 0
0 0 0
0 0 0
0 0 0
0 0 0
0 0 0
0 0 0
0 0 0
0 0 0
0 0 0
0 0 0
0 0 0
0 0 0
0 0 0
0 0 0
0 0 0
0 0 0
0 0 0
0 0 0
0 0 0
0 0 0
0 0 0
0 0 0
0 0 0
0 0 0
0 0 0
0 0 0
0 0 0
0 0 0
0 0 0
0 0 0
0 0 0
0 0 0
0 0 0
0 0 0
0 0 0
0 0 0
0 0 0
0 0 0
0 0 0
0 0 0
0 0 0
0 0 0
0 0 0
0 0 0
0 0 0
0 0 0
0 0 0
0 0 0
0 0 0
0 0 0
0 0 0
0 0 0
0 0 0
0 0 0
0 0 0
0 0 0
0 0 0
0 0 0
0 0 0
0 0 0
0 0 0
0 0 0
0 0 0
0 0 0
0 0 0
0 0 0
0 0 0
0 0 0
0 0 0
0 0 0
0 0 0
0 0 0
0 0 0
0 0 0
0 0 0
0 0 0
0 0 0
0 0 0
0 0 0
0 0 0
0 0 0
0 0 0
0 0 0
0 0 0
0 0 0
0 0 0
0 0 0
0 0 0
0 0 0
0 0 0
0 0 0
0 0 0
0 0 0
0 0 0
0 0 0
0 0 0
0 0 0
0 0 0
0 0 0
0 0 0
0 0 0
0 0 0
0 0 0
0 0 0
0 0 0
0 0 0
0 0 0
0 0 0
0 0 0
0 0 0
0 0 0
0 0 0
0 0 0
0 0 0
0 0 0
0 0 0
0 0 0
0 0 0
0 0 0
0 0 0
0 0 0
0 0 0
0 0 0
0 0 0
0 0 0
0 0 0
0 0 0
0 0 0
0 0 0
0 0 0
0 0 0
0 0 0
0 0 0
0 0 0
0 0 0
0 0 0
0 0 0
0 0 0
0 0 0
0 0 0
0 0 0
0 0 0
0 0 0
0 0 0
0 0 0
0 0 0
0 0 0
0 0 0
0 0 0
0 0 0
0 0 0
0 0 0
0 0 0
0 0 0
0 0 0
0 0 0
0 0 0
0 0 0
0 0 0
0 0 0
0 0 0
0 0 0
0 0 0
0 0 0
0 0 0
0 0 0
0 0 0
0 0 0
0 0 0
0 0 0
0 0 0
0 0 0
0 0 0
0 0 0
0 0 0
0 0 0
0 0 0
0 0 0
0 0 0
0 0 0
0 0 0
0 0 0
0 0 0
0 0 0
0 0 0
0 0 0
0 0 0
0 0 0
0 0 0
0 0 0
0 0 0
0 0 0
0 0 0
0 0 0
0 0 0
0 0 0
0 0 0
0 0 0
0 0 0
0 0 0
0 0 0
0 0 0
0 0 0
0 0 0
0 0 0
0 0 0
0 0 0
0 0 0
0 0 0
0 0 0
0 0 0
0 0 0
0 0 0
0 0 0
0 0 0
0 0 0
0 0 0
0 0 0
0 0 0
0 0 0
0 0 0
0 0 0
0 0 0
0 0 0
0 0 0
0 0 0
0 0 0
0 0 0
0 0 0
0 0 0
0 0 0
0 0 0
0 0 0
0 0 0
0 0 0
0 0 0
0 0 0
0 0 0
0 0 0
0 0 0
0 0 0
0 0 0
0 0 0
0 0 0
0 0 0
0 0 0
0 0 0
0 0 0
0 0 0
0 0 0
0 0 0
0 0 0
0 0 0
0 0 0
0 0 0
0 0 0
0 0 0
0 0 0
0 0 0
0 0 0
0 0 0
0 0 0
0 0 0
0 0 0
0 0 0
0 0 0
0 0 0
0 0 0
0 0 0
0 0 0
0 0 0
0 0 0
0 0 0
0 0 0
0 0 0
0 0 0
0 0 0
0 0 0
0 0 0
0 0 0
0 0 0
0 0 0
0 0 0
0 0 0
0 0 0
0 0 0
0 0 0
0 0 0
0 0 0
0 0 0
0 0 0
0 0 0
0 0 0
0 0 0
0 0 0
0 0 0
0 0 0
0 0 0
0 0 0
0 0 0
0 0 0
0 0 0
0 0 0
0 0 0
0 0 0
0 0 0
0 0 0
0 0 0
0 0 0
0 0 0
0 0 0
0 0 0
0 0 0
0 0 0
0 0 0
0 0 0
0 0 0
0 0 0
0 0 0
0 0 0
0 0 0
0 0 0
0 0 0
0 0 0
0 0 0
0 0 0
0 0 0
0 0 0
0 0 0
0 0 0
0 0 0
0 0 0
0 0 0
0 0 0
0 0 0
0 0 0
0 0 0
0 0 0
0 0 0
0 0 0
0 0 0
0 0 0
0 0 0
0 0 0
0 0 0
0 0 0
0 0 0
0 0 0
0 0 0
0 0 0
0 0 0
0 0 0
0 0 0
0 0 0
0 0 0
0 0 0
0 0 0
0 0 0
0 0 0
0 0 0
0 0 0
0 0 0
0 0 0
0 0 0
0 0 0
0 0 0
0 0 0
0 0 0
0 0 0
0 0 0
0 0 0
0 0 0
0 0 0
0 0 0
0 0 0
0 0 0
0 0 0
0 0 0
0 0 0
0 0 0
0 0 0
0 0 0
0 0 0
0 0 0
0 0 0
0 0 0
0 0 0
0 0 0
0 0 0
0 0 0
0 0 0
0 0 0
0 0 0
0 0 0
0 0 0
0 0 0
0 0 0
0 0 0
0 0 0
0 0 0
0 0 0
0 0 0
0 0 0
0 0 0
0 0 0
0 0 0
0 0 0
0 0 0
0 0 0
0 0 0
0 0 0
0 0 0
0 0 0
0 0 0
0 0 0
0 0 0
0 0 0
0 0 0
0 0 0
0 0 0
0 0 0
0 0 0
0 0 0
0 0 0
0 0 0
0 0 0
0 0 0
0 0 0
0 0 0
0 0 0
0 0 0
0 0 0
0 0 0
0 0 0
0 0 0
0 0 0
0 0 0
0 0 0
0 0 0
0 0 0
0 0 0
0 0 0
0 0 0
0 0 0
0 0 0
0 0 0
0 0 0
0 0 0
0 0 0
0 0 0
0 0 0
0 0 0
0 0 0
0 0 0
0 0 0
0 0 0
0 0 0
0 0 0
0 0 0
0 0 0
0 0 0
0 0 0
0 0 0
0 0 0
0 0 0
0 0 0
0 0 0
0 0 0
0 0 0
0 0 0
0 0 0
0 0 0
0 0 0
0 0 0
0 0 0
0 0 0
0 0 0
0 0 0
0 0 0
0 0 0
0 0 0
0 0 0
0 0 0
0 0 0
0 0 0
0 0 0
0 0 0
0 0 0
0 0 0
0 0 0
0 0 0
0 0 0
0 0 0
0 0 0
0 0 0
0 0 0
0 0 0
0 0 0
0 0 0
0 0 0
0 0 0
0 0 0
0 0 0
0 0 0
0 0 0
0 0 0
0 0 0
0 0 0
0 0 0
0 0 0
0 0 0
0 0 0
0 0 0
0 0 0
0 0 0
0 0 0
0 0 0
0 0 0
0 0 0
0 0 0
0 0 0
0 0 0
0 0 0
0 0 0
0 0 0
0 0 0
0 0 0
0 0 0
0 0 0
0 0 0
0 0 0
0 0 0
0 0 0
0 0 0
0 0 0
0 0 0
0 0 0
0 0 0
0 0 0
0 0 0
0 0 0
0 0 0
0 0 0
0 0 0
0 0 0
0 0 0
0 0 0
0 0 0
0 0 0
0 0 0
0 0 0
0 0 0
0 0 0
0 0 0
0 0 0
0 0 0
0 0 0
0 0 0
0 0 0
0 0 0
0 0 0
0 0 0
0 0 0
0 0 0
0 0 0
0 0 0
0 0 0
0 0 0
0 0 0
0 0 0
0 0 0
0 0 0
0 0 0
0 0 0
0 0 0
0 0 0
0 0 0
0 0 0
0 0 0
0 0 0
0 0 0
0 0 0
0 0 0
0 0 0
0 0 0
0 0 0
0 0 0
0 0 0
0 0 0
0 0 0
0 0 0
0 0 0
0 0 0
0 0 0
0 0 0
0 0 0
0 0 0
0 0 0
0 0 0
0 0 0
0 0 0
0 0 0
0 0 0
0 0 0
0 0 0
0 0 0
0 0 0
0 0 0
0 0 0
0 0 0
0 0 0
0 0 0
0 0 0
0 0 0
0 0 0
0 0 0
0 0 0
0 0 0
0 0 0
0 0 0
0 0 0
0 0 0
0 0 0
0 0 0
0 0 0
0 0 0
0 0 0
0 0 0
0 0 0
0 0 0
0 0 0
0 0 0
0 0 0
0 0 0
0 0 0
0 0 0
0 0 0
0 0 0
0 0 0
0 0 0
0 0 0
0 0 0
0 0 0
0 0 0
0 0 0
0 0 0
0 0 0
0 0 0
0 0 0
0 0 0
0 0 0
0 0 0
0 0 0
0 0 0
0 0 0
0 0 0
0 0 0
0 0 0
0 0 0
0 0 0
0 0 0
0 0 0
0 0 0
0 0 0
0 0 0
0 0 0
0 0 0
0 0 0
0 0 0
0 0 0
0 0 0
0 0 0
0 0 0
0 0 0
0 0 0
0 0 0
0 0 0
0 0 0
0 0 0
0 0 0
0 0 0
0 0 0
0 0 0
0 0 0
0 0 0
0 0 0
0 0 0
0 0 0
0 0 0
0 0 0
0 0 0
0 0 0
0 0 0
0 0 0
0 0 0
0 0 0
0 0 0
0 0 0
0 0 0
0 0 0
0 0 0
0 0 0
0 0 0
0 0 0
0 0 0
0 0 0
0 0 0
0 0 0
0 0 0
0 0 0
0 0 0
0 0 0
0 0 0
0 0 0
0 0 0
0 0 0
0 0 0
0 0 0
0 0 0
0 0 0
0 0 0
0 0 0
0 0 0
0 0 0
0 0 0
0 0 0
0 0 0
0 0 0
0 0 0
0 0 0
0 0 0
0 0 0
0 0 0
0 0 0
0 0 0
0 0 0
0 0 0
0 0 0
0 0 0
0 0 0
0 0 0
0 0 0
0 0 0
0 0 0
0 0 0
0 0 0
0 0 0
0 0 0
0 0 0
0 0 0
0 0 0
0 0 0
0 0 0
0 0 0
0 0 0
0 0 0
0 0 0
0 0 0
0 0 0
0 0 0
0 0 0
0 0 0
0 0 0
0 0 0
0 0 0
0 0 0
0 0 0
0 0 0
0 0 0
0 0 0
0 0 0
0 0 0
0 0 0
0 0 0
0 0 0
0 0 0
0 0 0
0 0 0
0 0 0
0 0 0
0 0 0
0 0 0
0 0 0
0 0 0
0 0 0
0 0 0
0 0 0
0 0 0
0 0 0
0 0 0
0 0 0
0 0 0
0 0 0
0 0 0
0 0 0
0 0 0
0 0 0
0 0 0
0 0 0
0 0 0
0 0 0
0 0 0
0 0 0
0 0 0
0 0 0
0 0 0
0 0 0
0 0 0
0 0 0
0 0 0
0 0 0
0 0 0
0 0 0
0 0 0
0 0 0
0 0 0
0 0 0
0 0 0
0 0 0
0 0 0
0 0 0
0 0 0
0 0 0
0 0 0
0 0 0
0 0 0
0 0 0
0 0 0
0 0 0
0 0 0
0 0 0
0 0 0
0 0 0
0 0 0
0 0 0
0 0 0
0 0 0
0 0 0
0 0 0
0 0 0
0 0 0
0 0 0
0 0 0
0 0 0
0 0 0
0 0 0
0 0 0
0 0 0
0 0 0
0 0 0
0 0 0
0 0 0
0 0 0
0 0 0
0 0 0
0 0 0
0 0 0
0 0 0
0 0 0
0 0 0
0 0 0
0 0 0
0 0 0
0 0 0
0 0 0
0 0 0
0 0 0
0 0 0
0 0 0
0 0 0
0 0 0
0 0 0
0 0 0
0 0 0
0 0 0
0 0 0
0 0 0
0 0 0
0 0 0
0 0 0
0 0 0
0 0 0
0 0 0
0 0 0
0 0 0
0 0 0
0 0 0
0 0 0
0 0 0
0 0 0
0 0 0
0 0 0
0 0 0
0 0 0
0 0 0
0 0 0
0 0 0
0 0 0
0 0 0
0 0 0
0 0 0
0 0 0
0 0 0
0 0 0
0 0 0
0 0 0
0 0 0
0 0 0
0 0 0
0 0 0
0 0 0
0 0 0
0 0 0
0 0 0
0 0 0
0 0 0
0 0 0
0 0 0
0 0 0
0 0 0
0 0 0
0 0 0
0 0 0
0 0 0
0 0 0
0 0 0
0 0 0
0 0 0
0 0 0
0 0 0
0 0 0
0 0 0
0 0 0
0 0 0
0 0 0
0 0 0
0 0 0
0 0 0
0 0 0
0 0 0
0 0 0
0 0 0
0 0 0
0 0 0
0 0 0
0 0 0
0 0 0
0 0 0
0 0 0
0 0 0
0 0 0
0 0 0
0 0 0
0 0 0
0 0 0
0 0 0
0 0 0
0 0 0
0 0 0
0 0 0
0 0 0
0 0 0
0 0 0
0 0 0
0 0 0
0 0 0
0 0 0
0 0 0
0 0 0
0 0 0
0 0 0
0 0 0
0 0 0
0 0 0
0 0 0
0 0 0
0 0 0
0 0 0
0 0 0
0 0 0
0 0 0
0 0 0
0 0 0
0 0 0
0 0 0
0 0 0
0 0 0
0 0 0
0 0 0
0 0 0
0 0 0
0 0 0
0 0 0
0 0 0
0 0 0
0 0 0
0 0 0
0 0 0
0 0 0
0 0 0
0 0 0
0 0 0
0 0 0
0 0 0
0 0 0
0 0 0
0 0 0
0 0 0
0 0 0
0 0 0
0 0 0
0 0 0
0 0 0
0 0 0
0 0 0
0 0 0
0 0 0
0 0 0
0 0 0
0 0 0
0 0 0
0 0 0
0 0 0
0 0 0
0 0 0
0 0 0
0 0 0
0 0 0
0 0 0
0 0 0
0 0 0
0 0 0
0 0 0
0 0 0
0 0 0
0 0 0
0 0 0
0 0 0
0 0 0
0 0 0
0 0 0
0 0 0
0 0 0
0 0 0
0 0 0
0 0 0
0 0 0
0 0 0
0 0 0
0 0 0
0 0 0
0 0 0
0 0 0
0 0 0
0 0 0
0 0 0
0 0 0
0 0 0
0 0 0
0 0 0
0 0 0
0 0 0
0 0 0
0 0 0
0 0 0
0 0 0
0 0 0
0 0 0
0 0 0
0 0 0
0 0 0
0 0 0
0 0 0
0 0 0
0 0 0
0 0 0
0 0 0
0 0 0
0 0 0
0 0 0
0 0 0
0 0 0
0 0 0
0 0 0
0 0 0
0 0 0
0 0 0
0 0 0
0 0 0
0 0 0
0 0 0
0 0 0
0 0 0
0 0 0
0 0 0
0 0 0
0 0 0
0 0 0
0 0 0
0 0 0
0 0 0
0 0 0
0 0 0
0 0 0
0 0 0
0 0 0
0 0 0
0 0 0
0 0 0
0 0 0
0 0 0
0 0 0
0 0 0
0 0 0
0 0 0
0 0 0
0 0 0
0 0 0
0 0 0
0 0 0
0 0 0
0 0 0
0 0 0
0 0 0
0 0 0
0 0 0
0 0 0
0 0 0
0 0 0
0 0 0
0 0 0
0 0 0
0 0 0
0 0 0
0 0 0
0 0 0
0 0 0
0 0 0
0 0 0
0 0 0
0 0 0
0 0 0
0 0 0
0 0 0
0 0 0
0 0 0
0 0 0
0 0 0
0 0 0
0 0 0
0 0 0
0 0 0
0 0 0
0 0 0
0 0 0
0 0 0
0 0 0
0 0 0
0 0 0
0 0 0
0 0 0
0 0 0
0 0 0
0 0 0
0 0 0
0 0 0
0 0 0
0 0 0
0 0 0
0 0 0
0 0 0
0 0 0
0 0 0
0 0 0
0 0 0
0 0 0
0 0 0
0 0 0
0 0 0
0 0 0
0 0 0
0 0 0
0 0 0
0 0 0
0 0 0
0 0 0
0 0 0
0 0 0
0 0 0
0 0 0
0 0 0
0 0 0
0 0 0
0 0 0
0 0 0
0 0 0
0 0 0
0 0 0
0 0 0
0 0 0
0 0 0
0 0 0
0 0 0
0 0 0
0 0 0
0 0 0
0 0 0
0 0 0
0 0 0
0 0 0
0 0 0
0 0 0
0 0 0
0 0 0
0 0 0
0 0 0
0 0 0
0 0 0
0 0 0
0 0 0
0 0 0
0 0 0
0 0 0
0 0 0
0 0 0
0 0 0
0 0 0
0 0 0
0 0 0
0 0 0
0 0 0
0 0 0
0 0 0
0 0 0
0 0 0
0 0 0
0 0 0
0 0 0
0 0 0
0 0 0
0 0 0
0 0 0
0 0 0
0 0 0
0 0 0
0 0 0
0 0 0
0 0 0
0 0 0
0 0 0
0 0 0
0 0 0
0 0 0
0 0 0
0 0 0
0 0 0
0 0 0
0 0 0
0 0 0
0 0 0
0 0 0
0 0 0
0 0 0
0 0 0
0 0 0
0 0 0
0 0 0
0 0 0
0 0 0
0 0 0
0 0 0
0 0 0
0 0 0
0 0 0
0 0 0
0 0 0
0 0 0
0 0 0
0 0 0
0 0 0
0 0 0
0 0 0
0 0 0
0 0 0
0 0 0
0 0 0
0 0 0
0 0 0
0 0 0
0 0 0
0 0 0
0 0 0
0 0 0
0 0 0
0 0 0
0 0 0
0 0 0
0 0 0
0 0 0
0 0 0
0 0 0
0 0 0
0 0 0
0 0 0
0 0 0
0 0 0
0 0 0
0 0 0
0 0 0
0 0 0
0 0 0
0 0 0
0 0 0
0 0 0
0 0 0
0 0 0
0 0 0
0 0 0
0 0 0
0 0 0
0 0 0
0 0 0
0 0 0
0 0 0
0 0 0
0 0 0
0 0 0
0 0 0
0 0 0
0 0 0
0 0 0
0 0 0
0 0 0
0 0 0
0 0 0
0 0 0
0 0 0
0 0 0
0 0 0
0 0 0
0 0 0
0 0 0
0 0 0
0 0 0
0 0 0
0 0 0
0 0 0
0 0 0
0 0 0
0 0 0
0 0 0
0 0 0
0 0 0
0 0 0
0 0 0
0 0 0
0 0 0
0 0 0
0 0 0
0 0 0
0 0 0
0 0 0
0 0 0
0 0 0
0 0 0
0 0 0
0 0 0
0 0 0
0 0 0
0 0 0
0 0 0
0 0 0
0 0 0
0 0 0
0 0 0
0 0 0
0 0 0
0 0 0
0 0 0
0 0 0
0 0 0
0 0 0
0 0 0
0 0 0
0 0 0
0 0 0
0 0 0
0 0 0
0 0 0
0 0 0
0 0 0
0 0 0
0 0 0
0 0 0
0 0 0
0 0 0
0 0 0
0 0 0
0 0 0
0 0 0
0 0 0
0 0 0
0 0 0
0 0 0
0 0 0
0 0 0
0 0 0
0 0 0
0 0 0
0 0 0
0 0 0
0 0 0
0 0 0
0 0 0
0 0 0
0 0 0
0 0 0
0 0 0
0 0 0
0 0 0
0 0 0
0 0 0
0 0 0
0 0 0
0 0 0
0 0 0
0 0 0
0 0 0
0 0 0
0 0 0
0 0 0
0 0 0
0 0 0
0 0 0
0 0 0
0 0 0
0 0 0
0 0 0
0 0 0
0 0 0
0 0 0
0 0 0
0 0 0
0 0 0
0 0 0
0 0 0
0 0 0
0 0 0
0 0 0
0 0 0
0 0 0
0 0 0
0 0 0
0 0 0
0 0 0
0 0 0
0 0 0
0 0 0
0 0 0
0 0 0
0 0 0
0 0 0
0 0 0
0 0 0
0 0 0
0 0 0
0 0 0
0 0 0
0 0 0
0 0 0
0 0 0
0 0 0
0 0 0
0 0 0
0 0 0
0 0 0
0 0 0
0 0 0
0 0 0
0 0 0
0 0 0
0 0 0
0 0 0
0 0 0
0 0 0
0 0 0
0 0 0
0 0 0
0 0 0
0 0 0
0 0 0
0 0 0
0 0 0
0 0 0
0 0 0
0 0 0
0 0 0
0 0 0
0 0 0
0 0 0
0 0 0
0 0 0
0 0 0
0 0 0
0 0 0
0 0 0
0 0 0
0 0 0
0 0 0
0 0 0
0 0 0
0 0 0
0 0 0
0 0 0
0 0 0
0 0 0
0 0 0
0 0 0
0 0 0
0 0 0
0 0 0
0 0 0
0 0 0
0 0 0
0 0 0
0 0 0
0 0 0
0 0 0
0 0 0
0 0 0
0 0 0
0 0 0
0 0 0
0 0 0
0 0 0
0 0 0
0 0 0
0 0 0
0 0 0
0 0 0
0 0 0
0 0 0
0 0 0
0 0 0
0 0 0
0 0 0
0 0 0
0 0 0
0 0 0
0 0 0
0 0 0
0 0 0
0 0 0
0 0 0
0 0 0
0 0 0
0 0 0
0 0 0
0 0 0
0 0 0
0 0 0
0 0 0
0 0 0
0 0 0
0 0 0
0 0 0
0 0 0
0 0 0
0 0 0
0 0 0
0 0 0
0 0 0
0 0 0
0 0 0
0 0 0
0 0 0
0 0 0
0 0 0
0 0 0
0 0 0
0 0 0
0 0 0
0 0 0
0 0 0
0 0 0
0 0 0
0 0 0
0 0 0
0 0 0
0 0 0
0 0 0
0 0 0
0 0 0
0 0 0
0 0 0
0 0 0
0 0 0
0 0 0
0 0 0
0 0 0
0 0 0
0 0 0
0 0 0
0 0 0
0 0 0
0 0 0
0 0 0
0 0 0
0 0 0
0 0 0
0 0 0
0 0 0
0 0 0
0 0 0
0 0 0
0 0 0
0 0 0
0 0 0
0 0 0
0 0 0
0 0 0
0 0 0
0 0 0
0 0 0
0 0 0
0 0 0
0 0 0
0 0 0
0 0 0
0 0 0
0 0 0
0 0 0
0 0 0
0 0 0
0 0 0
0 0 0
0 0 0
0 0 0
0 0 0
0 0 0
0 0 0
0 0 0
0 0 0
0 0 0
0 0 0
0 0 0
0 0 0
0 0 0
0 0 0
0 0 0
0 0 0
0 0 0
0 0 0
0 0 0
0 0 0
0 0 0
0 0 0
0 0 0
0 0 0
0 0 0
0 0 0
0 0 0
0 0 0
0 0 0
0 0 0
0 0 0
0 0 0
0 0 0
0 0 0
0 0 0
0 0 0
0 0 0
0 0 0
0 0 0
0 0 0
0 0 0
0 0 0
0 0 0
0 0 0
0 0 0
0 0 0
0 0 0
0 0 0
0 0 0
0 0 0
0 0 0
0 0 0
0 0 0
0 0 0
0 0 0
0 0 0
0 0 0
0 0 0
0 0 0
0 0 0
0 0 0
0 0 0
0 0 0
0 0 0
0 0 0
0 0 0
0 0 0
0 0 0
0 0 0
0 0 0
0 0 0
0 0 0
0 0 0
0 0 0
0 0 0
0 0 0
0 0 0
0 0 0
0 0 0
0 0 0
0 0 0
0 0 0
0 0 0
0 0 0
0 0 0
0 0 0
0 0 0
0 0 0
0 0 0
0 0 0
0 0 0
0 0 0
0 0 0
0 0 0
0 0 0
0 0 0
0 0 0
0 0 0
0 0 0
0 0 0
0 0 0
0 0 0
0 0 0
0 0 0
0 0 0
0 0 0
0 0 0
0 0 0
0 0 0
0 0 0
0 0 0
0 0 0
0 0 0
0 0 0
0 0 0
0 0 0
0 0 0
0 0 0
0 0 0
0 0 0
0 0 0
0 0 0
0 0 0
0 0 0
0 0 0
0 0 0
0 0 0
0 0 0
0 0 0
0 0 0
0 0 0
0 0 0
0 0 0
0 0 0
0 0 0
0 0 0
0 0 0
0 0 0
0 0 0
0 0 0
0 0 0
0 0 0
0 0 0
0 0 0
0 0 0
0 0 0
0 0 0
0 0 0
0 0 0
0 0 0
0 0 0
0 0 0
0 0 0
0 0 0
0 0 0
0 0 0
0 0 0
0 0 0
0 0 0
0 0 0
0 0 0
0 0 0
0 0 0
0 0 0
0 0 0
0 0 0
0 0 0
0 0 0
0 0 0
0 0 0
0 0 0
0 0 0
0 0 0
0 0 0
0 0 0
0 0 0
0 0 0
0 0 0
0 0 0
0 0 0
0 0 0
0 0 0
0 0 0
0 0 0
0 0 0
0 0 0
0 0 0
0 0 0
0 0 0
0 0 0
0 0 0
0 0 0
0 0 0
0 0 0
0 0 0
0 0 0
0 0 0
0 0 0
0 0 0
0 0 0
0 0 0
0 0 0
0 0 0
0 0 0
0 0 0
0 0 0
0 0 0
0 0 0
0 0 0
0 0 0
0 0 0
0 0 0
0 0 0
0 0 0
0 0 0
0 0 0
0 0 0
0 0 0
0 0 0
0 0 0
0 0 0
0 0 0
0 0 0
0 0 0
0 0 0
0 0 0
0 0 0
0 0 0
0 0 0
0 0 0
0 0 0
0 0 0
0 0 0
0 0 0
0 0 0
0 0 0
0 0 0
0 0 0
0 0 0
0 0 0
0 0 0
0 0 0
0 0 0
0 0 0
0 0 0
0 0 0
0 0 0
0 0 0
0 0 0
0 0 0
0 0 0
0 0 0
0 0 0
0 0 0
0 0 0
0 0 0
0 0 0
0 0 0
0 0 0
0 0 0
0 0 0
0 0 0
0 0 0
0 0 0
0 0 0
0 0 0
0 0 0
0 0 0
0 0 0
0 0 0
0 0 0
0 0 0
0 0 0
0 0 0
0 0 0
0 0 0
0 0 0
0 0 0
0 0 0
0 0 0
0 0 0
0 0 0
0 0 0
0 0 0
0 0 0
0 0 0
0 0 0
0 0 0
0 0 0
0 0 0
0 0 0
0 0 0
0 0 0
0 0 0
0 0 0
0 0 0
0 0 0
0 0 0
0 0 0
0 0 0
0 0 0
0 0 0
0 0 0
0 0 0
0 0 0
0 0 0
0 0 0
0 0 0
0 0 0
0 0 0
0 0 0
0 0 0
0 0 0
0 0 0
0 0 0
0 0 0
0 0 0
0 0 0
0 0 0
0 0 0
0 0 0
0 0 0
0 0 0
0 0 0
0 0 0
0 0 0
0 0 0
0 0 0
0 0 0
0 0 0
0 0 0
0 0 0
0 0 0
0 0 0
0 0 0
0 0 0
0 0 0
0 0 0
0 0 0
0 0 0
0 0 0
0 0 0
0 0 0
0 0 0
0 0 0
0 0 0
0 0 0
0 0 0
0 0 0
0 0 0
0 0 0
0 0 0
0 0 0
0 0 0
0 0 0
0 0 0
0 0 0
0 0 0
0 0 0
0 0 0
0 0 0
0 0 0
0 0 0
0 0 0
0 0 0
0 0 0
0 0 0
0 0 0
0 0 0
0 0 0
0 0 0
0 0 0
0 0 0
0 0 0
0 0 0
0 0 0
0 0 0
0 0 0
0 0 0
0 0 0
0 0 0
0 0 0
0 0 0
0 0 0
0 0 0
0 0 0
0 0 0
0 0 0
0 0 0
0 0 0
0 0 0
0 0 0
0 0 0
0 0 0
0 0 0
0 0 0
0 0 0
0 0 0
0 0 0
0 0 0
0 0 0
0 0 0
0 0 0
0 0 0
0 0 0
0 0 0
0 0 0
0 0 0
0 0 0
0 0 0
0 0 0
0 0 0
0 0 0
0 0 0
0 0 0
0 0 0
0 0 0
0 0 0
0 0 0
0 0 0
0 0 0
0 0 0
0 0 0
0 0 0
0 0 0
0 0 0
0 0 0
0 0 0
0 0 0
0 0 0
0 0 0
0 0 0
0 0 0
0 0 0
0 0 0
0 0 0
0 0 0
0 0 0
0 0 0
0 0 0
0 0 0
0 0 0
0 0 0
0 0 0
0 0 0
0 0 0
0 0 0
0 0 0
0 0 0
0 0 0
0 0 0
0 0 0
0 0 0
0 0 0
0 0 0
0 0 0
0 0 0
0 0 0
0 0 0
0 0 0
0 0 0
0 0 0
0 0 0
0 0 0
0 0 0
0 0 0
0 0 0
0 0 0
0 0 0
0 0 0
0 0 0
0 0 0
0 0 0
0 0 0
0 0 0
0 0 0
0 0 0
0 0 0
0 0 0
0 0 0
0 0 0
0 0 0
0 0 0
0 0 0
0 0 0
0 0 0
0 0 0
0 0 0
0 0 0
0 0 0
0 0 0
0 0 0
0 0 0
0 0 0
0 0 0
0 0 0
0 0 0
0 0 0
0 0 0
0 0 0
0 0 0
0 0 0
0 0 0
0 0 0
0 0 0
0 0 0
0 0 0
0 0 0
0 0 0
0 0 0
0 0 0
0 0 0
0 0 0
0 0 0
0 0 0
0 0 0
0 0 0
0 0 0
0 0 0
0 0 0
0 0 0
0 0 0
0 0 0
0 0 0
0 0 0
0 0 0
0 0 0
0 0 0
0 0 0
0 0 0
0 0 0
0 0 0
0 0 0
0 0 0
0 0 0
0 0 0
0 0 0
0 0 0
0 0 0
0 0 0
0 0 0
0 0 0
0 0 0
0 0 0
0 0 0
0 0 0
0 0 0
0 0 0
0 0 0
0 0 0
0 0 0
0 0 0
0 0 0
0 0 0
0 0 0
0 0 0
0 0 0
0 0 0
0 0 0
0 0 0
0 0 0
0 0 0
0 0 0
0 0 0
0 0 0
0 0 0
0 0 0
0 0 0
0 0 0
0 0 0
0 0 0
0 0 0
0 0 0
0 0 0
0 0 0
0 0 0
0 0 0
0 0 0
0 0 0
0 0 0
0 0 0
0 0 0
0 0 0
0 0 0
0 0 0
0 0 0
0 0 0
0 0 0
0 0 0
0 0 0
0 0 0
0 0 0
0 0 0
0 0 0
0 0 0
0 0 0
0 0 0
0 0 0
0 0 0
0 0 0
0 0 0
0 0 0
0 0 0
0 0 0
0 0 0
0 0 0
0 0 0
0 0 0
0 0 0
0 0 0
0 0 0
0 0 0
0 0 0
0 0 0
0 0 0
0 0 0
0 0 0
0 0 0
0 0 0
0 0 0
0 0 0
0 0 0
0 0 0
0 0 0
0 0 0
0 0 0
0 0 0
0 0 0
0 0 0
0 0 0
0 0 0
0 0 0
0 0 0
0 0 0
0 0 0
0 0 0
0 0 0
0 0 0
0 0 0
0 0 0
0 0 0
0 0 0
0 0 0
0 0 0
0 0 0
0 0 0
0 0 0
0 0 0
0 0 0
0 0 0
0 0 0
0 0 0
0 0 0
0 0 0
0 0 0
0 0 0
0 0 0
0 0 0
0 0 0
0 0 0
0 0 0
0 0 0
0 0 0
0 0 0
0 0 0
0 0 0
0 0 0
0 0 0
0 0 0
0 0 0
0 0 0
0 0 0
0 0 0
0 0 0
0 0 0
0 0 0
0 0 0
0 0 0
0 0 0
0 0 0
0 0 0
0 0 0
0 0 0
0 0 0
0 0 0
0 0 0
0 0 0
0 0 0
0 0 0
0 0 0
0 0 0
0 0 0
0 0 0
0 0 0
0 0 0
0 0 0
0 0 0
0 0 0
0 0 0
0 0 0
0 0 0
0 0 0
0 0 0
0 0 0
0 0 0
0 0 0
0 0 0
0 0 0
0 0 0
0 0 0
0 0 0
0 0 0
0 0 0
0 0 0
0 0 0
0 0 0
0 0 0
0 0 0
0 0 0
0 0 0
0 0 0
0 0 0
0 0 0
0 0 0
0 0 0
0 0 0
0 0 0
0 0 0
0 0 0
0 0 0
0 0 0
0 0 0
0 0 0
0 0 0
0 0 0
0 0 0
0 0 0
0 0 0
0 0 0
0 0 0
0 0 0
0 0 0
0 0 0
0 0 0
0 0 0
0 0 0
0 0 0
0 0 0
0 0 0
0 0 0
0 0 0
0 0 0
0 0 0
0 0 0
0 0 0
0 0 0
0 0 0
0 0 0
0 0 0
0 0 0
0 0 0
0 0 0
0 0 0
0 0 0
0 0 0
0 0 0
0 0 0
0 0 0
0 0 0
0 0 0
0 0 0
0 0 0
0 0 0
0 0 0
0 0 0
0 0 0
0 0 0
0 0 0
0 0 0
0 0 0
0 0 0
0 0 0
0 0 0
0 0 0
0 0 0
0 0 0
0 0 0
0 0 0
0 0 0
0 0 0
0 0 0
0 0 0
0 0 0
0 0 0
0 0 0
0 0 0
0 0 0
0 0 0
0 0 0
0 0 0
0 0 0
0 0 0
0 0 0
0 0 0
0 0 0
0 0 0
0 0 0
0 0 0
0 0 0
0 0 0
0 0 0
0 0 0
0 0 0
0 0 0
0 0 0
0 0 0
0 0 0
0 0 0
0 0 0
0 0 0
0 0 0
0 0 0
0 0 0
0 0 0
0 0 0
0 0 0
0 0 0
0 0 0
0 0 0
0 0 0
0 0 0
0 0 0
0 0 0
0 0 0
0 0 0
0 0 0
0 0 0
0 0 0
0 0 0
0 0 0
0 0 0
0 0 0
0 0 0
0 0 0
0 0 0
0 0 0
0 0 0
0 0 0
0 0 0
0 0 0
0 0 0
0 0 0
0 0 0
0 0 0
0 0 0
0 0 0
0 0 0
0 0 0
0 0 0
0 0 0
0 0 0
0 0 0
0 0 0
0 0 0
0 0 0
0 0 0
0 0 0
0 0 0
0 0 0
0 0 0
0 0 0
0 0 0
0 0 0
0 0 0
0 0 0
0 0 0
0 0 0
0 0 0
0 0 0
0 0 0
0 0 0
0 0 0
0 0 0
0 0 0
0 0 0
0 0 0
0 0 0
0 0 0
0 0 0
0 0 0
0 0 0
0 0 0
0 0 0
0 0 0
0 0 0
0 0 0
0 0 0
0 0 0
0 0 0
0 0 0
0 0 0
0 0 0
0 0 0
0 0 0
0 0 0
0 0 0
0 0 0
0 0 0
0 0 0
0 0 0
0 0 0
0 0 0
0 0 0
0 0 0
0 0 0
0 0 0
0 0 0
0 0 0
0 0 0
0 0 0
0 0 0
0 0 0
0 0 0
0 0 0
0 0 0
0 0 0
0 0 0
0 0 0
0 0 0
0 0 0
0 0 0
0 0 0
0 0 0
0 0 0
0 0 0
0 0 0
0 0 0
0 0 0
0 0 0
0 0 0
0 0 0
0 0 0
0 0 0
0 0 0
0 0 0
0 0 0
0 0 0
0 0 0
0 0 0
0 0 0
0 0 0
0 0 0
0 0 0
0 0 0
0 0 0
0 0 0
0 0 0
0 0 0
0 0 0
0 0 0
0 0 0
0 0 0
0 0 0
0 0 0
0 0 0
0 0 0
0 0 0
0 0 0
0 0 0
0 0 0
0 0 0
0 0 0
0 0 0
0 0 0
0 0 0
0 0 0
0 0 0
0 0 0
0 0 0
0 0 0
0 0 0
0 0 0
0 0 0
0 0 0
0 0 0
0 0 0
0 0 0
0 0 0
0 0 0
0 0 0
0 0 0
0 0 0
0 0 0
0 0 0
0 0 0
0 0 0
0 0 0
0 0 0
0 0 0
0 0 0
0 0 0
0 0 0
0 0 0
0 0 0
0 0 0
0 0 0
0 0 0
0 0 0
0 0 0
0 0 0
0 0 0
0 0 0
0 0 0
0 0 0
0 0 0
0 0 0
0 0 0
0 0 0
0 0 0
0 0 0
0 0 0
0 0 0
0 0 0
0 0 0
0 0 0
0 0 0
0 0 0
0 0 0
0 0 0
0 0 0
0 0 0
0 0 0
0 0 0
0 0 0
0 0 0
0 0 0
0 0 0
0 0 0
0 0 0
0 0 0
0 0 0
0 0 0
0 0 0
0 0 0
0 0 0
0 0 0
0 0 0
0 0 0
0 0 0
0 0 0
0 0 0
0 0 0
0 0 0
0 0 0
0 0 0
0 0 0
0 0 0
0 0 0
0 0 0
0 0 0
0 0 0
0 0 0
0 0 0
0 0 0
0 0 0
0 0 0
0 0 0
0 0 0
0 0 0
0 0 0
0 0 0
0 0 0
0 0 0
0 0 0
0 0 0
0 0 0
0 0 0
0 0 0
0 0 0
0 0 0
0 0 0
0 0 0
0 0 0
0 0 0
0 0 0
0 0 0
0 0 0
0 0 0
0 0 0
0 0 0
0 0 0
0 0 0
0 0 0
0 0 0
0 0 0
0 0 0
0 0 0
0 0 0
0 0 0
0 0 0
0 0 0
0 0 0
0 0 0
0 0 0
0 0 0
0 0 0
0 0 0
0 0 0
0 0 0
0 0 0
0 0 0
0 0 0
0 0 0
0 0 0
0 0 0
0 0 0
0 0 0
0 0 0
0 0 0
0 0 0
0 0 0
0 0 0
0 0 0
0 0 0
0 0 0
0 0 0
0 0 0
0 0 0
0 0 0
0 0 0
0 0 0
0 0 0
0 0 0
0 0 0
0 0 0
0 0 0
0 0 0
0 0 0
0 0 0
0 0 0
0 0 0
0 0 0
0 0 0
0 0 0
0 0 0
0 0 0
0 0 0
0 0 0
0 0 0
0 0 0
0 0 0
0 0 0
0 0 0
0 0 0
0 0 0
0 0 0
0 0 0
0 0 0
0 0 0
0 0 0
0 0 0
0 0 0
0 0 0
0 0 0
0 0 0
0 0 0
0 0 0
0 0 0
0 0 0
0 0 0
0 0 0
0 0 0
0 0 0
0 0 0
0 0 0
0 0 0
0 0 0
0 0 0
0 0 0
0 0 0
0 0 0
0 0 0
0 0 0
0 0 0
0 0 0
0 0 0
0 0 0
0 0 0
0 0 0
0 0 0
0 0 0
0 0 0
0 0 0
0 0 0
0 0 0
0 0 0
0 0 0
0 0 0
0 0 0
0 0 0
0 0 0
0 0 0
0 0 0
0 0 0
0 0 0
0 0 0
0 0 0
0 0 0
0 0 0
0 0 0
0 0 0
0 0 0
0 0 0
0 0 0
0 0 0
0 0 0
0 0 0
0 0 0
0 0 0
0 0 0
0 0 0
0 0 0
0 0 0
0 0 0
0 0 0
0 0 0
0 0 0
0 0 0
0 0 0
0 0 0
0 0 0
0 0 0
0 0 0
0 0 0
0 0 0
0 0 0
0 0 0
0 0 0
0 0 0
0 0 0
0 0 0
0 0 0
0 0 0
0 0 0
0 0 0
0 0 0
0 0 0
0 0 0
0 0 0
0 0 0
0 0 0
0 0 0
0 0 0
0 0 0
0 0 0
0 0 0
0 0 0
0 0 0
0 0 0
0 0 0
0 0 0
0 0 0
0 0 0
0 0 0
0 0 0
0 0 0
0 0 0
0 0 0
0 0 0
0 0 0
0 0 0
0 0 0
0 0 0
0 0 0
0 0 0
0 0 0
0 0 0
0 0 0
0 0 0
0 0 0
0 0 0
0 0 0
0 0 0
0 0 0
0 0 0
0 0 0
0 0 0
0 0 0
0 0 0
0 0 0
0 0 0
0 0 0
0 0 0
0 0 0
0 0 0
0 0 0
0 0 0
0 0 0
0 0 0
0 0 0
0 0 0
0 0 0
0 0 0
